(.../pcb-gcode-3.6.0.4/pcb-gcode.ulp)
(Copyright 2005 - 2012 by John Johnson)
(See readme.txt for licensing terms.)
(This file generated from the board:)
(.../Tube Prototypes/IV-18_test.brd)
(Current profile is .../pcb-gcode-3.6.0.4/profiles/mach.pp  )
(This file generated 18/08/2013 10:49:49 PM)
(Settings from pcb-machine.h)
(  Tool Size)
(0.1000  )
(Z Axis Settings)
(  High     Up        Down     Drill)
(15.0000 	2.0000  	-0.2500 	-1.5000 )
(spindle on time = 1.0000)
(milling depth = -0.3000)
(text depth = -0.1500)
(tool change at 0.0000  0.0000  20.0000 )
(feed rate xy = F100   )
(feed rate z  = F100   )
(Settings from pcb-defaults.h)
(isolate min = 0.0254)
(isolate max = 0.2500)
(isolate step = 0.1000)
(Generated top outlines, bottom outlines, bottom drill, )
(Unit of measure: mm)
(Metric Mode)
G21
(Absolute Coordinates)
G90
G00 X0.0000  Y0.0000  
M03
G04 P1.000000
G00 Z2.0000  
G00 X-8.4828 Y53.3854 
G01 Z-0.2500 F100   
G01 X-7.7654 Y54.1028 F100   
G01 X-7.7654 Y55.1172 
G01 X-8.4828 Y55.8346 
G01 X-9.4972 Y55.8346 
G01 X-10.2146 Y55.1172 
G01 X-10.2146 Y54.1028 
G01 X-9.4972 Y53.3854 
G01 X-8.4828 Y53.3854 
G00 Z2.0000  
G00 X-9.8654 Y54.2474 
G01 Z-0.2500 F100   
G01 X-9.8654 Y54.9726 F100   
G01 X-9.3526 Y55.4854 
G01 X-8.6274 Y55.4854 
G01 X-8.1146 Y54.9726 
G01 X-8.1146 Y54.2474 
G01 X-8.6274 Y53.7346 
G01 X-9.3526 Y53.7346 
G01 X-9.8654 Y54.2474 
G00 Z2.0000  
G00 X-39.0726 Y66.2287 
G01 Z-0.2500 F100   
G01 X-39.0726 Y66.3005 F100   
G01 X-39.1965 Y66.4245 
G01 X-39.5183 Y66.4245 
G01 X-39.6423 Y66.3005 
G01 X-39.6423 Y66.2287 
G01 X-39.5183 Y66.1047 
G01 X-39.1965 Y66.1047 
G01 X-39.0726 Y66.2287 
G00 Z2.0000  
G00 X-39.6423 Y65.5506 
G01 Z-0.2500 F100   
G01 X-39.6423 Y65.4788 F100   
G01 X-39.5183 Y65.3548 
G01 X-39.1966 Y65.3548 
G01 X-39.0726 Y65.4788 
G01 X-39.0726 Y65.5506 
G01 X-39.1965 Y65.6745 
G01 X-39.5183 Y65.6745 
G01 X-39.6423 Y65.5506 
G00 Z2.0000  
G00 X-44.9862 Y64.7158 
G01 Z-0.2500 F100   
G01 X-44.9862 Y64.7158 F100   
G01 X-44.9293 Y64.7727 
G01 X-44.8773 Y64.7943 
G01 X-44.8549 Y64.8035 
G01 X-44.7744 Y64.8035 
G01 X-44.7000 Y64.7727 
G01 X-44.5886 Y64.6613 
G01 X-44.3812 Y64.5754 
G01 X-44.1566 Y64.5754 
G01 X-43.9492 Y64.6613 
G01 X-43.4493 Y65.1613 
G01 X-43.3160 Y65.2945 
G01 X-43.2416 Y65.3253 
G01 X-42.2210 Y65.3253 
G01 X-42.1466 Y65.2945 
G01 X-42.0897 Y65.2376 
G01 X-42.0588 Y65.1632 
G01 X-42.0588 Y65.0274 
G01 X-41.9729 Y64.8200 
G01 X-41.8142 Y64.6613 
G01 X-41.6068 Y64.5754 
G01 X-40.3824 Y64.5754 
G01 X-40.1750 Y64.6613 
G01 X-40.1657 Y64.6706 
G01 X-40.1325 Y64.6843 
G01 X-40.0913 Y64.7014 
G01 X-40.0511 Y64.7014 
G01 X-40.0108 Y64.7014 
G01 X-39.9697 Y64.6844 
G01 X-39.9364 Y64.6706 
G01 X-39.9270 Y64.6613 
G01 X-39.7197 Y64.5754 
G01 X-38.9952 Y64.5754 
G01 X-38.7878 Y64.6613 
G01 X-38.5721 Y64.8770 
G01 X-38.3791 Y65.0700 
G01 X-38.2932 Y65.2774 
G01 X-38.2932 Y65.7519 
G01 X-38.3335 Y65.8494 
G01 X-38.3335 Y65.9299 
G01 X-38.2932 Y66.0274 
G01 X-38.2932 Y66.5018 
G01 X-38.3604 Y66.6642 
G01 X-38.3791 Y66.7092 
G01 X-38.5378 Y66.8680 
G01 X-38.5948 Y66.9249 
G01 X-38.6291 Y66.9592 
G01 X-38.7842 Y67.1144 
G01 X-38.7878 Y67.1180 
G01 X-38.8752 Y67.1542 
G01 X-38.9382 Y67.1803 
G01 X-38.9495 Y67.1850 
G01 X-38.9952 Y67.2039 
G01 X-39.7197 Y67.2039 
G01 X-39.7587 Y67.1877 
G01 X-39.7704 Y67.1829 
G01 X-39.8331 Y67.1569 
G01 X-39.9271 Y67.1180 
G01 X-40.0858 Y66.9592 
G01 X-40.1427 Y66.9023 
G01 X-40.1770 Y66.8680 
G01 X-40.2044 Y66.8406 
G01 X-40.2327 Y66.8289 
G01 X-40.2788 Y66.8098 
G01 X-40.3186 Y66.8098 
G01 X-40.3593 Y66.8098 
G01 X-40.4047 Y66.8286 
G01 X-40.4337 Y66.8406 
G01 X-40.4620 Y66.8689 
G01 X-40.4906 Y66.8975 
G01 X-40.5034 Y66.9284 
G01 X-40.5162 Y66.9592 
G01 X-40.6749 Y67.1180 
G01 X-40.8823 Y67.2039 
G01 X-41.1068 Y67.2039 
G01 X-41.1126 Y67.2015 
G01 X-41.1314 Y67.1937 
G01 X-41.1870 Y67.1707 
G01 X-41.3142 Y67.1180 
G01 X-41.4730 Y66.9592 
G01 X-41.4964 Y66.9358 
G01 X-41.5180 Y66.9108 
G01 X-41.5247 Y66.9075 
G01 X-41.9475 Y66.4848 
G01 X-42.0218 Y66.4539 
G01 X-43.0425 Y66.4539 
G01 X-43.1169 Y66.4848 
G01 X-43.1738 Y66.5417 
G01 X-43.2046 Y66.6161 
G01 X-43.2046 Y66.7518 
G01 X-43.2905 Y66.9592 
G01 X-43.4493 Y67.1180 
G01 X-43.6567 Y67.2039 
G01 X-43.8812 Y67.2039 
G01 X-44.0886 Y67.1180 
G01 X-44.1543 Y67.0523 
G01 X-44.1661 Y67.0474 
G01 X-44.2286 Y67.0215 
G01 X-44.3092 Y67.0215 
G01 X-44.3391 Y67.0339 
G01 X-44.3836 Y67.0523 
G01 X-44.4405 Y67.1092 
G01 X-44.4492 Y67.1180 
G01 X-44.6566 Y67.2039 
G01 X-44.8811 Y67.2039 
G01 X-44.9500 Y67.1754 
G01 X-44.9545 Y67.1735 
G01 X-45.0243 Y67.1445 
G01 X-45.1049 Y67.1445 
G01 X-45.1728 Y67.1727 
G01 X-45.1792 Y67.1754 
G01 X-45.2481 Y67.2039 
G01 X-45.9725 Y67.2039 
G01 X-46.1799 Y67.1180 
G01 X-46.3387 Y66.9592 
G01 X-46.4246 Y66.7518 
G01 X-46.4246 Y66.5273 
G01 X-46.3387 Y66.3199 
G01 X-46.2054 Y66.1867 
G01 X-46.1746 Y66.1123 
G01 X-46.1746 Y65.6670 
G01 X-46.2054 Y65.5926 
G01 X-46.2624 Y65.5357 
G01 X-46.3387 Y65.4593 
G01 X-46.4246 Y65.2519 
G01 X-46.4246 Y65.0274 
G01 X-46.3387 Y64.8200 
G01 X-46.1799 Y64.6613 
G01 X-45.9725 Y64.5754 
G01 X-45.2481 Y64.5754 
G01 X-45.0407 Y64.6613 
G01 X-44.9862 Y64.7158 
G00 Z2.0000  
G00 X-44.9840 Y66.6824 
G01 Z-0.2500 F100   
G01 X-44.9512 Y66.7614 F100   
G01 X-44.8907 Y66.8219 
G01 X-44.8116 Y66.8547 
G01 X-44.7261 Y66.8547 
G01 X-44.6470 Y66.8219 
G01 X-44.5865 Y66.7614 
G01 X-44.5538 Y66.6824 
G01 X-44.5538 Y65.7288 
G01 X-44.2689 Y65.4439 
G01 X-43.9840 Y65.7288 
G01 X-43.9840 Y66.6824 
G01 X-43.9513 Y66.7614 
G01 X-43.8908 Y66.8219 
G01 X-43.8117 Y66.8547 
G01 X-43.7262 Y66.8547 
G01 X-43.6471 Y66.8219 
G01 X-43.5866 Y66.7614 
G01 X-43.5538 Y66.6824 
G01 X-43.5538 Y65.5969 
G01 X-43.5866 Y65.5178 
G01 X-43.6471 Y65.4573 
G01 X-44.1471 Y64.9573 
G01 X-44.2261 Y64.9246 
G01 X-44.3117 Y64.9246 
G01 X-44.3907 Y64.9573 
G01 X-44.4513 Y65.0179 
G01 X-44.9512 Y65.5178 
G01 X-44.9840 Y65.5969 
G01 X-44.9840 Y65.6824 
G01 X-44.9840 Y66.6824 
G00 Z2.0000  
G00 X-45.3176 Y64.9246 
G01 Z-0.2500 F100   
G01 X-45.9031 Y64.9246 F100   
G01 X-45.9821 Y64.9573 
G01 X-46.0427 Y65.0179 
G01 X-46.0754 Y65.0969 
G01 X-46.0754 Y65.1825 
G01 X-46.0427 Y65.2615 
G01 X-45.9821 Y65.3221 
G01 X-45.9031 Y65.3548 
G01 X-45.8254 Y65.3548 
G01 X-45.8254 Y66.4245 
G01 X-45.9031 Y66.4245 
G01 X-45.9821 Y66.4572 
G01 X-46.0427 Y66.5177 
G01 X-46.0754 Y66.5968 
G01 X-46.0754 Y66.6824 
G01 X-46.0427 Y66.7614 
G01 X-45.9821 Y66.8219 
G01 X-45.9031 Y66.8547 
G01 X-45.3176 Y66.8547 
G01 X-45.2385 Y66.8219 
G01 X-45.1780 Y66.7614 
G01 X-45.1452 Y66.6824 
G01 X-45.1452 Y66.5968 
G01 X-45.1780 Y66.5177 
G01 X-45.2385 Y66.4572 
G01 X-45.3176 Y66.4245 
G01 X-45.3952 Y66.4245 
G01 X-45.3952 Y65.3548 
G01 X-45.3176 Y65.3548 
G01 X-45.2385 Y65.3221 
G01 X-45.1780 Y65.2615 
G01 X-45.1452 Y65.1825 
G01 X-45.1452 Y65.0969 
G01 X-45.1780 Y65.0179 
G01 X-45.2385 Y64.9573 
G01 X-45.3176 Y64.9246 
G00 Z2.0000  
G00 X-42.0890 Y65.6745 
G01 Z-0.2500 F100   
G01 X-43.1745 Y65.6745 F100   
G01 X-43.2536 Y65.7073 
G01 X-43.3141 Y65.7678 
G01 X-43.3468 Y65.8469 
G01 X-43.3468 Y65.9324 
G01 X-43.3141 Y66.0115 
G01 X-43.2536 Y66.0720 
G01 X-43.1745 Y66.1047 
G01 X-42.0890 Y66.1047 
G01 X-42.0099 Y66.0720 
G01 X-41.9494 Y66.0115 
G01 X-41.9167 Y65.9324 
G01 X-41.9167 Y65.8469 
G01 X-41.9494 Y65.7678 
G01 X-42.0099 Y65.7073 
G01 X-42.0890 Y65.6745 
G00 Z2.0000  
G00 X-41.3727 Y65.9573 
G01 Z-0.2500 F100   
G01 X-41.4518 Y65.9245 F100   
G01 X-41.5373 Y65.9245 
G01 X-41.6164 Y65.9573 
G01 X-41.6769 Y66.0178 
G01 X-41.7096 Y66.0968 
G01 X-41.7096 Y66.1824 
G01 X-41.6769 Y66.2615 
G01 X-41.1769 Y66.7614 
G01 X-41.1164 Y66.8219 
G01 X-41.0374 Y66.8547 
G01 X-40.9518 Y66.8547 
G01 X-40.8727 Y66.8219 
G01 X-40.8122 Y66.7614 
G01 X-40.7795 Y66.6824 
G01 X-40.7795 Y65.3548 
G01 X-40.4518 Y65.3548 
G01 X-40.3728 Y65.3221 
G01 X-40.3123 Y65.2615 
G01 X-40.2795 Y65.1825 
G01 X-40.2795 Y65.0969 
G01 X-40.3123 Y65.0179 
G01 X-40.3728 Y64.9573 
G01 X-40.4518 Y64.9246 
G01 X-41.5373 Y64.9246 
G01 X-41.6164 Y64.9573 
G01 X-41.6769 Y65.0179 
G01 X-41.7096 Y65.0969 
G01 X-41.7096 Y65.1825 
G01 X-41.6769 Y65.2615 
G01 X-41.6164 Y65.3221 
G01 X-41.5373 Y65.3548 
G01 X-41.2097 Y65.3548 
G01 X-41.2097 Y66.1203 
G01 X-41.3727 Y65.9573 
G00 Z2.0000  
G00 X-39.7898 Y66.7614 
G01 Z-0.2500 F100   
G01 X-39.7898 Y66.7614 F100   
G01 X-39.7293 Y66.8219 
G01 X-39.6502 Y66.8547 
G01 X-39.0647 Y66.8547 
G01 X-38.9856 Y66.8219 
G01 X-38.9251 Y66.7614 
G01 X-38.7356 Y66.5720 
G01 X-38.6751 Y66.5114 
G01 X-38.6424 Y66.4324 
G01 X-38.6424 Y66.0968 
G01 X-38.6751 Y66.0178 
G01 X-38.8033 Y65.8896 
G01 X-38.7356 Y65.8220 
G01 X-38.6751 Y65.7615 
G01 X-38.6424 Y65.6824 
G01 X-38.6424 Y65.3469 
G01 X-38.6751 Y65.2678 
G01 X-38.9251 Y65.0179 
G01 X-38.9856 Y64.9573 
G01 X-39.0647 Y64.9246 
G01 X-39.6502 Y64.9246 
G01 X-39.7293 Y64.9573 
G01 X-39.9792 Y65.2073 
G01 X-40.0397 Y65.2678 
G01 X-40.0725 Y65.3469 
G01 X-40.0725 Y65.6824 
G01 X-40.0397 Y65.7615 
G01 X-39.9792 Y65.8220 
G01 X-39.9116 Y65.8896 
G01 X-39.9792 Y65.9573 
G01 X-40.0397 Y66.0178 
G01 X-40.0725 Y66.0968 
G01 X-40.0725 Y66.4324 
G01 X-40.0397 Y66.5114 
G01 X-39.9792 Y66.5720 
G01 X-39.7898 Y66.7614 
G00 Z2.0000  
G00 X-27.6125 Y65.9787 
G01 Z-0.2500 F100   
G01 X-27.6125 Y66.3005 F100   
G01 X-27.7365 Y66.4245 
G01 X-28.1822 Y66.4245 
G01 X-28.1822 Y65.8548 
G01 X-27.7365 Y65.8548 
G01 X-27.6125 Y65.9787 
G00 Z2.0000  
G00 X-35.0582 Y64.5754 
G01 Z-0.2500 F100   
G01 X-33.8338 Y64.5754 F100   
G01 X-33.6264 Y64.6613 
G01 X-33.6171 Y64.6706 
G01 X-33.5839 Y64.6843 
G01 X-33.5427 Y64.7014 
G01 X-33.5025 Y64.7014 
G01 X-33.4622 Y64.7014 
G01 X-33.4211 Y64.6844 
G01 X-33.3878 Y64.6706 
G01 X-33.3784 Y64.6613 
G01 X-33.1710 Y64.5754 
G01 X-32.4466 Y64.5754 
G01 X-32.2392 Y64.6613 
G01 X-32.0235 Y64.8770 
G01 X-31.9618 Y64.9387 
G01 X-31.9534 Y64.9421 
G01 X-31.8874 Y64.9695 
G01 X-31.8069 Y64.9695 
G01 X-31.7690 Y64.9538 
G01 X-31.7325 Y64.9387 
G01 X-31.6756 Y64.8817 
G01 X-31.6722 Y64.8734 
G01 X-31.6500 Y64.8200 
G01 X-31.4913 Y64.6613 
G01 X-31.2839 Y64.5754 
G01 X-31.0594 Y64.5754 
G01 X-30.8520 Y64.6613 
G01 X-30.7746 Y64.7387 
G01 X-30.7207 Y64.7927 
G01 X-30.7177 Y64.7956 
G01 X-30.6875 Y64.8081 
G01 X-30.6433 Y64.8264 
G01 X-30.5628 Y64.8264 
G01 X-30.5198 Y64.8086 
G01 X-30.4884 Y64.7956 
G01 X-30.4315 Y64.7387 
G01 X-30.3541 Y64.6613 
G01 X-30.1467 Y64.5754 
G01 X-28.9223 Y64.5754 
G01 X-28.8306 Y64.6134 
G01 X-28.7584 Y64.6433 
G01 X-28.6757 Y64.6442 
G01 X-28.5095 Y64.5754 
G01 X-28.2850 Y64.5754 
G01 X-28.0776 Y64.6613 
G01 X-28.0689 Y64.6700 
G01 X-28.0129 Y64.7260 
G01 X-27.9693 Y64.7447 
G01 X-27.9376 Y64.7578 
G01 X-27.8571 Y64.7578 
G01 X-27.7963 Y64.7326 
G01 X-27.7827 Y64.7270 
G01 X-27.7266 Y64.6709 
G01 X-27.7170 Y64.6613 
G01 X-27.5096 Y64.5754 
G01 X-27.2851 Y64.5754 
G01 X-27.0777 Y64.6613 
G01 X-26.9190 Y64.8200 
G01 X-26.8331 Y65.0274 
G01 X-26.8331 Y65.2519 
G01 X-26.8944 Y65.4000 
G01 X-26.9238 Y65.4710 
G01 X-26.9252 Y65.4744 
G01 X-26.9252 Y65.5549 
G01 X-26.8944 Y65.6293 
G01 X-26.8331 Y65.7774 
G01 X-26.8331 Y66.5018 
G01 X-26.9003 Y66.6642 
G01 X-26.9132 Y66.6952 
G01 X-26.9190 Y66.7092 
G01 X-27.0777 Y66.8680 
G01 X-27.1347 Y66.9249 
G01 X-27.1690 Y66.9592 
G01 X-27.3277 Y67.1180 
G01 X-27.4151 Y67.1542 
G01 X-27.4781 Y67.1803 
G01 X-27.4895 Y67.1850 
G01 X-27.5351 Y67.2039 
G01 X-28.5095 Y67.2039 
G01 X-28.6013 Y67.1659 
G01 X-28.6753 Y67.1352 
G01 X-28.7562 Y67.1351 
G01 X-28.9223 Y67.2039 
G01 X-30.1467 Y67.2039 
G01 X-30.3128 Y67.1351 
G01 X-30.3933 Y67.1351 
G01 X-30.4677 Y67.1659 
G01 X-30.5594 Y67.2039 
G01 X-31.7839 Y67.2039 
G01 X-31.9912 Y67.1180 
G01 X-32.0005 Y67.1087 
G01 X-32.0337 Y67.0949 
G01 X-32.0749 Y67.0779 
G01 X-32.1151 Y67.0778 
G01 X-32.1554 Y67.0778 
G01 X-32.1965 Y67.0949 
G01 X-32.2298 Y67.1086 
G01 X-32.2392 Y67.1180 
G01 X-32.2625 Y67.1276 
G01 X-32.2879 Y67.1382 
G01 X-32.4466 Y67.2039 
G01 X-33.1710 Y67.2039 
G01 X-33.2167 Y67.1850 
G01 X-33.2451 Y67.1732 
G01 X-33.2911 Y67.1542 
G01 X-33.3784 Y67.1180 
G01 X-33.3820 Y67.1144 
G01 X-33.3877 Y67.1087 
G01 X-33.4189 Y67.0958 
G01 X-33.4621 Y67.0778 
G01 X-33.5022 Y67.0778 
G01 X-33.5427 Y67.0778 
G01 X-33.5819 Y67.0941 
G01 X-33.6170 Y67.1087 
G01 X-33.6264 Y67.1180 
G01 X-33.8338 Y67.2039 
G01 X-35.0582 Y67.2039 
G01 X-35.2243 Y67.1351 
G01 X-35.3048 Y67.1351 
G01 X-35.3792 Y67.1659 
G01 X-35.4709 Y67.2039 
G01 X-36.6953 Y67.2039 
G01 X-36.9027 Y67.1180 
G01 X-37.0615 Y66.9592 
G01 X-37.1474 Y66.7518 
G01 X-37.1474 Y66.5273 
G01 X-37.0615 Y66.3199 
G01 X-36.9027 Y66.1612 
G01 X-36.8096 Y66.1226 
G01 X-36.7352 Y66.0918 
G01 X-36.6791 Y66.0357 
G01 X-36.6474 Y65.9605 
G01 X-36.6474 Y65.0274 
G01 X-36.5615 Y64.8200 
G01 X-36.4028 Y64.6613 
G01 X-36.1954 Y64.5754 
G01 X-35.9709 Y64.5754 
G01 X-35.7635 Y64.6613 
G01 X-35.6861 Y64.7387 
G01 X-35.6321 Y64.7927 
G01 X-35.6292 Y64.7956 
G01 X-35.5990 Y64.8081 
G01 X-35.5548 Y64.8264 
G01 X-35.4743 Y64.8264 
G01 X-35.4313 Y64.8086 
G01 X-35.3999 Y64.7956 
G01 X-35.3429 Y64.7387 
G01 X-35.2656 Y64.6613 
G01 X-35.0582 Y64.5754 
G00 Z2.0000  
G00 X-28.9917 Y66.8547 
G01 Z-0.2500 F100   
G01 X-28.9127 Y66.8219 F100   
G01 X-28.8522 Y66.7614 
G01 X-28.8194 Y66.6824 
G01 X-28.8194 Y66.5968 
G01 X-28.8522 Y66.5177 
G01 X-28.9127 Y66.4572 
G01 X-28.9917 Y66.4245 
G01 X-29.8194 Y66.4245 
G01 X-29.8194 Y66.1047 
G01 X-29.4917 Y66.1047 
G01 X-29.4127 Y66.0720 
G01 X-29.3521 Y66.0115 
G01 X-29.3194 Y65.9324 
G01 X-29.3194 Y65.8469 
G01 X-29.3521 Y65.7678 
G01 X-29.4127 Y65.7073 
G01 X-29.4917 Y65.6745 
G01 X-29.8194 Y65.6745 
G01 X-29.8194 Y65.3548 
G01 X-28.9917 Y65.3548 
G01 X-28.9127 Y65.3221 
G01 X-28.8522 Y65.2615 
G01 X-28.8194 Y65.1825 
G01 X-28.8194 Y65.0969 
G01 X-28.8522 Y65.0179 
G01 X-28.9127 Y64.9573 
G01 X-28.9917 Y64.9246 
G01 X-30.0772 Y64.9246 
G01 X-30.1563 Y64.9573 
G01 X-30.2168 Y65.0179 
G01 X-30.2496 Y65.0969 
G01 X-30.2496 Y66.6824 
G01 X-30.2168 Y66.7614 
G01 X-30.1563 Y66.8219 
G01 X-30.0772 Y66.8547 
G01 X-29.9917 Y66.8547 
G01 X-28.9917 Y66.8547 
G00 Z2.0000  
G00 X-33.9032 Y66.8547 
G01 Z-0.2500 F100   
G01 X-33.8242 Y66.8219 F100   
G01 X-33.7637 Y66.7614 
G01 X-33.7309 Y66.6824 
G01 X-33.7309 Y66.5968 
G01 X-33.7637 Y66.5177 
G01 X-33.8242 Y66.4572 
G01 X-33.9032 Y66.4245 
G01 X-34.7308 Y66.4245 
G01 X-34.7308 Y66.1047 
G01 X-34.4032 Y66.1047 
G01 X-34.3241 Y66.0720 
G01 X-34.2636 Y66.0115 
G01 X-34.2309 Y65.9324 
G01 X-34.2309 Y65.8469 
G01 X-34.2636 Y65.7678 
G01 X-34.3241 Y65.7073 
G01 X-34.4032 Y65.6745 
G01 X-34.7308 Y65.6745 
G01 X-34.7308 Y65.3548 
G01 X-33.9032 Y65.3548 
G01 X-33.8242 Y65.3221 
G01 X-33.7637 Y65.2615 
G01 X-33.7309 Y65.1825 
G01 X-33.7309 Y65.0969 
G01 X-33.7637 Y65.0179 
G01 X-33.8242 Y64.9573 
G01 X-33.9032 Y64.9246 
G01 X-34.9887 Y64.9246 
G01 X-35.0678 Y64.9573 
G01 X-35.1283 Y65.0179 
G01 X-35.1610 Y65.0969 
G01 X-35.1610 Y66.6824 
G01 X-35.1283 Y66.7614 
G01 X-35.0678 Y66.8219 
G01 X-34.9887 Y66.8547 
G01 X-34.9031 Y66.8547 
G01 X-33.9032 Y66.8547 
G00 Z2.0000  
G00 X-35.8680 Y65.0969 
G01 Z-0.2500 F100   
G01 X-35.9008 Y65.0179 F100   
G01 X-35.9613 Y64.9573 
G01 X-36.0403 Y64.9246 
G01 X-36.1259 Y64.9246 
G01 X-36.2050 Y64.9573 
G01 X-36.2655 Y65.0179 
G01 X-36.2982 Y65.0969 
G01 X-36.2982 Y66.4245 
G01 X-36.6259 Y66.4245 
G01 X-36.7049 Y66.4572 
G01 X-36.7654 Y66.5177 
G01 X-36.7982 Y66.5968 
G01 X-36.7982 Y66.6824 
G01 X-36.7654 Y66.7614 
G01 X-36.7049 Y66.8219 
G01 X-36.6259 Y66.8547 
G01 X-35.5404 Y66.8547 
G01 X-35.4613 Y66.8219 
G01 X-35.4008 Y66.7614 
G01 X-35.3681 Y66.6824 
G01 X-35.3681 Y66.5968 
G01 X-35.4008 Y66.5177 
G01 X-35.4613 Y66.4572 
G01 X-35.5404 Y66.4245 
G01 X-35.8680 Y66.4245 
G01 X-35.8680 Y65.0969 
G00 Z2.0000  
G00 X-32.1265 Y66.5114 
G01 Z-0.2500 F100   
G01 X-32.0938 Y66.4324 F100   
G01 X-32.0938 Y66.3468 
G01 X-32.1265 Y66.2678 
G01 X-32.1870 Y66.2072 
G01 X-32.2661 Y66.1745 
G01 X-32.3516 Y66.1745 
G01 X-32.4307 Y66.2072 
G01 X-32.6479 Y66.4245 
G01 X-32.9697 Y66.4245 
G01 X-33.0937 Y66.3005 
G01 X-33.0937 Y66.2287 
G01 X-32.9697 Y66.1047 
G01 X-32.5160 Y66.1047 
G01 X-32.4370 Y66.0720 
G01 X-32.3765 Y66.0115 
G01 X-32.1870 Y65.8220 
G01 X-32.1265 Y65.7615 
G01 X-32.0938 Y65.6824 
G01 X-32.0938 Y65.3469 
G01 X-32.1265 Y65.2678 
G01 X-32.3765 Y65.0179 
G01 X-32.4370 Y64.9573 
G01 X-32.5160 Y64.9246 
G01 X-33.1016 Y64.9246 
G01 X-33.1806 Y64.9573 
G01 X-33.4911 Y65.2678 
G01 X-33.5239 Y65.3469 
G01 X-33.5239 Y65.4325 
G01 X-33.4911 Y65.5115 
G01 X-33.4306 Y65.5720 
G01 X-33.3516 Y65.6048 
G01 X-33.2660 Y65.6048 
G01 X-33.1869 Y65.5720 
G01 X-32.9697 Y65.3548 
G01 X-32.6479 Y65.3548 
G01 X-32.5239 Y65.4788 
G01 X-32.5239 Y65.5506 
G01 X-32.6479 Y65.6745 
G01 X-33.1016 Y65.6745 
G01 X-33.1806 Y65.7073 
G01 X-33.4911 Y66.0178 
G01 X-33.5239 Y66.0968 
G01 X-33.5239 Y66.4324 
G01 X-33.4911 Y66.5114 
G01 X-33.4306 Y66.5720 
G01 X-33.2411 Y66.7614 
G01 X-33.1830 Y66.8195 
G01 X-33.1016 Y66.8547 
G01 X-32.5160 Y66.8547 
G01 X-32.4392 Y66.8229 
G01 X-32.3765 Y66.7614 
G01 X-32.1265 Y66.5114 
G00 Z2.0000  
G00 X-30.9566 Y65.0969 
G01 Z-0.2500 F100   
G01 X-30.9893 Y65.0179 F100   
G01 X-31.0498 Y64.9573 
G01 X-31.1289 Y64.9246 
G01 X-31.2144 Y64.9246 
G01 X-31.2935 Y64.9573 
G01 X-31.3540 Y65.0179 
G01 X-31.3868 Y65.0969 
G01 X-31.3868 Y66.4245 
G01 X-31.7144 Y66.4245 
G01 X-31.7935 Y66.4572 
G01 X-31.8540 Y66.5177 
G01 X-31.8867 Y66.5968 
G01 X-31.8867 Y66.6824 
G01 X-31.8540 Y66.7614 
G01 X-31.7935 Y66.8219 
G01 X-31.7144 Y66.8547 
G01 X-30.6289 Y66.8547 
G01 X-30.5498 Y66.8219 
G01 X-30.4893 Y66.7614 
G01 X-30.4566 Y66.6824 
G01 X-30.4566 Y66.5968 
G01 X-30.4893 Y66.5177 
G01 X-30.5498 Y66.4572 
G01 X-30.6289 Y66.4245 
G01 X-30.9566 Y66.4245 
G01 X-30.9566 Y65.0969 
G00 Z2.0000  
G00 X-28.1822 Y65.0969 
G01 Z-0.2500 F100   
G01 X-28.2149 Y65.0179 F100   
G01 X-28.2755 Y64.9573 
G01 X-28.3545 Y64.9246 
G01 X-28.4401 Y64.9246 
G01 X-28.5191 Y64.9573 
G01 X-28.5797 Y65.0179 
G01 X-28.6124 Y65.0969 
G01 X-28.6124 Y66.6824 
G01 X-28.5797 Y66.7614 
G01 X-28.5191 Y66.8219 
G01 X-28.4401 Y66.8547 
G01 X-27.6046 Y66.8547 
G01 X-27.5255 Y66.8219 
G01 X-27.4650 Y66.7614 
G01 X-27.2755 Y66.5720 
G01 X-27.2150 Y66.5114 
G01 X-27.1823 Y66.4324 
G01 X-27.1823 Y65.8469 
G01 X-27.2150 Y65.7678 
G01 X-27.2755 Y65.7073 
G01 X-27.4650 Y65.5178 
G01 X-27.4682 Y65.5147 
G01 X-27.2150 Y65.2615 
G01 X-27.1823 Y65.1825 
G01 X-27.1823 Y65.0969 
G01 X-27.2150 Y65.0179 
G01 X-27.2755 Y64.9573 
G01 X-27.3546 Y64.9246 
G01 X-27.4402 Y64.9246 
G01 X-27.5192 Y64.9573 
G01 X-27.9864 Y65.4246 
G01 X-28.1822 Y65.4246 
G01 X-28.1822 Y65.0969 
G00 Z2.0000  
G00 X-7.8950 Y29.4464 
G01 Z-0.2500 F100   
G01 X-7.9982 Y29.4464 F100   
G01 X-7.9982 Y29.4202 
G01 X-8.4292 Y28.9892 
G01 X-8.4336 Y28.9892 
G01 X-8.4336 Y28.8860 
G01 X-8.3865 Y28.8860 
G01 X-7.8950 Y29.3775 
G01 X-7.8950 Y29.4464 
G00 Z2.0000  
G00 X-7.7350 Y23.4375 
G01 Z-0.2500 F100   
G01 X-8.2265 Y23.9290 F100   
G01 X-8.2954 Y23.9290 
G01 X-8.2954 Y23.8258 
G01 X-8.2692 Y23.8258 
G01 X-7.8382 Y23.3948 
G01 X-7.8382 Y23.3686 
G01 X-7.7350 Y23.3686 
G01 X-7.7350 Y23.4375 
G00 Z2.0000  
G00 X-7.1548 Y10.3298 
G01 Z-0.2500 F100   
G01 X-7.1548 Y9.6194  F100   
G01 X-7.0516 Y9.6194  
G01 X-7.0516 Y10.3178 
G01 X-7.0791 Y10.4917 
G01 X-7.1335 Y10.6591 
G01 X-7.2135 Y10.8160 
G01 X-7.3169 Y10.9584 
G01 X-7.4414 Y11.0829 
G01 X-7.5838 Y11.1863 
G01 X-7.7407 Y11.2663 
G01 X-7.8406 Y11.2987 
G01 X-7.8406 Y11.1922 
G01 X-7.6891 Y11.1295 
G01 X-7.5228 Y11.0184 
G01 X-7.3814 Y10.8770 
G01 X-7.2703 Y10.7107 
G01 X-7.1938 Y10.5259 
G01 X-7.1548 Y10.3298 
G00 Z2.0000  
G00 X-7.1548 Y8.2502  
G01 Z-0.2500 F100   
G01 X-7.1938 Y8.0541  F100   
G01 X-7.2703 Y7.8693  
G01 X-7.3814 Y7.7030  
G01 X-7.5228 Y7.5616  
G01 X-7.6891 Y7.4505  
G01 X-7.8406 Y7.3878  
G01 X-7.8406 Y7.2813  
G01 X-7.7407 Y7.3137  
G01 X-7.5838 Y7.3937  
G01 X-7.4414 Y7.4971  
G01 X-7.3169 Y7.6216  
G01 X-7.2135 Y7.7640  
G01 X-7.1335 Y7.9209  
G01 X-7.0791 Y8.0883  
G01 X-7.0516 Y8.2622  
G01 X-7.0516 Y8.9606  
G01 X-7.1548 Y8.9606  
G01 X-7.1548 Y8.2502  
G00 Z2.0000  
G00 X-8.6509 Y7.4505  
G01 Z-0.2500 F100   
G01 X-8.8171 Y7.5616  F100   
G01 X-8.9586 Y7.7030  
G01 X-9.0697 Y7.8693  
G01 X-9.1462 Y8.0541  
G01 X-9.1852 Y8.2502  
G01 X-9.1852 Y10.3298 
G01 X-9.1462 Y10.5259 
G01 X-9.0697 Y10.7107 
G01 X-8.9586 Y10.8770 
G01 X-8.8171 Y11.0184 
G01 X-8.6509 Y11.1295 
G01 X-8.4994 Y11.1922 
G01 X-8.4994 Y11.2987 
G01 X-8.5993 Y11.2663 
G01 X-8.7562 Y11.1863 
G01 X-8.8986 Y11.0829 
G01 X-9.0231 Y10.9584 
G01 X-9.1221 Y10.8221 
G01 X-9.1287 Y10.8061 
G01 X-9.1345 Y10.8004 
G01 X-9.1381 Y10.7931 
G01 X-9.1513 Y10.7818 
G01 X-9.1596 Y10.7705 
G01 X-9.1718 Y10.7630 
G01 X-9.1857 Y10.7492 
G01 X-9.1932 Y10.7461 
G01 X-9.1993 Y10.7408 
G01 X-9.2180 Y10.7347 
G01 X-9.2282 Y10.7284 
G01 X-9.2403 Y10.7265 
G01 X-9.2600 Y10.7183 
G01 X-9.2682 Y10.7183 
G01 X-9.2759 Y10.7158 
G01 X-9.2973 Y10.7175 
G01 X-9.3078 Y10.7158 
G01 X-9.3182 Y10.7183 
G01 X-9.3406 Y10.7183 
G01 X-9.3481 Y10.7215 
G01 X-9.3561 Y10.7221 
G01 X-9.3762 Y10.7323 
G01 X-9.3860 Y10.7346 
G01 X-9.3942 Y10.7406 
G01 X-9.4150 Y10.7492 
G01 X-9.4207 Y10.7549 
G01 X-9.4279 Y10.7586 
G01 X-9.4426 Y10.7757 
G01 X-9.4512 Y10.7820 
G01 X-9.4566 Y10.7908 
G01 X-9.4719 Y10.8061 
G01 X-9.4750 Y10.8136 
G01 X-9.4803 Y10.8198 
G01 X-9.4870 Y10.8404 
G01 X-9.4933 Y10.8506 
G01 X-9.4951 Y10.8620 
G01 X-9.5533 Y11.0027 
G01 X-9.9371 Y11.3865 
G01 X-9.9543 Y11.3936 
G01 X-10.0287 Y11.4244 
G01 X-10.0847 Y11.4804 
G01 X-10.1164 Y11.5557 
G01 X-10.1164 Y22.0234 
G01 X-10.0909 Y22.0849 
G01 X-10.0856 Y22.0978 
G01 X-10.0549 Y22.1285 
G01 X-10.0287 Y22.1547 
G01 X-9.9914 Y22.1702 
G01 X-9.6862 Y22.4754 
G01 X-9.6593 Y22.5404 
G01 X-9.6444 Y22.5763 
G01 X-9.6285 Y22.6148 
G01 X-9.6004 Y22.6428 
G01 X-9.5715 Y22.6717 
G01 X-9.5512 Y22.6801 
G01 X-9.4971 Y22.7025 
G01 X-9.4166 Y22.7025 
G01 X-9.3655 Y22.6813 
G01 X-9.3422 Y22.6717 
G01 X-9.2964 Y22.6259 
G01 X-9.2853 Y22.6148 
G01 X-8.9215 Y22.2510 
G01 X-8.8526 Y22.2510 
G01 X-8.8526 Y22.3542 
G01 X-8.8788 Y22.3542 
G01 X-9.3098 Y22.7852 
G01 X-9.3098 Y23.3948 
G01 X-8.8788 Y23.8258 
G01 X-8.8526 Y23.8258 
G01 X-8.8526 Y23.9290 
G01 X-8.9215 Y23.9290 
G01 X-9.2853 Y23.5652 
G01 X-9.2950 Y23.5555 
G01 X-9.3422 Y23.5083 
G01 X-9.3625 Y23.4999 
G01 X-9.4166 Y23.4775 
G01 X-9.4971 Y23.4775 
G01 X-9.5482 Y23.4987 
G01 X-9.5715 Y23.5083 
G01 X-9.5995 Y23.5363 
G01 X-9.6285 Y23.5652 
G01 X-9.6423 Y23.5988 
G01 X-9.6593 Y23.6396 
G01 X-9.6862 Y23.7046 
G01 X-9.9914 Y24.0098 
G01 X-10.3902 Y24.1750 
G01 X-10.8218 Y24.1750 
G01 X-11.2206 Y24.0098 
G01 X-11.5258 Y23.7046 
G01 X-11.6910 Y23.3058 
G01 X-11.6910 Y22.8742 
G01 X-11.5258 Y22.4754 
G01 X-11.2504 Y22.2000 
G01 X-11.2196 Y22.1256 
G01 X-11.2196 Y11.5905 
G01 X-11.2504 Y11.5161 
G01 X-11.3073 Y11.4592 
G01 X-11.3817 Y11.4284 
G01 X-11.4829 Y11.3865 
G01 X-11.8084 Y11.0609 
G01 X-11.8620 Y11.0074 
G01 X-11.8653 Y11.0040 
G01 X-11.9397 Y10.9732 
G01 X-12.0203 Y10.9732 
G01 X-12.0946 Y11.0040 
G01 X-12.1507 Y11.0601 
G01 X-12.4771 Y11.3865 
G01 X-12.4943 Y11.3936 
G01 X-12.5686 Y11.4244 
G01 X-12.6247 Y11.4804 
G01 X-12.6564 Y11.5557 
G01 X-12.6564 Y27.0329 
G01 X-12.6256 Y27.1073 
G01 X-12.5686 Y27.1643 
G01 X-11.1237 Y28.6092 
G01 X-11.0493 Y28.6400 
G01 X-10.5502 Y28.6400 
G01 X-10.1514 Y28.8052 
G01 X-9.8462 Y29.1104 
G01 X-9.8193 Y29.1754 
G01 X-9.8044 Y29.2113 
G01 X-9.7885 Y29.2498 
G01 X-9.7604 Y29.2778 
G01 X-9.7315 Y29.3067 
G01 X-9.7112 Y29.3151 
G01 X-9.6571 Y29.3375 
G01 X-9.5766 Y29.3375 
G01 X-9.5255 Y29.3163 
G01 X-9.5022 Y29.3067 
G01 X-9.4564 Y29.2609 
G01 X-9.4453 Y29.2498 
G01 X-9.0815 Y28.8860 
G01 X-9.0126 Y28.8860 
G01 X-9.0126 Y28.9892 
G01 X-9.0388 Y28.9892 
G01 X-9.4698 Y29.4202 
G01 X-9.4698 Y30.0298 
G01 X-9.0388 Y30.4608 
G01 X-9.0126 Y30.4608 
G01 X-9.0126 Y30.5640 
G01 X-9.0815 Y30.5640 
G01 X-9.4453 Y30.2002 
G01 X-9.4550 Y30.1905 
G01 X-9.5022 Y30.1433 
G01 X-9.5225 Y30.1349 
G01 X-9.5766 Y30.1125 
G01 X-9.6571 Y30.1125 
G01 X-9.7082 Y30.1337 
G01 X-9.7315 Y30.1433 
G01 X-9.7595 Y30.1713 
G01 X-9.7885 Y30.2002 
G01 X-9.8023 Y30.2338 
G01 X-9.8193 Y30.2746 
G01 X-9.8462 Y30.3396 
G01 X-10.0856 Y30.5790 
G01 X-10.1164 Y30.6534 
G01 X-10.1164 Y42.5269 
G01 X-10.0856 Y42.6013 
G01 X-10.0287 Y42.6583 
G01 X-9.5493 Y43.1376 
G01 X-9.4969 Y43.1900 
G01 X-9.4923 Y43.1946 
G01 X-9.4179 Y43.2254 
G01 X-8.4828 Y43.2254 
G01 X-7.7654 Y43.9428 
G01 X-7.7654 Y44.9572 
G01 X-8.4828 Y45.6746 
G01 X-9.4972 Y45.6746 
G01 X-10.2146 Y44.9572 
G01 X-10.2146 Y44.0761 
G01 X-10.2454 Y44.0017 
G01 X-10.3023 Y43.9447 
G01 X-11.1356 Y43.1115 
G01 X-11.2196 Y42.9087 
G01 X-11.2196 Y30.8065 
G01 X-11.2322 Y30.7761 
G01 X-11.2504 Y30.7321 
G01 X-11.3073 Y30.6752 
G01 X-11.3217 Y30.6692 
G01 X-11.3806 Y30.6448 
G01 X-11.6858 Y30.3396 
G01 X-11.8510 Y29.9408 
G01 X-11.8510 Y29.4857 
G01 X-11.8818 Y29.4113 
G01 X-11.9387 Y29.3543 
G01 X-13.6756 Y27.6175 
G01 X-13.7596 Y27.4147 
G01 X-13.7596 Y11.5905 
G01 X-13.7904 Y11.5161 
G01 X-13.8473 Y11.4592 
G01 X-13.9217 Y11.4284 
G01 X-14.0229 Y11.3865 
G01 X-14.4067 Y11.0027 
G01 X-14.6144 Y10.5012 
G01 X-14.6144 Y8.0788  
G01 X-14.4067 Y7.5773  
G01 X-14.0229 Y7.1935  
G01 X-13.5214 Y6.9858  
G01 X-12.9786 Y6.9858  
G01 X-12.4771 Y7.1935  
G01 X-12.0946 Y7.5760  
G01 X-12.0203 Y7.6068  
G01 X-11.9397 Y7.6068  
G01 X-11.8653 Y7.5760  
G01 X-11.8084 Y7.5191  
G01 X-11.4829 Y7.1935  
G01 X-10.9814 Y6.9858  
G01 X-10.4386 Y6.9858  
G01 X-9.9371 Y7.1935  
G01 X-9.5533 Y7.5773  
G01 X-9.4951 Y7.7180  
G01 X-9.4933 Y7.7294  
G01 X-9.4870 Y7.7396  
G01 X-9.4803 Y7.7602  
G01 X-9.4750 Y7.7664  
G01 X-9.4719 Y7.7739  
G01 X-9.4566 Y7.7892  
G01 X-9.4512 Y7.7980  
G01 X-9.4426 Y7.8042  
G01 X-9.4279 Y7.8214  
G01 X-9.4207 Y7.8251  
G01 X-9.4150 Y7.8308  
G01 X-9.3942 Y7.8394  
G01 X-9.3860 Y7.8454  
G01 X-9.3762 Y7.8477  
G01 X-9.3561 Y7.8579  
G01 X-9.3481 Y7.8585  
G01 X-9.3406 Y7.8616  
G01 X-9.3182 Y7.8616  
G01 X-9.3078 Y7.8642  
G01 X-9.2973 Y7.8625  
G01 X-9.2759 Y7.8642  
G01 X-9.2682 Y7.8616  
G01 X-9.2600 Y7.8616  
G01 X-9.2403 Y7.8535  
G01 X-9.2282 Y7.8516  
G01 X-9.2180 Y7.8453  
G01 X-9.1993 Y7.8392  
G01 X-9.1932 Y7.8339  
G01 X-9.1857 Y7.8308  
G01 X-9.1718 Y7.8170  
G01 X-9.1596 Y7.8095  
G01 X-9.1513 Y7.7982  
G01 X-9.1381 Y7.7869  
G01 X-9.1345 Y7.7796  
G01 X-9.1287 Y7.7739  
G01 X-9.1221 Y7.7579  
G01 X-9.0231 Y7.6216  
G01 X-8.8986 Y7.4971  
G01 X-8.7562 Y7.3937  
G01 X-8.5993 Y7.3137  
G01 X-8.4994 Y7.2813  
G01 X-8.4994 Y7.3878  
G01 X-8.6509 Y7.4505  
G00 Z2.0000  
G00 X-9.8654 Y44.0874 
G01 Z-0.2500 F100   
G01 X-9.8654 Y44.8126 F100   
G01 X-9.3526 Y45.3254 
G01 X-8.6274 Y45.3254 
G01 X-8.1146 Y44.8126 
G01 X-8.1146 Y44.0874 
G01 X-8.6274 Y43.5746 
G01 X-9.3526 Y43.5746 
G01 X-9.4794 Y43.7014 
G01 X-10.4656 Y42.7152 
G01 X-10.4656 Y30.3970 
G01 X-10.4175 Y30.3771 
G01 X-10.2970 Y30.2965 
G01 X-10.1945 Y30.1940 
G01 X-10.1139 Y30.0735 
G01 X-10.0585 Y29.9396 
G01 X-10.0302 Y29.7975 
G01 X-10.0302 Y29.6525 
G01 X-10.0585 Y29.5104 
G01 X-10.1139 Y29.3765 
G01 X-10.1945 Y29.2560 
G01 X-10.2970 Y29.1535 
G01 X-10.4175 Y29.0729 
G01 X-10.5514 Y29.0175 
G01 X-10.6935 Y28.9892 
G01 X-10.8385 Y28.9892 
G01 X-10.9806 Y29.0175 
G01 X-11.1145 Y29.0729 
G01 X-11.1381 Y29.0887 
G01 X-13.0056 Y27.2212 
G01 X-13.0056 Y11.2163 
G01 X-12.9539 Y11.2060 
G01 X-12.7691 Y11.1295 
G01 X-12.6028 Y11.0184 
G01 X-12.4614 Y10.8770 
G01 X-12.3503 Y10.7107 
G01 X-12.2738 Y10.5259 
G01 X-12.2348 Y10.3298 
G01 X-12.2348 Y8.2502  
G01 X-12.2738 Y8.0541  
G01 X-12.3503 Y7.8693  
G01 X-12.4614 Y7.7030  
G01 X-12.6028 Y7.5616  
G01 X-12.7691 Y7.4505  
G01 X-12.9539 Y7.3740  
G01 X-13.1500 Y7.3350  
G01 X-13.3500 Y7.3350  
G01 X-13.5461 Y7.3740  
G01 X-13.7309 Y7.4505  
G01 X-13.8971 Y7.5616  
G01 X-14.0386 Y7.7030  
G01 X-14.1497 Y7.8693  
G01 X-14.2262 Y8.0541  
G01 X-14.2652 Y8.2502  
G01 X-14.2652 Y10.3298 
G01 X-14.2262 Y10.5259 
G01 X-14.1497 Y10.7107 
G01 X-14.0386 Y10.8770 
G01 X-13.8971 Y11.0184 
G01 X-13.7309 Y11.1295 
G01 X-13.5461 Y11.2060 
G01 X-13.4104 Y11.2330 
G01 X-13.4104 Y27.3453 
G01 X-13.3796 Y27.4197 
G01 X-11.4194 Y29.3798 
G01 X-11.4735 Y29.5104 
G01 X-11.5018 Y29.6525 
G01 X-11.5018 Y29.7975 
G01 X-11.4735 Y29.9396 
G01 X-11.4181 Y30.0735 
G01 X-11.3375 Y30.1940 
G01 X-11.2350 Y30.2965 
G01 X-11.1145 Y30.3771 
G01 X-10.9806 Y30.4325 
G01 X-10.8704 Y30.4544 
G01 X-10.8704 Y42.8393 
G01 X-10.8396 Y42.9137 
G01 X-9.7656 Y43.9876 
G01 X-9.8654 Y44.0874 
G00 Z2.0000  
G00 X-9.6948 Y10.3298 
G01 Z-0.2500 F100   
G01 X-9.6948 Y8.2502  F100   
G01 X-9.7338 Y8.0541  
G01 X-9.8103 Y7.8693  
G01 X-9.9214 Y7.7030  
G01 X-10.0628 Y7.5616  
G01 X-10.2291 Y7.4505  
G01 X-10.4139 Y7.3740  
G01 X-10.6100 Y7.3350  
G01 X-10.8100 Y7.3350  
G01 X-11.0061 Y7.3740  
G01 X-11.1909 Y7.4505  
G01 X-11.3572 Y7.5616  
G01 X-11.4986 Y7.7030  
G01 X-11.6097 Y7.8693  
G01 X-11.6862 Y8.0541  
G01 X-11.7252 Y8.2502  
G01 X-11.7252 Y10.3298 
G01 X-11.6862 Y10.5259 
G01 X-11.6097 Y10.7107 
G01 X-11.4986 Y10.8770 
G01 X-11.3572 Y11.0184 
G01 X-11.1909 Y11.1295 
G01 X-11.0061 Y11.2060 
G01 X-10.8704 Y11.2330 
G01 X-10.8704 Y22.4031 
G01 X-10.9545 Y22.4379 
G01 X-11.0750 Y22.5185 
G01 X-11.1775 Y22.6210 
G01 X-11.2581 Y22.7415 
G01 X-11.3135 Y22.8754 
G01 X-11.3418 Y23.0175 
G01 X-11.3418 Y23.1625 
G01 X-11.3135 Y23.3046 
G01 X-11.2581 Y23.4385 
G01 X-11.1775 Y23.5590 
G01 X-11.0750 Y23.6615 
G01 X-10.9545 Y23.7421 
G01 X-10.8206 Y23.7975 
G01 X-10.6785 Y23.8258 
G01 X-10.5335 Y23.8258 
G01 X-10.3914 Y23.7975 
G01 X-10.2575 Y23.7421 
G01 X-10.1370 Y23.6615 
G01 X-10.0345 Y23.5590 
G01 X-9.9539 Y23.4385 
G01 X-9.8985 Y23.3046 
G01 X-9.8702 Y23.1625 
G01 X-9.8702 Y23.0175 
G01 X-9.8985 Y22.8754 
G01 X-9.9539 Y22.7415 
G01 X-10.0345 Y22.6210 
G01 X-10.1370 Y22.5185 
G01 X-10.2575 Y22.4379 
G01 X-10.3914 Y22.3825 
G01 X-10.4656 Y22.3677 
G01 X-10.4656 Y11.2163 
G01 X-10.4139 Y11.2060 
G01 X-10.2291 Y11.1295 
G01 X-10.0628 Y11.0184 
G01 X-9.9214 Y10.8770 
G01 X-9.8103 Y10.7107 
G01 X-9.7338 Y10.5259 
G01 X-9.6948 Y10.3298 
G00 Z2.0000  
G00 X-7.7350 Y22.8114 
G01 Z-0.2500 F100   
G01 X-7.8382 Y22.8114 F100   
G01 X-7.8382 Y22.7852 
G01 X-8.0526 Y22.5708 
G01 X-8.0526 Y22.4249 
G01 X-7.7350 Y22.7425 
G01 X-7.7350 Y22.8114 
G00 Z2.0000  
G00 X-7.8950 Y30.0725 
G01 Z-0.2500 F100   
G01 X-8.3865 Y30.5640 F100   
G01 X-8.4554 Y30.5640 
G01 X-8.4554 Y30.4608 
G01 X-8.4292 Y30.4608 
G01 X-7.9982 Y30.0298 
G01 X-7.9982 Y30.0036 
G01 X-7.8950 Y30.0036 
G01 X-7.8950 Y30.0725 
G00 Z2.0000  
G00 X-24.0448 Y10.3298 
G01 Z-0.2500 F100   
G01 X-24.0448 Y9.6194  F100   
G01 X-23.9416 Y9.6194  
G01 X-23.9416 Y10.3178 
G01 X-23.9691 Y10.4917 
G01 X-24.0235 Y10.6591 
G01 X-24.1035 Y10.8160 
G01 X-24.2069 Y10.9584 
G01 X-24.3314 Y11.0829 
G01 X-24.4738 Y11.1863 
G01 X-24.6307 Y11.2663 
G01 X-24.7306 Y11.2987 
G01 X-24.7306 Y11.1922 
G01 X-24.5791 Y11.1295 
G01 X-24.4128 Y11.0184 
G01 X-24.2714 Y10.8770 
G01 X-24.1603 Y10.7107 
G01 X-24.0838 Y10.5259 
G01 X-24.0448 Y10.3298 
G00 Z2.0000  
G00 X-36.9538 Y50.3522 
G01 Z-0.2500 F100   
G01 X-37.1019 Y50.2908 F100   
G01 X-37.2351 Y50.2018 
G01 X-37.3485 Y50.0885 
G01 X-37.4375 Y49.9552 
G01 X-37.4988 Y49.8072 
G01 X-37.5007 Y49.7976 
G01 X-37.3911 Y49.7976 
G01 X-37.3461 Y49.9063 
G01 X-37.2683 Y50.0227 
G01 X-37.1694 Y50.1216 
G01 X-37.0530 Y50.1994 
G01 X-36.9419 Y50.2454 
G01 X-36.9419 Y50.3545 
G01 X-36.9538 Y50.3522 
G00 Z2.0000  
G00 X-37.5646 Y15.2307 
G01 Z-0.2500 F100   
G01 X-37.6197 Y15.2858 F100   
G01 X-37.6215 Y15.2876 
G01 X-40.7626 Y18.4287 
G01 X-40.8196 Y18.4857 
G01 X-40.8504 Y18.5601 
G01 X-40.8504 Y27.7683 
G01 X-40.8196 Y27.8427 
G01 X-40.7627 Y27.8997 
G01 X-40.6883 Y27.9305 
G01 X-40.3118 Y28.0864 
G01 X-40.0540 Y28.3442 
G01 X-40.0379 Y28.4458 
G01 X-39.9856 Y28.6068 
G01 X-39.9088 Y28.7576 
G01 X-39.8093 Y28.8946 
G01 X-39.6896 Y29.0143 
G01 X-39.5762 Y29.0966 
G01 X-39.4774 Y29.3352 
G01 X-39.4774 Y30.1008 
G01 X-39.7704 Y30.8082 
G01 X-40.3118 Y31.3496 
G01 X-41.0192 Y31.6426 
G01 X-41.7848 Y31.6426 
G01 X-42.4922 Y31.3496 
G01 X-43.0336 Y30.8082 
G01 X-43.3266 Y30.1008 
G01 X-43.3266 Y29.3352 
G01 X-43.0336 Y28.6278 
G01 X-42.4922 Y28.0864 
G01 X-42.1157 Y27.9305 
G01 X-42.0413 Y27.8997 
G01 X-41.9853 Y27.8436 
G01 X-41.9536 Y27.7683 
G01 X-41.9536 Y18.1783 
G01 X-41.8696 Y17.9755 
G01 X-38.4016 Y14.5075 
G01 X-38.3447 Y14.4506 
G01 X-38.3138 Y14.3762 
G01 X-38.3138 Y14.2957 
G01 X-38.3447 Y14.2213 
G01 X-38.5006 Y13.8448 
G01 X-38.5006 Y13.0792 
G01 X-38.2076 Y12.3718 
G01 X-37.8040 Y11.9682 
G01 X-37.7510 Y11.9152 
G01 X-37.7470 Y11.9112 
G01 X-37.7162 Y11.8369 
G01 X-37.7162 Y11.7563 
G01 X-37.7470 Y11.6819 
G01 X-37.8031 Y11.6259 
G01 X-37.8784 Y11.5942 
G01 X-38.0314 Y11.5942 
G01 X-38.5329 Y11.3865 
G01 X-38.9167 Y11.0027 
G01 X-39.1244 Y10.5012 
G01 X-39.1244 Y8.0788  
G01 X-38.9167 Y7.5773  
G01 X-38.5329 Y7.1935  
G01 X-38.0314 Y6.9858  
G01 X-37.4886 Y6.9858  
G01 X-37.0188 Y7.1804  
G01 X-36.9469 Y7.2102  
G01 X-36.8639 Y7.2112  
G01 X-36.7895 Y7.1804  
G01 X-36.7334 Y7.1243  
G01 X-36.1265 Y6.5174  
G01 X-35.9237 Y6.4334  
G01 X-23.1313 Y6.4334  
G01 X-22.9285 Y6.5174  
G01 X-22.7164 Y6.7295  
G01 X-21.8844 Y7.5615  
G01 X-21.8004 Y7.7643  
G01 X-21.8004 Y10.6074 
G01 X-21.8028 Y10.6148 
G01 X-21.8004 Y10.6474 
G01 X-21.8004 Y10.6802 
G01 X-21.7974 Y10.6873 
G01 X-21.7940 Y10.7333 
G01 X-21.8004 Y10.7487 
G01 X-21.8004 Y10.7565 
G01 X-21.8028 Y10.7639 
G01 X-21.8016 Y10.7806 
G01 X-21.8192 Y10.8231 
G01 X-21.8243 Y10.8290 
G01 X-21.8345 Y10.8601 
G01 X-21.8470 Y10.8903 
G01 X-21.8470 Y10.8981 
G01 X-21.8614 Y10.9418 
G01 X-21.8733 Y10.9537 
G01 X-21.8763 Y10.9609 
G01 X-21.8813 Y10.9667 
G01 X-21.8866 Y10.9827 
G01 X-21.9191 Y11.0152 
G01 X-21.9261 Y11.0187 
G01 X-21.9474 Y11.0435 
G01 X-21.9706 Y11.0666 
G01 X-21.9735 Y11.0738 
G01 X-25.6834 Y15.3821 
G01 X-25.7066 Y15.4052 
G01 X-25.7096 Y15.4124 
G01 X-25.7146 Y15.4183 
G01 X-25.7249 Y15.4494 
G01 X-25.7374 Y15.4796 
G01 X-25.7374 Y15.4874 
G01 X-25.7398 Y15.4948 
G01 X-25.7374 Y15.5274 
G01 X-25.7374 Y29.0383 
G01 X-25.7066 Y29.1127 
G01 X-25.6497 Y29.1697 
G01 X-25.5753 Y29.2005 
G01 X-25.1988 Y29.3564 
G01 X-24.6574 Y29.8978 
G01 X-24.3644 Y30.6052 
G01 X-24.3644 Y31.3708 
G01 X-24.6574 Y32.0782 
G01 X-25.1988 Y32.6196 
G01 X-25.9062 Y32.9126 
G01 X-26.6718 Y32.9126 
G01 X-27.3792 Y32.6196 
G01 X-27.5224 Y32.4764 
G01 X-27.5774 Y32.4214 
G01 X-27.6537 Y32.3886 
G01 X-27.7343 Y32.3886 
G01 X-27.8087 Y32.4194 
G01 X-27.8647 Y32.4755 
G01 X-27.8964 Y32.5508 
G01 X-27.8964 Y37.3199 
G01 X-27.8656 Y37.3943 
G01 X-27.8087 Y37.4513 
G01 X-21.9120 Y43.3479 
G01 X-21.8931 Y43.3668 
G01 X-21.8551 Y43.4048 
G01 X-21.8276 Y43.4162 
G01 X-21.7807 Y43.4356 
G01 X-21.7407 Y43.4356 
G01 X-21.7002 Y43.4356 
G01 X-21.6873 Y43.4302 
G01 X-21.2657 Y43.4302 
G01 X-20.8763 Y43.5916 
G01 X-20.5782 Y43.8896 
G01 X-20.4169 Y44.2791 
G01 X-20.4169 Y44.7006 
G01 X-20.5782 Y45.0901 
G01 X-20.8763 Y45.3881 
G01 X-20.9016 Y45.3986 
G01 X-20.9760 Y45.4294 
G01 X-21.0329 Y45.4863 
G01 X-21.0544 Y45.5383 
G01 X-21.0637 Y45.5607 
G01 X-21.0637 Y45.6413 
G01 X-21.0329 Y45.7157 
G01 X-20.9760 Y45.7726 
G01 X-20.9240 Y45.7941 
G01 X-20.9016 Y45.8034 
G01 X-19.5753 Y45.8034 
G01 X-19.3725 Y45.8874 
G01 X-19.3478 Y45.9121 
G01 X-19.3151 Y45.9448 
G01 X-19.2867 Y45.9566 
G01 X-19.2407 Y45.9756 
G01 X-19.2007 Y45.9756 
G01 X-19.1602 Y45.9756 
G01 X-19.1473 Y45.9702 
G01 X-18.7257 Y45.9702 
G01 X-18.4850 Y46.0700 
G01 X-18.4045 Y46.0700 
G01 X-18.3301 Y46.0391 
G01 X-18.3021 Y46.0111 
G01 X-18.2732 Y45.9822 
G01 X-18.2424 Y45.9078 
G01 X-18.2424 Y45.8273 
G01 X-18.2732 Y45.7529 
G01 X-18.3171 Y45.7090 
G01 X-18.3301 Y45.6960 
G01 X-18.6286 Y45.3975 
G01 X-18.7126 Y45.1947 
G01 X-18.7126 Y43.6057 
G01 X-18.7434 Y43.5313 
G01 X-18.8003 Y43.4743 
G01 X-18.8747 Y43.4435 
G01 X-19.2512 Y43.2876 
G01 X-19.7926 Y42.7462 
G01 X-20.0856 Y42.0388 
G01 X-20.0856 Y41.2732 
G01 X-19.8352 Y40.6687 
G01 X-19.8352 Y40.5882 
G01 X-19.8660 Y40.5138 
G01 X-19.9134 Y40.4664 
G01 X-19.9230 Y40.4568 
G01 X-20.4276 Y39.9522 
G01 X-20.7206 Y39.2448 
G01 X-20.7206 Y38.4792 
G01 X-20.4276 Y37.7718 
G01 X-19.8862 Y37.2304 
G01 X-19.1788 Y36.9374 
G01 X-18.4132 Y36.9374 
G01 X-17.7058 Y37.2304 
G01 X-17.1644 Y37.7718 
G01 X-16.8714 Y38.4792 
G01 X-16.8714 Y39.2448 
G01 X-17.0273 Y39.6213 
G01 X-17.0462 Y39.6669 
G01 X-17.0581 Y39.6957 
G01 X-17.0581 Y39.7762 
G01 X-17.0273 Y39.8506 
G01 X-16.9791 Y39.8988 
G01 X-16.9704 Y39.9075 
G01 X-16.3815 Y40.4964 
G01 X-16.1694 Y40.7085 
G01 X-16.0854 Y40.9113 
G01 X-16.0854 Y57.7677 
G01 X-16.1694 Y57.9705 
G01 X-21.7574 Y63.5585 
G01 X-21.9125 Y63.7136 
G01 X-22.1153 Y63.7976 
G01 X-32.2407 Y63.7976 
G01 X-32.4435 Y63.7136 
G01 X-38.1585 Y57.9986 
G01 X-38.3136 Y57.8435 
G01 X-38.3976 Y57.6407 
G01 X-38.3976 Y53.1033 
G01 X-38.3136 Y52.9005 
G01 X-37.8069 Y52.3938 
G01 X-37.7761 Y52.3195 
G01 X-37.7761 Y51.8991 
G01 X-37.6148 Y51.5096 
G01 X-37.3167 Y51.2116 
G01 X-36.9273 Y51.0502 
G01 X-36.5057 Y51.0502 
G01 X-36.1163 Y51.2116 
G01 X-35.8182 Y51.5096 
G01 X-35.6569 Y51.8991 
G01 X-35.6569 Y52.3206 
G01 X-35.8182 Y52.7101 
G01 X-36.1163 Y53.0081 
G01 X-36.5057 Y53.1694 
G01 X-36.9389 Y53.1694 
G01 X-36.9788 Y53.1694 
G01 X-37.0344 Y53.1925 
G01 X-37.0532 Y53.2002 
G01 X-37.0692 Y53.2163 
G01 X-37.1113 Y53.2584 
G01 X-37.1261 Y53.2732 
G01 X-37.1434 Y53.3149 
G01 X-37.1569 Y53.3476 
G01 X-37.1569 Y53.3874 
G01 X-37.1569 Y53.4281 
G01 X-37.1342 Y53.4829 
G01 X-37.1261 Y53.5025 
G01 X-37.0836 Y53.5450 
G01 X-37.0692 Y53.5594 
G01 X-37.0274 Y53.5767 
G01 X-36.9948 Y53.5902 
G01 X-36.9550 Y53.5902 
G01 X-36.9143 Y53.5902 
G01 X-36.5057 Y53.5902 
G01 X-36.1163 Y53.7516 
G01 X-35.8182 Y54.0496 
G01 X-35.6569 Y54.4391 
G01 X-35.6569 Y54.8755 
G01 X-35.6261 Y54.9498 
G01 X-35.5692 Y55.0068 
G01 X-35.4948 Y55.0376 
G01 X-35.4142 Y55.0376 
G01 X-35.3399 Y55.0068 
G01 X-35.2829 Y54.9498 
G01 X-28.3795 Y48.0464 
G01 X-28.1767 Y47.9624 
G01 X-20.0313 Y47.9624 
G01 X-19.9915 Y47.9624 
G01 X-19.9508 Y47.9624 
G01 X-19.9141 Y47.9472 
G01 X-19.8764 Y47.9316 
G01 X-19.8577 Y47.9129 
G01 X-19.8195 Y47.8747 
G01 X-19.8059 Y47.8419 
G01 X-19.7887 Y47.8003 
G01 X-19.7887 Y47.7604 
G01 X-19.7887 Y47.7197 
G01 X-19.8039 Y47.6830 
G01 X-19.8195 Y47.6453 
G01 X-19.8348 Y47.6300 
G01 X-19.9961 Y47.2406 
G01 X-19.9961 Y47.0687 
G01 X-20.0269 Y46.9943 
G01 X-20.0839 Y46.9374 
G01 X-20.1582 Y46.9066 
G01 X-31.7319 Y46.9066 
G01 X-31.8063 Y46.9374 
G01 X-31.8633 Y46.9943 
G01 X-33.4695 Y48.6006 
G01 X-33.6723 Y48.6846 
G01 X-35.9223 Y48.6846 
G01 X-35.9621 Y48.6846 
G01 X-36.0028 Y48.6846 
G01 X-36.0149 Y48.6896 
G01 X-36.0772 Y48.7154 
G01 X-36.1341 Y48.7723 
G01 X-36.1649 Y48.8467 
G01 X-36.1649 Y48.8866 
G01 X-36.1649 Y48.9273 
G01 X-36.1599 Y48.9394 
G01 X-36.1341 Y49.0016 
G01 X-36.0845 Y49.0512 
G01 X-35.9955 Y49.1845 
G01 X-35.9342 Y49.3325 
G01 X-35.9318 Y49.3444 
G01 X-36.0409 Y49.3444 
G01 X-36.0870 Y49.2333 
G01 X-36.1647 Y49.1170 
G01 X-36.2637 Y49.0180 
G01 X-36.3800 Y48.9403 
G01 X-36.5093 Y48.8867 
G01 X-36.6465 Y48.8594 
G01 X-36.7865 Y48.8594 
G01 X-36.9237 Y48.8867 
G01 X-37.0530 Y48.9403 
G01 X-37.1694 Y49.0180 
G01 X-37.2683 Y49.1170 
G01 X-37.3461 Y49.2333 
G01 X-37.3911 Y49.3420 
G01 X-37.5007 Y49.3420 
G01 X-37.4988 Y49.3325 
G01 X-37.4375 Y49.1845 
G01 X-37.3485 Y49.0512 
G01 X-37.2929 Y48.9957 
G01 X-37.2738 Y48.9820 
G01 X-37.2647 Y48.9675 
G01 X-37.2526 Y48.9554 
G01 X-37.2436 Y48.9336 
G01 X-37.2312 Y48.9137 
G01 X-37.2284 Y48.8968 
G01 X-37.2218 Y48.8810 
G01 X-37.2218 Y48.8575 
G01 X-37.2179 Y48.8343 
G01 X-37.2218 Y48.8176 
G01 X-37.2218 Y48.8004 
G01 X-37.2308 Y48.7787 
G01 X-37.2361 Y48.7558 
G01 X-37.2461 Y48.7419 
G01 X-37.2526 Y48.7260 
G01 X-37.2692 Y48.7094 
G01 X-37.2829 Y48.6903 
G01 X-37.2974 Y48.6812 
G01 X-37.3095 Y48.6691 
G01 X-37.3313 Y48.6601 
G01 X-37.3512 Y48.6477 
G01 X-37.3681 Y48.6449 
G01 X-37.3839 Y48.6383 
G01 X-37.4074 Y48.6383 
G01 X-37.8523 Y48.5642 
G01 X-37.8681 Y48.5576 
G01 X-37.8916 Y48.5576 
G01 X-37.9148 Y48.5537 
G01 X-37.9315 Y48.5576 
G01 X-37.9557 Y48.5576 
G01 X-37.9620 Y48.5550 
G01 X-37.9820 Y48.5425 
G01 X-37.9988 Y48.5397 
G01 X-38.0147 Y48.5332 
G01 X-38.0382 Y48.5332 
G01 X-38.0449 Y48.5321 
G01 X-38.0654 Y48.5192 
G01 X-38.0775 Y48.5071 
G01 X-38.0993 Y48.4981 
G01 X-38.1192 Y48.4857 
G01 X-38.1361 Y48.4829 
G01 X-38.1585 Y48.4736 
G01 X-38.1633 Y48.4688 
G01 X-38.1769 Y48.4497 
G01 X-38.1915 Y48.4406 
G01 X-38.2036 Y48.4285 
G01 X-38.2253 Y48.4195 
G01 X-38.2311 Y48.4159 
G01 X-38.2451 Y48.3962 
G01 X-38.2517 Y48.3804 
G01 X-38.2683 Y48.3638 
G01 X-38.2820 Y48.3446 
G01 X-38.2965 Y48.3356 
G01 X-38.3136 Y48.3185 
G01 X-38.3162 Y48.3122 
G01 X-38.3215 Y48.2893 
G01 X-38.3315 Y48.2753 
G01 X-38.3380 Y48.2595 
G01 X-38.3547 Y48.2429 
G01 X-38.3586 Y48.2373 
G01 X-38.3641 Y48.2138 
G01 X-38.3641 Y48.1966 
G01 X-38.3731 Y48.1749 
G01 X-38.3784 Y48.1520 
G01 X-38.3883 Y48.1381 
G01 X-38.3976 Y48.1157 
G01 X-38.3976 Y48.1089 
G01 X-38.3937 Y48.0857 
G01 X-38.3976 Y48.0690 
G01 X-38.3976 Y48.0519 
G01 X-38.4066 Y48.0302 
G01 X-38.4081 Y48.0235 
G01 X-38.4042 Y47.9997 
G01 X-38.3976 Y47.9839 
G01 X-38.3976 Y47.9604 
G01 X-38.3937 Y47.9372 
G01 X-38.3976 Y47.9205 
G01 X-38.3976 Y45.2293 
G01 X-38.3136 Y45.0265 
G01 X-38.1015 Y44.8144 
G01 X-37.9204 Y44.6333 
G01 X-37.8896 Y44.5589 
G01 X-37.8896 Y20.8727 
G01 X-37.9204 Y20.7983 
G01 X-37.9773 Y20.7413 
G01 X-38.0517 Y20.7105 
G01 X-38.4282 Y20.5546 
G01 X-38.9696 Y20.0132 
G01 X-39.2626 Y19.3058 
G01 X-39.2626 Y18.5402 
G01 X-38.9696 Y17.8328 
G01 X-38.4282 Y17.2914 
G01 X-37.7208 Y16.9984 
G01 X-36.9552 Y16.9984 
G01 X-36.2478 Y17.2914 
G01 X-35.7064 Y17.8328 
G01 X-35.4134 Y18.5402 
G01 X-35.4134 Y19.3058 
G01 X-35.4836 Y19.4753 
G01 X-35.4978 Y19.5096 
G01 X-35.5144 Y19.5497 
G01 X-35.5144 Y19.6303 
G01 X-35.4836 Y19.7047 
G01 X-35.4267 Y19.7616 
G01 X-35.3747 Y19.7831 
G01 X-35.3523 Y19.7924 
G01 X-34.6692 Y19.7924 
G01 X-34.3966 Y19.9053 
G01 X-34.3248 Y19.9351 
G01 X-34.2417 Y19.9361 
G01 X-34.1673 Y19.9053 
G01 X-34.1113 Y19.8492 
G01 X-34.0796 Y19.7740 
G01 X-34.0796 Y13.0080 
G01 X-34.1104 Y12.9336 
G01 X-34.1673 Y12.8767 
G01 X-34.3889 Y12.6551 
G01 X-34.4027 Y12.6413 
G01 X-34.4458 Y12.5981 
G01 X-34.5202 Y12.5673 
G01 X-34.6008 Y12.5673 
G01 X-34.6751 Y12.5981 
G01 X-34.7032 Y12.6262 
G01 X-34.7321 Y12.6551 
G01 X-34.7629 Y12.7295 
G01 X-34.7629 Y12.8100 
G01 X-34.7578 Y12.8222 
G01 X-34.6514 Y13.0792 
G01 X-34.6514 Y13.8448 
G01 X-34.9444 Y14.5522 
G01 X-35.4858 Y15.0936 
G01 X-36.1932 Y15.3866 
G01 X-36.9588 Y15.3866 
G01 X-37.3353 Y15.2307 
G01 X-37.4077 Y15.2007 
G01 X-37.4902 Y15.1998 
G01 X-37.5646 Y15.2307 
G00 Z2.0000  
G00 X-41.1996 Y18.3718 
G01 Z-0.2500 F100   
G01 X-37.1801 Y14.3523 F100   
G01 X-37.1396 Y14.3818 
G01 X-36.9888 Y14.4586 
G01 X-36.8278 Y14.5109 
G01 X-36.6606 Y14.5374 
G01 X-36.4914 Y14.5374 
G01 X-36.3242 Y14.5109 
G01 X-36.1632 Y14.4586 
G01 X-36.0124 Y14.3818 
G01 X-35.8754 Y14.2823 
G01 X-35.7557 Y14.1626 
G01 X-35.6562 Y14.0256 
G01 X-35.5794 Y13.8748 
G01 X-35.5271 Y13.7138 
G01 X-35.5006 Y13.5466 
G01 X-35.5006 Y13.3774 
G01 X-35.5271 Y13.2102 
G01 X-35.5794 Y13.0492 
G01 X-35.6562 Y12.8984 
G01 X-35.7557 Y12.7614 
G01 X-35.8754 Y12.6417 
G01 X-36.0124 Y12.5422 
G01 X-36.1632 Y12.4654 
G01 X-36.3242 Y12.4131 
G01 X-36.4914 Y12.3866 
G01 X-36.6606 Y12.3866 
G01 X-36.8278 Y12.4131 
G01 X-36.9888 Y12.4654 
G01 X-37.1396 Y12.5422 
G01 X-37.2766 Y12.6417 
G01 X-37.3963 Y12.7614 
G01 X-37.4958 Y12.8984 
G01 X-37.5726 Y13.0492 
G01 X-37.6249 Y13.2102 
G01 X-37.6514 Y13.3774 
G01 X-37.6514 Y13.5466 
G01 X-37.6249 Y13.7138 
G01 X-37.5726 Y13.8748 
G01 X-37.4958 Y14.0256 
G01 X-37.4663 Y14.0661 
G01 X-41.5736 Y18.1733 
G01 X-41.6044 Y18.2477 
G01 X-41.6044 Y28.6613 
G01 X-41.6538 Y28.6691 
G01 X-41.8148 Y28.7214 
G01 X-41.9656 Y28.7982 
G01 X-42.1026 Y28.8977 
G01 X-42.2223 Y29.0174 
G01 X-42.3218 Y29.1544 
G01 X-42.3986 Y29.3052 
G01 X-42.4509 Y29.4662 
G01 X-42.4774 Y29.6334 
G01 X-42.4774 Y29.8026 
G01 X-42.4509 Y29.9698 
G01 X-42.3986 Y30.1308 
G01 X-42.3218 Y30.2816 
G01 X-42.2223 Y30.4186 
G01 X-42.1026 Y30.5383 
G01 X-41.9656 Y30.6378 
G01 X-41.8148 Y30.7146 
G01 X-41.6538 Y30.7669 
G01 X-41.4866 Y30.7934 
G01 X-41.3174 Y30.7934 
G01 X-41.1502 Y30.7669 
G01 X-40.9892 Y30.7146 
G01 X-40.8384 Y30.6378 
G01 X-40.7014 Y30.5383 
G01 X-40.5817 Y30.4186 
G01 X-40.4822 Y30.2816 
G01 X-40.4054 Y30.1308 
G01 X-40.3531 Y29.9698 
G01 X-40.3266 Y29.8026 
G01 X-40.3266 Y29.6334 
G01 X-40.3531 Y29.4662 
G01 X-40.4054 Y29.3052 
G01 X-40.4822 Y29.1544 
G01 X-40.5817 Y29.0174 
G01 X-40.7014 Y28.8977 
G01 X-40.8384 Y28.7982 
G01 X-40.9892 Y28.7214 
G01 X-41.1502 Y28.6691 
G01 X-41.1996 Y28.6613 
G01 X-41.1996 Y18.3718 
G00 Z2.0000  
G00 X-26.0866 Y15.3151 
G01 Z-0.2500 F100   
G01 X-22.2035 Y10.8058 F100   
G01 X-22.1804 Y10.7827 
G01 X-22.1774 Y10.7755 
G01 X-22.1724 Y10.7696 
G01 X-22.1621 Y10.7385 
G01 X-22.1496 Y10.7083 
G01 X-22.1496 Y10.7005 
G01 X-22.1472 Y10.6931 
G01 X-22.1496 Y10.6605 
G01 X-22.1496 Y7.8337  
G01 X-22.1804 Y7.7593  
G01 X-23.0694 Y6.8703  
G01 X-23.1263 Y6.8134  
G01 X-23.2007 Y6.7826  
G01 X-35.8543 Y6.7826  
G01 X-35.9287 Y6.8134  
G01 X-36.9101 Y7.7949  
G01 X-36.9714 Y7.7030  
G01 X-37.1128 Y7.5616  
G01 X-37.2791 Y7.4505  
G01 X-37.4639 Y7.3740  
G01 X-37.6600 Y7.3350  
G01 X-37.8600 Y7.3350  
G01 X-38.0561 Y7.3740  
G01 X-38.2409 Y7.4505  
G01 X-38.4072 Y7.5616  
G01 X-38.5486 Y7.7030  
G01 X-38.6597 Y7.8693  
G01 X-38.7362 Y8.0541  
G01 X-38.7752 Y8.2502  
G01 X-38.7752 Y10.3298 
G01 X-38.7362 Y10.5259 
G01 X-38.6597 Y10.7107 
G01 X-38.5486 Y10.8770 
G01 X-38.4072 Y11.0184 
G01 X-38.2409 Y11.1295 
G01 X-38.0561 Y11.2060 
G01 X-37.8600 Y11.2450 
G01 X-37.6600 Y11.2450 
G01 X-37.4639 Y11.2060 
G01 X-37.2791 Y11.1295 
G01 X-37.1128 Y11.0184 
G01 X-36.9714 Y10.8770 
G01 X-36.8603 Y10.7107 
G01 X-36.7838 Y10.5259 
G01 X-36.7448 Y10.3298 
G01 X-36.7448 Y8.2502  
G01 X-36.7528 Y8.2100  
G01 X-35.7302 Y7.1874  
G01 X-23.3248 Y7.1874  
G01 X-22.5544 Y7.9578  
G01 X-22.5544 Y10.5929 
G01 X-26.4374 Y15.1022 
G01 X-26.4606 Y15.1253 
G01 X-26.4636 Y15.1325 
G01 X-26.4686 Y15.1384 
G01 X-26.4789 Y15.1695 
G01 X-26.4914 Y15.1997 
G01 X-26.4914 Y15.2075 
G01 X-26.4938 Y15.2149 
G01 X-26.4914 Y15.2475 
G01 X-26.4914 Y29.9313 
G01 X-26.5408 Y29.9391 
G01 X-26.7018 Y29.9914 
G01 X-26.8526 Y30.0682 
G01 X-26.9896 Y30.1677 
G01 X-27.1093 Y30.2874 
G01 X-27.2088 Y30.4244 
G01 X-27.2856 Y30.5752 
G01 X-27.3379 Y30.7362 
G01 X-27.3644 Y30.9034 
G01 X-27.3644 Y31.0726 
G01 X-27.3379 Y31.2398 
G01 X-27.2856 Y31.4008 
G01 X-27.2088 Y31.5516 
G01 X-27.1093 Y31.6886 
G01 X-26.9896 Y31.8083 
G01 X-26.8526 Y31.9078 
G01 X-26.7018 Y31.9846 
G01 X-26.5408 Y32.0369 
G01 X-26.3736 Y32.0634 
G01 X-26.2044 Y32.0634 
G01 X-26.0372 Y32.0369 
G01 X-25.8762 Y31.9846 
G01 X-25.7254 Y31.9078 
G01 X-25.5884 Y31.8083 
G01 X-25.4687 Y31.6886 
G01 X-25.3692 Y31.5516 
G01 X-25.2924 Y31.4008 
G01 X-25.2401 Y31.2398 
G01 X-25.2136 Y31.0726 
G01 X-25.2136 Y30.9034 
G01 X-25.2401 Y30.7362 
G01 X-25.2924 Y30.5752 
G01 X-25.3692 Y30.4244 
G01 X-25.4687 Y30.2874 
G01 X-25.5884 Y30.1677 
G01 X-25.7254 Y30.0682 
G01 X-25.8762 Y29.9914 
G01 X-26.0372 Y29.9391 
G01 X-26.0866 Y29.9313 
G01 X-26.0866 Y15.3151 
G00 Z2.0000  
G00 X-24.0448 Y8.2502  
G01 Z-0.2500 F100   
G01 X-24.0838 Y8.0541  F100   
G01 X-24.1603 Y7.8693  
G01 X-24.2714 Y7.7030  
G01 X-24.4128 Y7.5616  
G01 X-24.5791 Y7.4505  
G01 X-24.7639 Y7.3740  
G01 X-24.9600 Y7.3350  
G01 X-25.1600 Y7.3350  
G01 X-25.3561 Y7.3740  
G01 X-25.5409 Y7.4505  
G01 X-25.7072 Y7.5616  
G01 X-25.8486 Y7.7030  
G01 X-25.9597 Y7.8693  
G01 X-26.0362 Y8.0541  
G01 X-26.0752 Y8.2502  
G01 X-26.0752 Y10.3298 
G01 X-26.0362 Y10.5259 
G01 X-25.9597 Y10.7107 
G01 X-25.8486 Y10.8770 
G01 X-25.7072 Y11.0184 
G01 X-25.5409 Y11.1295 
G01 X-25.3894 Y11.1922 
G01 X-25.3894 Y11.2987 
G01 X-25.4893 Y11.2663 
G01 X-25.6462 Y11.1863 
G01 X-25.7886 Y11.0829 
G01 X-25.9131 Y10.9584 
G01 X-26.0121 Y10.8221 
G01 X-26.0187 Y10.8061 
G01 X-26.0245 Y10.8004 
G01 X-26.0281 Y10.7931 
G01 X-26.0413 Y10.7818 
G01 X-26.0496 Y10.7705 
G01 X-26.0618 Y10.7630 
G01 X-26.0757 Y10.7492 
G01 X-26.0832 Y10.7461 
G01 X-26.0893 Y10.7408 
G01 X-26.1080 Y10.7347 
G01 X-26.1182 Y10.7284 
G01 X-26.1303 Y10.7265 
G01 X-26.1500 Y10.7183 
G01 X-26.1582 Y10.7183 
G01 X-26.1659 Y10.7158 
G01 X-26.1873 Y10.7175 
G01 X-26.1978 Y10.7158 
G01 X-26.2082 Y10.7183 
G01 X-26.2306 Y10.7183 
G01 X-26.2381 Y10.7215 
G01 X-26.2461 Y10.7221 
G01 X-26.2662 Y10.7323 
G01 X-26.2760 Y10.7346 
G01 X-26.2842 Y10.7406 
G01 X-26.3050 Y10.7492 
G01 X-26.3107 Y10.7549 
G01 X-26.3179 Y10.7586 
G01 X-26.3326 Y10.7757 
G01 X-26.3412 Y10.7820 
G01 X-26.3466 Y10.7908 
G01 X-26.3619 Y10.8061 
G01 X-26.3650 Y10.8136 
G01 X-26.3703 Y10.8198 
G01 X-26.3770 Y10.8404 
G01 X-26.3833 Y10.8506 
G01 X-26.3851 Y10.8620 
G01 X-26.4433 Y11.0027 
G01 X-26.8271 Y11.3865 
G01 X-27.3286 Y11.5942 
G01 X-27.8714 Y11.5942 
G01 X-28.3729 Y11.3865 
G01 X-28.6984 Y11.0609 
G01 X-28.7520 Y11.0074 
G01 X-28.7553 Y11.0040 
G01 X-28.8297 Y10.9732 
G01 X-28.9103 Y10.9732 
G01 X-28.9846 Y11.0040 
G01 X-29.0407 Y11.0601 
G01 X-29.3671 Y11.3865 
G01 X-29.8686 Y11.5942 
G01 X-30.4114 Y11.5942 
G01 X-30.9129 Y11.3865 
G01 X-31.2384 Y11.0609 
G01 X-31.2920 Y11.0074 
G01 X-31.2953 Y11.0040 
G01 X-31.3697 Y10.9732 
G01 X-31.4503 Y10.9732 
G01 X-31.5246 Y11.0040 
G01 X-31.5807 Y11.0601 
G01 X-31.9071 Y11.3865 
G01 X-32.4086 Y11.5942 
G01 X-32.9514 Y11.5942 
G01 X-33.4529 Y11.3865 
G01 X-33.7784 Y11.0609 
G01 X-33.8320 Y11.0074 
G01 X-33.8353 Y11.0040 
G01 X-33.9097 Y10.9732 
G01 X-33.9903 Y10.9732 
G01 X-34.0646 Y11.0040 
G01 X-34.1207 Y11.0601 
G01 X-34.1525 Y11.1354 
G01 X-34.1525 Y11.2159 
G01 X-34.1217 Y11.2903 
G01 X-34.0647 Y11.3473 
G01 X-33.3710 Y12.0410 
G01 X-33.2966 Y12.0718 
G01 X-33.2155 Y12.1054 
G01 X-33.0604 Y12.2605 
G01 X-32.9764 Y12.4633 
G01 X-32.9764 Y12.5239 
G01 X-32.9651 Y12.5511 
G01 X-32.9510 Y12.5852 
G01 X-32.9510 Y12.8148 
G01 X-32.9645 Y12.8473 
G01 X-32.9764 Y12.8761 
G01 X-32.9764 Y20.0280 
G01 X-32.9456 Y20.1023 
G01 X-32.8886 Y20.1593 
G01 X-32.8143 Y20.1901 
G01 X-32.7337 Y20.1901 
G01 X-32.6593 Y20.1593 
G01 X-32.3868 Y20.0464 
G01 X-31.6212 Y20.0464 
G01 X-31.4516 Y20.1166 
G01 X-31.4174 Y20.1308 
G01 X-31.3773 Y20.1474 
G01 X-31.2967 Y20.1474 
G01 X-31.2223 Y20.1166 
G01 X-31.1654 Y20.0597 
G01 X-31.1439 Y20.0077 
G01 X-31.1346 Y19.9853 
G01 X-31.1346 Y19.4292 
G01 X-30.8416 Y18.7218 
G01 X-30.6116 Y18.4918 
G01 X-30.5981 Y18.4783 
G01 X-30.5547 Y18.4349 
G01 X-30.5238 Y18.3605 
G01 X-30.5238 Y18.2800 
G01 X-30.5547 Y18.2056 
G01 X-30.5827 Y18.1775 
G01 X-30.6116 Y18.1486 
G01 X-30.6860 Y18.1178 
G01 X-30.9352 Y18.0146 
G01 X-31.4766 Y17.4732 
G01 X-31.7696 Y16.7658 
G01 X-31.7696 Y16.0002 
G01 X-31.4766 Y15.2928 
G01 X-30.9352 Y14.7514 
G01 X-30.2278 Y14.4584 
G01 X-29.4622 Y14.4584 
G01 X-28.7548 Y14.7514 
G01 X-28.2134 Y15.2928 
G01 X-27.9204 Y16.0002 
G01 X-27.9204 Y16.7658 
G01 X-28.0763 Y17.1423 
G01 X-28.0952 Y17.1879 
G01 X-28.1071 Y17.2167 
G01 X-28.1071 Y17.2972 
G01 X-28.0763 Y17.3716 
G01 X-28.0281 Y17.4198 
G01 X-28.0194 Y17.4285 
G01 X-27.4305 Y18.0174 
G01 X-27.2184 Y18.2295 
G01 X-27.2146 Y18.2387 
G01 X-27.1805 Y18.2727 
G01 X-27.1577 Y18.2956 
G01 X-27.1199 Y18.3113 
G01 X-27.0833 Y18.3264 
G01 X-27.0432 Y18.3265 
G01 X-27.0028 Y18.3265 
G01 X-26.9589 Y18.3083 
G01 X-26.9284 Y18.2957 
G01 X-26.8943 Y18.2616 
G01 X-26.8714 Y18.2387 
G01 X-26.8558 Y18.2009 
G01 X-26.8406 Y18.1644 
G01 X-26.8406 Y18.1243 
G01 X-26.8406 Y18.0838 
G01 X-26.8406 Y15.3006 
G01 X-26.8382 Y15.2932 
G01 X-26.8406 Y15.2606 
G01 X-26.8406 Y15.2278 
G01 X-26.8436 Y15.2206 
G01 X-26.8470 Y15.1747 
G01 X-26.8406 Y15.1593 
G01 X-26.8406 Y15.1515 
G01 X-26.8382 Y15.1441 
G01 X-26.8394 Y15.1274 
G01 X-26.8218 Y15.0849 
G01 X-26.8167 Y15.0790 
G01 X-26.8065 Y15.0479 
G01 X-26.7940 Y15.0177 
G01 X-26.7940 Y15.0099 
G01 X-26.7796 Y14.9662 
G01 X-26.7677 Y14.9543 
G01 X-26.7647 Y14.9471 
G01 X-26.7597 Y14.9413 
G01 X-26.7544 Y14.9253 
G01 X-26.7219 Y14.8928 
G01 X-26.7149 Y14.8893 
G01 X-26.6936 Y14.8645 
G01 X-26.6704 Y14.8413 
G01 X-26.6674 Y14.8342 
G01 X-22.9575 Y10.5259 
G01 X-22.9344 Y10.5027 
G01 X-22.9314 Y10.4956 
G01 X-22.9264 Y10.4897 
G01 X-22.9161 Y10.4586 
G01 X-22.9036 Y10.4284 
G01 X-22.9036 Y10.4206 
G01 X-22.9012 Y10.4132 
G01 X-22.9036 Y10.3806 
G01 X-22.9036 Y8.1461  
G01 X-22.9344 Y8.0717  
G01 X-22.9913 Y8.0147  
G01 X-23.4387 Y7.5674  
G01 X-23.5131 Y7.5366  
G01 X-23.8570 Y7.5366  
G01 X-23.8648 Y7.5341  
G01 X-23.8970 Y7.5366  
G01 X-23.9293 Y7.5366  
G01 X-23.9369 Y7.5397  
G01 X-23.9451 Y7.5404  
G01 X-23.9738 Y7.5550  
G01 X-24.0037 Y7.5674  
G01 X-24.0095 Y7.5732  
G01 X-24.0168 Y7.5769  
G01 X-24.0378 Y7.6015  
G01 X-24.0606 Y7.6243  
G01 X-24.0638 Y7.6319  
G01 X-24.0691 Y7.6382  
G01 X-24.0791 Y7.6689  
G01 X-24.0915 Y7.6987  
G01 X-24.0915 Y7.7069  
G01 X-24.0940 Y7.7147  
G01 X-24.0915 Y7.7469  
G01 X-24.0915 Y7.7793  
G01 X-24.0883 Y7.7868  
G01 X-24.0877 Y7.7950  
G01 X-24.0730 Y7.8238  
G01 X-24.0606 Y7.8536  
G01 X-24.0548 Y7.8595  
G01 X-24.0235 Y7.9209  
G01 X-23.9691 Y8.0883  
G01 X-23.9416 Y8.2622  
G01 X-23.9416 Y8.9606  
G01 X-24.0448 Y8.9606  
G01 X-24.0448 Y8.2502  
G00 Z2.0000  
G00 X-26.5848 Y10.3298 
G01 Z-0.2500 F100   
G01 X-26.5848 Y8.2502  F100   
G01 X-26.6238 Y8.0541  
G01 X-26.7003 Y7.8693  
G01 X-26.8114 Y7.7030  
G01 X-26.9528 Y7.5616  
G01 X-27.1191 Y7.4505  
G01 X-27.3039 Y7.3740  
G01 X-27.5000 Y7.3350  
G01 X-27.7000 Y7.3350  
G01 X-27.8961 Y7.3740  
G01 X-28.0809 Y7.4505  
G01 X-28.2472 Y7.5616  
G01 X-28.3886 Y7.7030  
G01 X-28.4997 Y7.8693  
G01 X-28.5762 Y8.0541  
G01 X-28.6152 Y8.2502  
G01 X-28.6152 Y10.3298 
G01 X-28.5762 Y10.5259 
G01 X-28.4997 Y10.7107 
G01 X-28.3886 Y10.8770 
G01 X-28.2472 Y11.0184 
G01 X-28.0809 Y11.1295 
G01 X-27.8961 Y11.2060 
G01 X-27.7000 Y11.2450 
G01 X-27.5000 Y11.2450 
G01 X-27.3039 Y11.2060 
G01 X-27.1191 Y11.1295 
G01 X-26.9528 Y11.0184 
G01 X-26.8114 Y10.8770 
G01 X-26.7003 Y10.7107 
G01 X-26.6238 Y10.5259 
G01 X-26.5848 Y10.3298 
G00 Z2.0000  
G00 X-29.1248 Y10.3298 
G01 Z-0.2500 F100   
G01 X-29.1248 Y8.2502  F100   
G01 X-29.1638 Y8.0541  
G01 X-29.2403 Y7.8693  
G01 X-29.3514 Y7.7030  
G01 X-29.4928 Y7.5616  
G01 X-29.6591 Y7.4505  
G01 X-29.8439 Y7.3740  
G01 X-30.0400 Y7.3350  
G01 X-30.2400 Y7.3350  
G01 X-30.4361 Y7.3740  
G01 X-30.6209 Y7.4505  
G01 X-30.7872 Y7.5616  
G01 X-30.9286 Y7.7030  
G01 X-31.0397 Y7.8693  
G01 X-31.1162 Y8.0541  
G01 X-31.1552 Y8.2502  
G01 X-31.1552 Y10.3298 
G01 X-31.1162 Y10.5259 
G01 X-31.0397 Y10.7107 
G01 X-30.9286 Y10.8770 
G01 X-30.7872 Y11.0184 
G01 X-30.6209 Y11.1295 
G01 X-30.4361 Y11.2060 
G01 X-30.2400 Y11.2450 
G01 X-30.0400 Y11.2450 
G01 X-29.8439 Y11.2060 
G01 X-29.6591 Y11.1295 
G01 X-29.4928 Y11.0184 
G01 X-29.3514 Y10.8770 
G01 X-29.2403 Y10.7107 
G01 X-29.1638 Y10.5259 
G01 X-29.1248 Y10.3298 
G00 Z2.0000  
G00 X-31.6648 Y10.3298 
G01 Z-0.2500 F100   
G01 X-31.6648 Y8.2502  F100   
G01 X-31.7038 Y8.0541  
G01 X-31.7803 Y7.8693  
G01 X-31.8914 Y7.7030  
G01 X-32.0328 Y7.5616  
G01 X-32.1991 Y7.4505  
G01 X-32.3839 Y7.3740  
G01 X-32.5800 Y7.3350  
G01 X-32.7800 Y7.3350  
G01 X-32.9761 Y7.3740  
G01 X-33.1609 Y7.4505  
G01 X-33.3272 Y7.5616  
G01 X-33.4686 Y7.7030  
G01 X-33.5797 Y7.8693  
G01 X-33.6562 Y8.0541  
G01 X-33.6952 Y8.2502  
G01 X-33.6952 Y10.3298 
G01 X-33.6562 Y10.5259 
G01 X-33.5797 Y10.7107 
G01 X-33.4686 Y10.8770 
G01 X-33.3272 Y11.0184 
G01 X-33.1609 Y11.1295 
G01 X-32.9761 Y11.2060 
G01 X-32.7800 Y11.2450 
G01 X-32.5800 Y11.2450 
G01 X-32.3839 Y11.2060 
G01 X-32.1991 Y11.1295 
G01 X-32.0328 Y11.0184 
G01 X-31.8914 Y10.8770 
G01 X-31.7803 Y10.7107 
G01 X-31.7038 Y10.5259 
G01 X-31.6648 Y10.3298 
G00 Z2.0000  
G00 X-34.2048 Y10.3298 
G01 Z-0.2500 F100   
G01 X-34.2048 Y8.2502  F100   
G01 X-34.2438 Y8.0541  
G01 X-34.3203 Y7.8693  
G01 X-34.4314 Y7.7030  
G01 X-34.5728 Y7.5616  
G01 X-34.7391 Y7.4505  
G01 X-34.9239 Y7.3740  
G01 X-35.1200 Y7.3350  
G01 X-35.3200 Y7.3350  
G01 X-35.5161 Y7.3740  
G01 X-35.7009 Y7.4505  
G01 X-35.8672 Y7.5616  
G01 X-36.0086 Y7.7030  
G01 X-36.1197 Y7.8693  
G01 X-36.1962 Y8.0541  
G01 X-36.2352 Y8.2502  
G01 X-36.2352 Y10.3298 
G01 X-36.1962 Y10.5259 
G01 X-36.1197 Y10.7107 
G01 X-36.0086 Y10.8770 
G01 X-35.8672 Y11.0184 
G01 X-35.7009 Y11.1295 
G01 X-35.5161 Y11.2060 
G01 X-35.3200 Y11.2450 
G01 X-35.3052 Y11.2450 
G01 X-33.7304 Y12.8198 
G01 X-33.7304 Y34.3763 
G01 X-33.7798 Y34.3841 
G01 X-33.9408 Y34.4364 
G01 X-34.0916 Y34.5132 
G01 X-34.2286 Y34.6127 
G01 X-34.3483 Y34.7324 
G01 X-34.4478 Y34.8694 
G01 X-34.5246 Y35.0202 
G01 X-34.5769 Y35.1812 
G01 X-34.6034 Y35.3484 
G01 X-34.6034 Y35.5176 
G01 X-34.5769 Y35.6848 
G01 X-34.5246 Y35.8458 
G01 X-34.4478 Y35.9966 
G01 X-34.3483 Y36.1336 
G01 X-34.2286 Y36.2533 
G01 X-34.0916 Y36.3528 
G01 X-33.9408 Y36.4296 
G01 X-33.7798 Y36.4819 
G01 X-33.6126 Y36.5084 
G01 X-33.4434 Y36.5084 
G01 X-33.2762 Y36.4819 
G01 X-33.1152 Y36.4296 
G01 X-32.9644 Y36.3528 
G01 X-32.8274 Y36.2533 
G01 X-32.7077 Y36.1336 
G01 X-32.6082 Y35.9966 
G01 X-32.5314 Y35.8458 
G01 X-32.4791 Y35.6848 
G01 X-32.4526 Y35.5176 
G01 X-32.4526 Y35.3484 
G01 X-32.4791 Y35.1812 
G01 X-32.5314 Y35.0202 
G01 X-32.6082 Y34.8694 
G01 X-32.7077 Y34.7324 
G01 X-32.8274 Y34.6127 
G01 X-32.9644 Y34.5132 
G01 X-33.1152 Y34.4364 
G01 X-33.2762 Y34.3841 
G01 X-33.3256 Y34.3763 
G01 X-33.3256 Y12.8066 
G01 X-33.3002 Y12.7453 
G01 X-33.3002 Y12.6547 
G01 X-33.3256 Y12.5934 
G01 X-33.3256 Y12.5327 
G01 X-33.3564 Y12.4583 
G01 X-33.4133 Y12.4014 
G01 X-33.4877 Y12.3706 
G01 X-33.5352 Y12.3706 
G01 X-34.7655 Y11.1404 
G01 X-34.7391 Y11.1295 
G01 X-34.5728 Y11.0184 
G01 X-34.4314 Y10.8770 
G01 X-34.3203 Y10.7107 
G01 X-34.2438 Y10.5259 
G01 X-34.2048 Y10.3298 
G00 Z2.0000  
G00 X-29.8069 Y44.4199 
G01 Z-0.2500 F100   
G01 X-29.8069 Y44.5598 F100   
G01 X-29.7796 Y44.6971 
G01 X-29.7261 Y44.8263 
G01 X-29.6483 Y44.9427 
G01 X-29.5494 Y45.0416 
G01 X-29.4330 Y45.1194 
G01 X-29.3037 Y45.1729 
G01 X-29.1665 Y45.2002 
G01 X-29.0265 Y45.2002 
G01 X-28.8893 Y45.1729 
G01 X-28.7600 Y45.1194 
G01 X-28.6437 Y45.0416 
G01 X-28.5447 Y44.9427 
G01 X-28.4670 Y44.8263 
G01 X-28.4134 Y44.6971 
G01 X-28.3861 Y44.5598 
G01 X-28.3861 Y44.4199 
G01 X-28.4134 Y44.2826 
G01 X-28.4670 Y44.1533 
G01 X-28.5447 Y44.0370 
G01 X-28.6437 Y43.9380 
G01 X-28.7600 Y43.8603 
G01 X-28.8893 Y43.8067 
G01 X-29.0265 Y43.7794 
G01 X-29.1665 Y43.7794 
G01 X-29.3037 Y43.8067 
G01 X-29.4330 Y43.8603 
G01 X-29.5494 Y43.9380 
G01 X-29.6483 Y44.0370 
G01 X-29.7261 Y44.1533 
G01 X-29.7796 Y44.2826 
G01 X-29.8069 Y44.4199 
G00 Z2.0000  
G00 X-19.5865 Y52.8202 
G01 Z-0.2500 F100   
G01 X-18.2865 Y52.8202 F100   
G01 X-18.2588 Y52.8088 
G01 X-18.2376 Y52.7876 
G01 X-18.2261 Y52.7598 
G01 X-18.2261 Y51.4598 
G01 X-18.2376 Y51.4321 
G01 X-18.2588 Y51.4109 
G01 X-18.2865 Y51.3994 
G01 X-19.5865 Y51.3994 
G01 X-19.6142 Y51.4109 
G01 X-19.6354 Y51.4321 
G01 X-19.6469 Y51.4598 
G01 X-19.6469 Y52.7598 
G01 X-19.6354 Y52.7876 
G01 X-19.6142 Y52.8088 
G01 X-19.5865 Y52.8202 
G00 Z2.0000  
G00 X-37.4269 Y52.0399 
G01 Z-0.2500 F100   
G01 X-37.4269 Y52.1798 F100   
G01 X-37.3996 Y52.3171 
G01 X-37.3518 Y52.4325 
G01 X-38.0176 Y53.0983 
G01 X-38.0484 Y53.1727 
G01 X-38.0484 Y57.5713 
G01 X-38.0176 Y57.6457 
G01 X-37.9607 Y57.7026 
G01 X-32.2457 Y63.4176 
G01 X-32.1713 Y63.4484 
G01 X-22.1847 Y63.4484 
G01 X-22.1103 Y63.4176 
G01 X-22.0534 Y63.3606 
G01 X-16.4654 Y57.7727 
G01 X-16.4346 Y57.6983 
G01 X-16.4346 Y40.9807 
G01 X-16.4654 Y40.9063 
G01 X-16.5223 Y40.8494 
G01 X-17.9057 Y39.4661 
G01 X-17.8762 Y39.4256 
G01 X-17.7994 Y39.2748 
G01 X-17.7471 Y39.1138 
G01 X-17.7206 Y38.9466 
G01 X-17.7206 Y38.7774 
G01 X-17.7471 Y38.6102 
G01 X-17.7994 Y38.4492 
G01 X-17.8762 Y38.2984 
G01 X-17.9757 Y38.1614 
G01 X-18.0954 Y38.0417 
G01 X-18.2324 Y37.9422 
G01 X-18.3832 Y37.8654 
G01 X-18.5442 Y37.8131 
G01 X-18.7114 Y37.7866 
G01 X-18.8806 Y37.7866 
G01 X-19.0478 Y37.8131 
G01 X-19.2088 Y37.8654 
G01 X-19.3596 Y37.9422 
G01 X-19.4966 Y38.0417 
G01 X-19.6163 Y38.1614 
G01 X-19.7158 Y38.2984 
G01 X-19.7926 Y38.4492 
G01 X-19.8449 Y38.6102 
G01 X-19.8714 Y38.7774 
G01 X-19.8714 Y38.9466 
G01 X-19.8449 Y39.1138 
G01 X-19.7926 Y39.2748 
G01 X-19.7158 Y39.4256 
G01 X-19.6163 Y39.5626 
G01 X-19.4966 Y39.6823 
G01 X-19.3596 Y39.7818 
G01 X-19.2088 Y39.8586 
G01 X-19.0478 Y39.9109 
G01 X-18.8806 Y39.9374 
G01 X-18.7114 Y39.9374 
G01 X-18.5442 Y39.9109 
G01 X-18.3832 Y39.8586 
G01 X-18.2324 Y39.7818 
G01 X-18.1919 Y39.7523 
G01 X-16.8394 Y41.1048 
G01 X-16.8394 Y57.5742 
G01 X-22.3088 Y63.0436 
G01 X-32.0472 Y63.0436 
G01 X-37.6436 Y57.4472 
G01 X-37.6436 Y53.2968 
G01 X-37.0729 Y52.7261 
G01 X-37.0530 Y52.7394 
G01 X-36.9237 Y52.7929 
G01 X-36.7865 Y52.8202 
G01 X-36.6465 Y52.8202 
G01 X-36.5093 Y52.7929 
G01 X-36.3800 Y52.7394 
G01 X-36.2637 Y52.6616 
G01 X-36.1647 Y52.5627 
G01 X-36.0870 Y52.4463 
G01 X-36.0334 Y52.3171 
G01 X-36.0061 Y52.1798 
G01 X-36.0061 Y52.0399 
G01 X-36.0334 Y51.9026 
G01 X-36.0870 Y51.7733 
G01 X-36.1647 Y51.6570 
G01 X-36.2637 Y51.5580 
G01 X-36.3800 Y51.4803 
G01 X-36.5093 Y51.4267 
G01 X-36.6465 Y51.3994 
G01 X-36.7865 Y51.3994 
G01 X-36.9237 Y51.4267 
G01 X-37.0530 Y51.4803 
G01 X-37.1694 Y51.5580 
G01 X-37.2683 Y51.6570 
G01 X-37.3461 Y51.7733 
G01 X-37.3996 Y51.9026 
G01 X-37.4269 Y52.0399 
G00 Z2.0000  
G00 X-22.1869 Y44.4199 
G01 Z-0.2500 F100   
G01 X-22.1869 Y44.5598 F100   
G01 X-22.1596 Y44.6971 
G01 X-22.1061 Y44.8263 
G01 X-22.0283 Y44.9427 
G01 X-21.9294 Y45.0416 
G01 X-21.8130 Y45.1194 
G01 X-21.6837 Y45.1729 
G01 X-21.5465 Y45.2002 
G01 X-21.4065 Y45.2002 
G01 X-21.2693 Y45.1729 
G01 X-21.1400 Y45.1194 
G01 X-21.0237 Y45.0416 
G01 X-20.9247 Y44.9427 
G01 X-20.8470 Y44.8263 
G01 X-20.7934 Y44.6971 
G01 X-20.7661 Y44.5598 
G01 X-20.7661 Y44.4199 
G01 X-20.7934 Y44.2826 
G01 X-20.8470 Y44.1533 
G01 X-20.9247 Y44.0370 
G01 X-21.0237 Y43.9380 
G01 X-21.1400 Y43.8603 
G01 X-21.2693 Y43.8067 
G01 X-21.4065 Y43.7794 
G01 X-21.5465 Y43.7794 
G01 X-21.6837 Y43.8067 
G01 X-21.8130 Y43.8603 
G01 X-21.8612 Y43.8925 
G01 X-28.2456 Y37.5082 
G01 X-28.2456 Y29.8018 
G01 X-27.5144 Y29.0707 
G01 X-27.4836 Y28.9963 
G01 X-27.4836 Y18.5017 
G01 X-27.5144 Y18.4273 
G01 X-27.5713 Y18.3704 
G01 X-28.9547 Y16.9871 
G01 X-28.9252 Y16.9466 
G01 X-28.8484 Y16.7958 
G01 X-28.7961 Y16.6348 
G01 X-28.7696 Y16.4676 
G01 X-28.7696 Y16.2984 
G01 X-28.7961 Y16.1312 
G01 X-28.8484 Y15.9702 
G01 X-28.9252 Y15.8194 
G01 X-29.0247 Y15.6824 
G01 X-29.1444 Y15.5627 
G01 X-29.2814 Y15.4632 
G01 X-29.4322 Y15.3864 
G01 X-29.5932 Y15.3341 
G01 X-29.7604 Y15.3076 
G01 X-29.9296 Y15.3076 
G01 X-30.0968 Y15.3341 
G01 X-30.2578 Y15.3864 
G01 X-30.4086 Y15.4632 
G01 X-30.5456 Y15.5627 
G01 X-30.6653 Y15.6824 
G01 X-30.7648 Y15.8194 
G01 X-30.8416 Y15.9702 
G01 X-30.8939 Y16.1312 
G01 X-30.9204 Y16.2984 
G01 X-30.9204 Y16.4676 
G01 X-30.8939 Y16.6348 
G01 X-30.8416 Y16.7958 
G01 X-30.7648 Y16.9466 
G01 X-30.6653 Y17.0836 
G01 X-30.5456 Y17.2033 
G01 X-30.4086 Y17.3028 
G01 X-30.2578 Y17.3796 
G01 X-30.0968 Y17.4319 
G01 X-29.9296 Y17.4584 
G01 X-29.7604 Y17.4584 
G01 X-29.5932 Y17.4319 
G01 X-29.4322 Y17.3796 
G01 X-29.2814 Y17.3028 
G01 X-29.2409 Y17.2733 
G01 X-27.8884 Y18.6258 
G01 X-27.8884 Y28.8722 
G01 X-28.5627 Y29.5464 
G01 X-28.6196 Y29.6033 
G01 X-28.6504 Y29.6777 
G01 X-28.6504 Y37.6323 
G01 X-28.6196 Y37.7067 
G01 X-22.1256 Y44.2006 
G01 X-22.1596 Y44.2826 
G01 X-22.1869 Y44.4199 
G00 Z2.0000  
G00 X-19.6469 Y54.5799 
G01 Z-0.2500 F100   
G01 X-19.6469 Y54.7198 F100   
G01 X-19.6196 Y54.8571 
G01 X-19.5661 Y54.9863 
G01 X-19.4883 Y55.1027 
G01 X-19.3894 Y55.2016 
G01 X-19.2730 Y55.2794 
G01 X-19.1437 Y55.3329 
G01 X-19.0065 Y55.3602 
G01 X-18.8665 Y55.3602 
G01 X-18.7293 Y55.3329 
G01 X-18.6000 Y55.2794 
G01 X-18.4837 Y55.2016 
G01 X-18.3847 Y55.1027 
G01 X-18.3070 Y54.9863 
G01 X-18.2534 Y54.8571 
G01 X-18.2261 Y54.7198 
G01 X-18.2261 Y54.5799 
G01 X-18.2534 Y54.4426 
G01 X-18.3070 Y54.3133 
G01 X-18.3847 Y54.1970 
G01 X-18.4837 Y54.0980 
G01 X-18.6000 Y54.0203 
G01 X-18.7293 Y53.9667 
G01 X-18.8665 Y53.9394 
G01 X-19.0065 Y53.9394 
G01 X-19.1437 Y53.9667 
G01 X-19.2730 Y54.0203 
G01 X-19.3894 Y54.0980 
G01 X-19.4883 Y54.1970 
G01 X-19.5661 Y54.3133 
G01 X-19.6196 Y54.4426 
G01 X-19.6469 Y54.5799 
G00 Z2.0000  
G00 X-19.6469 Y57.1199 
G01 Z-0.2500 F100   
G01 X-19.6469 Y57.2598 F100   
G01 X-19.6196 Y57.3971 
G01 X-19.5661 Y57.5263 
G01 X-19.4883 Y57.6427 
G01 X-19.3894 Y57.7416 
G01 X-19.2730 Y57.8194 
G01 X-19.1437 Y57.8729 
G01 X-19.0065 Y57.9002 
G01 X-18.8665 Y57.9002 
G01 X-18.7293 Y57.8729 
G01 X-18.6000 Y57.8194 
G01 X-18.4837 Y57.7416 
G01 X-18.3847 Y57.6427 
G01 X-18.3070 Y57.5263 
G01 X-18.2534 Y57.3971 
G01 X-18.2261 Y57.2598 
G01 X-18.2261 Y57.1199 
G01 X-18.2534 Y56.9826 
G01 X-18.3070 Y56.8533 
G01 X-18.3847 Y56.7370 
G01 X-18.4837 Y56.6380 
G01 X-18.6000 Y56.5603 
G01 X-18.7293 Y56.5067 
G01 X-18.8665 Y56.4794 
G01 X-19.0065 Y56.4794 
G01 X-19.1437 Y56.5067 
G01 X-19.2730 Y56.5603 
G01 X-19.3894 Y56.6380 
G01 X-19.4883 Y56.7370 
G01 X-19.5661 Y56.8533 
G01 X-19.6196 Y56.9826 
G01 X-19.6469 Y57.1199 
G00 Z2.0000  
G00 X-22.1869 Y59.6599 
G01 Z-0.2500 F100   
G01 X-22.1869 Y59.7998 F100   
G01 X-22.1596 Y59.9371 
G01 X-22.1061 Y60.0663 
G01 X-22.0283 Y60.1827 
G01 X-21.9294 Y60.2816 
G01 X-21.8130 Y60.3594 
G01 X-21.6837 Y60.4129 
G01 X-21.5465 Y60.4402 
G01 X-21.4065 Y60.4402 
G01 X-21.2693 Y60.4129 
G01 X-21.1400 Y60.3594 
G01 X-21.0237 Y60.2816 
G01 X-20.9247 Y60.1827 
G01 X-20.8470 Y60.0663 
G01 X-20.7934 Y59.9371 
G01 X-20.7661 Y59.7998 
G01 X-20.7661 Y59.6599 
G01 X-20.7934 Y59.5226 
G01 X-20.8470 Y59.3933 
G01 X-20.9247 Y59.2770 
G01 X-21.0237 Y59.1780 
G01 X-21.1400 Y59.1003 
G01 X-21.2693 Y59.0467 
G01 X-21.4065 Y59.0194 
G01 X-21.5465 Y59.0194 
G01 X-21.6837 Y59.0467 
G01 X-21.8130 Y59.1003 
G01 X-21.9294 Y59.1780 
G01 X-22.0283 Y59.2770 
G01 X-22.1061 Y59.3933 
G01 X-22.1596 Y59.5226 
G01 X-22.1869 Y59.6599 
G00 Z2.0000  
G00 X-24.7269 Y59.6599 
G01 Z-0.2500 F100   
G01 X-24.7269 Y59.7998 F100   
G01 X-24.6996 Y59.9371 
G01 X-24.6461 Y60.0663 
G01 X-24.5683 Y60.1827 
G01 X-24.4694 Y60.2816 
G01 X-24.3530 Y60.3594 
G01 X-24.2237 Y60.4129 
G01 X-24.0865 Y60.4402 
G01 X-23.9465 Y60.4402 
G01 X-23.8093 Y60.4129 
G01 X-23.6800 Y60.3594 
G01 X-23.5637 Y60.2816 
G01 X-23.4647 Y60.1827 
G01 X-23.3870 Y60.0663 
G01 X-23.3334 Y59.9371 
G01 X-23.3061 Y59.7998 
G01 X-23.3061 Y59.6599 
G01 X-23.3334 Y59.5226 
G01 X-23.3870 Y59.3933 
G01 X-23.4647 Y59.2770 
G01 X-23.5637 Y59.1780 
G01 X-23.6800 Y59.1003 
G01 X-23.8093 Y59.0467 
G01 X-23.9465 Y59.0194 
G01 X-24.0865 Y59.0194 
G01 X-24.2237 Y59.0467 
G01 X-24.3530 Y59.1003 
G01 X-24.4012 Y59.1325 
G01 X-26.7956 Y56.7381 
G01 X-26.7662 Y56.6976 
G01 X-26.6894 Y56.5468 
G01 X-26.6371 Y56.3858 
G01 X-26.6106 Y56.2186 
G01 X-26.6106 Y56.0494 
G01 X-26.6371 Y55.8822 
G01 X-26.6894 Y55.7212 
G01 X-26.7662 Y55.5704 
G01 X-26.8657 Y55.4334 
G01 X-26.9854 Y55.3137 
G01 X-27.1224 Y55.2142 
G01 X-27.2732 Y55.1374 
G01 X-27.4342 Y55.0851 
G01 X-27.6014 Y55.0586 
G01 X-27.7706 Y55.0586 
G01 X-27.9378 Y55.0851 
G01 X-28.0988 Y55.1374 
G01 X-28.2496 Y55.2142 
G01 X-28.3866 Y55.3137 
G01 X-28.5063 Y55.4334 
G01 X-28.6058 Y55.5704 
G01 X-28.6826 Y55.7212 
G01 X-28.7349 Y55.8822 
G01 X-28.7614 Y56.0494 
G01 X-28.7614 Y56.2186 
G01 X-28.7349 Y56.3858 
G01 X-28.6826 Y56.5468 
G01 X-28.6058 Y56.6976 
G01 X-28.5063 Y56.8346 
G01 X-28.3866 Y56.9543 
G01 X-28.2496 Y57.0538 
G01 X-28.0988 Y57.1306 
G01 X-27.9378 Y57.1829 
G01 X-27.7706 Y57.2094 
G01 X-27.6014 Y57.2094 
G01 X-27.4342 Y57.1829 
G01 X-27.2732 Y57.1306 
G01 X-27.1224 Y57.0538 
G01 X-27.0819 Y57.0244 
G01 X-24.6656 Y59.4406 
G01 X-24.6996 Y59.5226 
G01 X-24.7269 Y59.6599 
G00 Z2.0000  
G00 X-32.3469 Y44.4199 
G01 Z-0.2500 F100   
G01 X-32.3469 Y44.5598 F100   
G01 X-32.3196 Y44.6971 
G01 X-32.2661 Y44.8263 
G01 X-32.1883 Y44.9427 
G01 X-32.0894 Y45.0416 
G01 X-31.9730 Y45.1194 
G01 X-31.8437 Y45.1729 
G01 X-31.7065 Y45.2002 
G01 X-31.5665 Y45.2002 
G01 X-31.4293 Y45.1729 
G01 X-31.3000 Y45.1194 
G01 X-31.1837 Y45.0416 
G01 X-31.0847 Y44.9427 
G01 X-31.0070 Y44.8263 
G01 X-30.9534 Y44.6971 
G01 X-30.9261 Y44.5598 
G01 X-30.9261 Y44.4199 
G01 X-30.9534 Y44.2826 
G01 X-31.0070 Y44.1533 
G01 X-31.0847 Y44.0370 
G01 X-31.1837 Y43.9380 
G01 X-31.3000 Y43.8603 
G01 X-31.4293 Y43.8067 
G01 X-31.5665 Y43.7794 
G01 X-31.7065 Y43.7794 
G01 X-31.8437 Y43.8067 
G01 X-31.9730 Y43.8603 
G01 X-32.0894 Y43.9380 
G01 X-32.1883 Y44.0370 
G01 X-32.2661 Y44.1533 
G01 X-32.3196 Y44.2826 
G01 X-32.3469 Y44.4199 
G00 Z2.0000  
G00 X-37.4269 Y46.9599 
G01 Z-0.2500 F100   
G01 X-37.4269 Y47.0998 F100   
G01 X-37.3996 Y47.2371 
G01 X-37.3461 Y47.3663 
G01 X-37.2683 Y47.4827 
G01 X-37.1694 Y47.5816 
G01 X-37.0530 Y47.6594 
G01 X-36.9237 Y47.7129 
G01 X-36.7865 Y47.7402 
G01 X-36.6465 Y47.7402 
G01 X-36.5093 Y47.7129 
G01 X-36.3800 Y47.6594 
G01 X-36.2637 Y47.5816 
G01 X-36.1647 Y47.4827 
G01 X-36.0870 Y47.3663 
G01 X-36.0334 Y47.2371 
G01 X-36.0061 Y47.0998 
G01 X-36.0061 Y46.9599 
G01 X-36.0334 Y46.8226 
G01 X-36.0870 Y46.6933 
G01 X-36.1647 Y46.5770 
G01 X-36.2637 Y46.4780 
G01 X-36.3800 Y46.4003 
G01 X-36.5006 Y46.3503 
G01 X-36.5006 Y45.5498 
G01 X-34.8804 Y43.9297 
G01 X-34.8496 Y43.8553 
G01 X-34.8496 Y22.7737 
G01 X-34.8002 Y22.7659 
G01 X-34.6392 Y22.7136 
G01 X-34.4884 Y22.6368 
G01 X-34.3514 Y22.5373 
G01 X-34.2317 Y22.4176 
G01 X-34.1322 Y22.2806 
G01 X-34.0554 Y22.1298 
G01 X-34.0031 Y21.9688 
G01 X-33.9766 Y21.8016 
G01 X-33.9766 Y21.6324 
G01 X-34.0031 Y21.4652 
G01 X-34.0554 Y21.3042 
G01 X-34.1322 Y21.1534 
G01 X-34.2317 Y21.0164 
G01 X-34.3514 Y20.8967 
G01 X-34.4884 Y20.7972 
G01 X-34.6392 Y20.7204 
G01 X-34.8002 Y20.6681 
G01 X-34.9674 Y20.6416 
G01 X-35.1366 Y20.6416 
G01 X-35.3038 Y20.6681 
G01 X-35.4648 Y20.7204 
G01 X-35.6156 Y20.7972 
G01 X-35.7526 Y20.8967 
G01 X-35.8723 Y21.0164 
G01 X-35.9718 Y21.1534 
G01 X-36.0486 Y21.3042 
G01 X-36.1009 Y21.4652 
G01 X-36.1274 Y21.6324 
G01 X-36.1274 Y21.8016 
G01 X-36.1009 Y21.9688 
G01 X-36.0486 Y22.1298 
G01 X-35.9718 Y22.2806 
G01 X-35.8723 Y22.4176 
G01 X-35.7526 Y22.5373 
G01 X-35.6156 Y22.6368 
G01 X-35.4648 Y22.7136 
G01 X-35.3038 Y22.7659 
G01 X-35.2544 Y22.7737 
G01 X-35.2544 Y43.7312 
G01 X-36.8177 Y45.2944 
G01 X-36.8746 Y45.3513 
G01 X-36.9054 Y45.4257 
G01 X-36.9054 Y46.3431 
G01 X-36.9237 Y46.3467 
G01 X-37.0530 Y46.4003 
G01 X-37.1694 Y46.4780 
G01 X-37.2683 Y46.5770 
G01 X-37.3461 Y46.6933 
G01 X-37.3996 Y46.8226 
G01 X-37.4269 Y46.9599 
G00 Z2.0000  
G00 X-34.8869 Y44.4199 
G01 Z-0.2500 F100   
G01 X-34.8869 Y44.5598 F100   
G01 X-34.8596 Y44.6971 
G01 X-34.8061 Y44.8263 
G01 X-34.7283 Y44.9427 
G01 X-34.6294 Y45.0416 
G01 X-34.5130 Y45.1194 
G01 X-34.3837 Y45.1729 
G01 X-34.2465 Y45.2002 
G01 X-34.1065 Y45.2002 
G01 X-33.9693 Y45.1729 
G01 X-33.8400 Y45.1194 
G01 X-33.7237 Y45.0416 
G01 X-33.6247 Y44.9427 
G01 X-33.5470 Y44.8263 
G01 X-33.4934 Y44.6971 
G01 X-33.4661 Y44.5598 
G01 X-33.4661 Y44.4199 
G01 X-33.4934 Y44.2826 
G01 X-33.5470 Y44.1533 
G01 X-33.6247 Y44.0370 
G01 X-33.7237 Y43.9380 
G01 X-33.8400 Y43.8603 
G01 X-33.9693 Y43.8067 
G01 X-34.1065 Y43.7794 
G01 X-34.2465 Y43.7794 
G01 X-34.3837 Y43.8067 
G01 X-34.5130 Y43.8603 
G01 X-34.6294 Y43.9380 
G01 X-34.7283 Y44.0370 
G01 X-34.8061 Y44.1533 
G01 X-34.8596 Y44.2826 
G01 X-34.8869 Y44.4199 
G00 Z2.0000  
G00 X-37.4269 Y54.5799 
G01 Z-0.2500 F100   
G01 X-37.4269 Y54.7198 F100   
G01 X-37.3996 Y54.8571 
G01 X-37.3461 Y54.9863 
G01 X-37.2683 Y55.1027 
G01 X-37.1694 Y55.2016 
G01 X-37.0530 Y55.2794 
G01 X-36.9237 Y55.3329 
G01 X-36.7865 Y55.3602 
G01 X-36.6465 Y55.3602 
G01 X-36.5093 Y55.3329 
G01 X-36.3800 Y55.2794 
G01 X-36.2637 Y55.2016 
G01 X-36.1647 Y55.1027 
G01 X-36.0870 Y54.9863 
G01 X-36.0334 Y54.8571 
G01 X-36.0061 Y54.7198 
G01 X-36.0061 Y54.5799 
G01 X-36.0334 Y54.4426 
G01 X-36.0870 Y54.3133 
G01 X-36.1647 Y54.1970 
G01 X-36.2637 Y54.0980 
G01 X-36.3800 Y54.0203 
G01 X-36.5093 Y53.9667 
G01 X-36.6465 Y53.9394 
G01 X-36.7865 Y53.9394 
G01 X-36.9237 Y53.9667 
G01 X-37.0530 Y54.0203 
G01 X-37.1694 Y54.0980 
G01 X-37.2683 Y54.1970 
G01 X-37.3461 Y54.3133 
G01 X-37.3996 Y54.4426 
G01 X-37.4269 Y54.5799 
G00 Z2.0000  
G00 X-34.8869 Y59.6599 
G01 Z-0.2500 F100   
G01 X-34.8869 Y59.7998 F100   
G01 X-34.8596 Y59.9371 
G01 X-34.8061 Y60.0663 
G01 X-34.7283 Y60.1827 
G01 X-34.6294 Y60.2816 
G01 X-34.5130 Y60.3594 
G01 X-34.3837 Y60.4129 
G01 X-34.2465 Y60.4402 
G01 X-34.1065 Y60.4402 
G01 X-33.9693 Y60.4129 
G01 X-33.8400 Y60.3594 
G01 X-33.7237 Y60.2816 
G01 X-33.6247 Y60.1827 
G01 X-33.5470 Y60.0663 
G01 X-33.4934 Y59.9371 
G01 X-33.4661 Y59.7998 
G01 X-33.4661 Y59.6599 
G01 X-33.4934 Y59.5226 
G01 X-33.5470 Y59.3933 
G01 X-33.6247 Y59.2770 
G01 X-33.7237 Y59.1780 
G01 X-33.8400 Y59.1003 
G01 X-33.9693 Y59.0467 
G01 X-34.1065 Y59.0194 
G01 X-34.2465 Y59.0194 
G01 X-34.3837 Y59.0467 
G01 X-34.5130 Y59.1003 
G01 X-34.6294 Y59.1780 
G01 X-34.7283 Y59.2770 
G01 X-34.8061 Y59.3933 
G01 X-34.8596 Y59.5226 
G01 X-34.8869 Y59.6599 
G00 Z2.0000  
G00 X-18.3634 Y45.0447 
G01 Z-0.2500 F100   
G01 X-18.3634 Y45.1253 F100   
G01 X-18.3326 Y45.1997 
G01 X-17.4744 Y46.0578 
G01 X-17.4744 Y47.3849 
G01 X-18.9803 Y48.3116 
G01 X-28.1073 Y48.3116 
G01 X-28.1817 Y48.3424 
G01 X-36.3938 Y56.5546 
G01 X-36.5093 Y56.5067 
G01 X-36.6465 Y56.4794 
G01 X-36.7865 Y56.4794 
G01 X-36.9237 Y56.5067 
G01 X-37.0530 Y56.5603 
G01 X-37.1694 Y56.6380 
G01 X-37.2683 Y56.7370 
G01 X-37.3461 Y56.8533 
G01 X-37.3996 Y56.9826 
G01 X-37.4269 Y57.1199 
G01 X-37.4269 Y57.2598 
G01 X-37.3996 Y57.3971 
G01 X-37.3461 Y57.5263 
G01 X-37.2683 Y57.6427 
G01 X-37.1694 Y57.7416 
G01 X-37.0530 Y57.8194 
G01 X-36.9237 Y57.8729 
G01 X-36.7865 Y57.9002 
G01 X-36.6465 Y57.9002 
G01 X-36.5093 Y57.8729 
G01 X-36.3800 Y57.8194 
G01 X-36.2637 Y57.7416 
G01 X-36.1647 Y57.6427 
G01 X-36.0870 Y57.5263 
G01 X-36.0334 Y57.3971 
G01 X-36.0061 Y57.2598 
G01 X-36.0061 Y57.1199 
G01 X-36.0334 Y56.9826 
G01 X-36.0870 Y56.8533 
G01 X-36.1002 Y56.8335 
G01 X-27.9832 Y48.7164 
G01 X-18.9468 Y48.7164 
G01 X-18.9307 Y48.7202 
G01 X-18.9069 Y48.7164 
G01 X-18.8827 Y48.7164 
G01 X-18.8675 Y48.7101 
G01 X-18.8512 Y48.7075 
G01 X-18.8307 Y48.6948 
G01 X-18.8083 Y48.6856 
G01 X-18.7967 Y48.6739 
G01 X-17.1797 Y47.6788 
G01 X-17.1573 Y47.6696 
G01 X-17.1457 Y47.6579 
G01 X-17.1316 Y47.6493 
G01 X-17.1175 Y47.6297 
G01 X-17.1004 Y47.6127 
G01 X-17.0941 Y47.5974 
G01 X-17.0844 Y47.5840 
G01 X-17.0788 Y47.5606 
G01 X-17.0696 Y47.5383 
G01 X-17.0696 Y47.5218 
G01 X-17.0658 Y47.5057 
G01 X-17.0696 Y47.4819 
G01 X-17.0696 Y45.9337 
G01 X-17.1004 Y45.8593 
G01 X-17.1573 Y45.8024 
G01 X-17.9586 Y45.0012 
G01 X-17.9586 Y42.7127 
G01 X-17.9092 Y42.7049 
G01 X-17.7482 Y42.6526 
G01 X-17.5974 Y42.5758 
G01 X-17.4604 Y42.4763 
G01 X-17.3407 Y42.3566 
G01 X-17.2412 Y42.2196 
G01 X-17.1644 Y42.0688 
G01 X-17.1121 Y41.9078 
G01 X-17.0856 Y41.7406 
G01 X-17.0856 Y41.5714 
G01 X-17.1121 Y41.4042 
G01 X-17.1644 Y41.2432 
G01 X-17.2412 Y41.0924 
G01 X-17.3407 Y40.9554 
G01 X-17.4604 Y40.8357 
G01 X-17.5974 Y40.7362 
G01 X-17.7482 Y40.6594 
G01 X-17.9092 Y40.6071 
G01 X-18.0764 Y40.5806 
G01 X-18.2456 Y40.5806 
G01 X-18.4128 Y40.6071 
G01 X-18.5738 Y40.6594 
G01 X-18.7246 Y40.7362 
G01 X-18.8616 Y40.8357 
G01 X-18.9813 Y40.9554 
G01 X-19.0808 Y41.0924 
G01 X-19.1576 Y41.2432 
G01 X-19.2099 Y41.4042 
G01 X-19.2364 Y41.5714 
G01 X-19.2364 Y41.7406 
G01 X-19.2099 Y41.9078 
G01 X-19.1576 Y42.0688 
G01 X-19.0808 Y42.2196 
G01 X-18.9813 Y42.3566 
G01 X-18.8616 Y42.4763 
G01 X-18.7246 Y42.5758 
G01 X-18.5738 Y42.6526 
G01 X-18.4128 Y42.7049 
G01 X-18.3634 Y42.7127 
G01 X-18.3634 Y45.0447 
G00 Z2.0000  
G00 X-23.8958 Y61.9244 
G01 Z-0.2500 F100   
G01 X-23.8758 Y61.9284 F100   
G01 X-23.8560 Y61.9244 
G01 X-23.8357 Y61.9244 
G01 X-23.8169 Y61.9166 
G01 X-23.7968 Y61.9126 
G01 X-23.7800 Y61.9013 
G01 X-23.7613 Y61.8936 
G01 X-23.7469 Y61.8791 
G01 X-23.7299 Y61.8678 
G01 X-23.7187 Y61.8510 
G01 X-23.7044 Y61.8367 
G01 X-23.6966 Y61.8178 
G01 X-22.4487 Y59.9459 
G01 X-22.4344 Y59.9317 
G01 X-22.4266 Y59.9128 
G01 X-22.4153 Y59.8958 
G01 X-22.4113 Y59.8759 
G01 X-22.4036 Y59.8573 
G01 X-22.4036 Y59.8368 
G01 X-22.3996 Y59.8168 
G01 X-22.4036 Y59.7970 
G01 X-22.4036 Y53.2968 
G01 X-19.2929 Y50.1861 
G01 X-19.2730 Y50.1994 
G01 X-19.1437 Y50.2529 
G01 X-19.0065 Y50.2802 
G01 X-18.8665 Y50.2802 
G01 X-18.7293 Y50.2529 
G01 X-18.6000 Y50.1994 
G01 X-18.4837 Y50.1216 
G01 X-18.3847 Y50.0227 
G01 X-18.3070 Y49.9063 
G01 X-18.2534 Y49.7771 
G01 X-18.2261 Y49.6398 
G01 X-18.2261 Y49.4999 
G01 X-18.2534 Y49.3626 
G01 X-18.3070 Y49.2333 
G01 X-18.3847 Y49.1170 
G01 X-18.4837 Y49.0180 
G01 X-18.6000 Y48.9403 
G01 X-18.7293 Y48.8867 
G01 X-18.8665 Y48.8594 
G01 X-19.0065 Y48.8594 
G01 X-19.1437 Y48.8867 
G01 X-19.2730 Y48.9403 
G01 X-19.3894 Y49.0180 
G01 X-19.4883 Y49.1170 
G01 X-19.5661 Y49.2333 
G01 X-19.6196 Y49.3626 
G01 X-19.6469 Y49.4999 
G01 X-19.6469 Y49.6398 
G01 X-19.6196 Y49.7771 
G01 X-19.5718 Y49.8925 
G01 X-22.7776 Y53.0983 
G01 X-22.8084 Y53.1727 
G01 X-22.8084 Y59.7557 
G01 X-23.9843 Y61.5196 
G01 X-25.3593 Y61.5196 
G01 X-25.3671 Y61.4702 
G01 X-25.4194 Y61.3092 
G01 X-25.4962 Y61.1584 
G01 X-25.5957 Y61.0214 
G01 X-25.7154 Y60.9017 
G01 X-25.8524 Y60.8022 
G01 X-26.0032 Y60.7254 
G01 X-26.1642 Y60.6731 
G01 X-26.3314 Y60.6466 
G01 X-26.5006 Y60.6466 
G01 X-26.6678 Y60.6731 
G01 X-26.8288 Y60.7254 
G01 X-26.9796 Y60.8022 
G01 X-27.1166 Y60.9017 
G01 X-27.2363 Y61.0214 
G01 X-27.3358 Y61.1584 
G01 X-27.4126 Y61.3092 
G01 X-27.4649 Y61.4702 
G01 X-27.4914 Y61.6374 
G01 X-27.4914 Y61.8066 
G01 X-27.4649 Y61.9738 
G01 X-27.4126 Y62.1348 
G01 X-27.3358 Y62.2856 
G01 X-27.2363 Y62.4226 
G01 X-27.1166 Y62.5423 
G01 X-26.9796 Y62.6418 
G01 X-26.8288 Y62.7186 
G01 X-26.6678 Y62.7709 
G01 X-26.5006 Y62.7974 
G01 X-26.3314 Y62.7974 
G01 X-26.1642 Y62.7709 
G01 X-26.0032 Y62.7186 
G01 X-25.8524 Y62.6418 
G01 X-25.7154 Y62.5423 
G01 X-25.5957 Y62.4226 
G01 X-25.4962 Y62.2856 
G01 X-25.4194 Y62.1348 
G01 X-25.3671 Y61.9738 
G01 X-25.3593 Y61.9244 
G01 X-23.8958 Y61.9244 
G00 Z2.0000  
G00 X-37.5404 Y44.7472 
G01 Z-0.2500 F100   
G01 X-37.9607 Y45.1674 F100   
G01 X-38.0176 Y45.2243 
G01 X-38.0484 Y45.2987 
G01 X-38.0484 Y47.9892 
G01 X-38.0523 Y48.0124 
G01 X-38.0484 Y48.0291 
G01 X-38.0484 Y48.0463 
G01 X-38.0394 Y48.0680 
G01 X-38.0341 Y48.0909 
G01 X-38.0241 Y48.1048 
G01 X-38.0176 Y48.1207 
G01 X-38.0010 Y48.1373 
G01 X-37.9873 Y48.1564 
G01 X-37.9728 Y48.1655 
G01 X-37.9607 Y48.1776 
G01 X-37.9389 Y48.1866 
G01 X-37.9190 Y48.1990 
G01 X-37.9021 Y48.2018 
G01 X-37.8863 Y48.2084 
G01 X-37.8628 Y48.2084 
G01 X-37.1401 Y48.3288 
G01 X-37.1243 Y48.3354 
G01 X-37.1008 Y48.3354 
G01 X-37.0776 Y48.3393 
G01 X-37.0609 Y48.3354 
G01 X-33.7417 Y48.3354 
G01 X-33.6673 Y48.3046 
G01 X-31.9202 Y46.5574 
G01 X-19.7688 Y46.5574 
G01 X-19.5856 Y46.7406 
G01 X-19.6196 Y46.8226 
G01 X-19.6469 Y46.9599 
G01 X-19.6469 Y47.0998 
G01 X-19.6196 Y47.2371 
G01 X-19.5661 Y47.3663 
G01 X-19.4883 Y47.4827 
G01 X-19.3894 Y47.5816 
G01 X-19.2730 Y47.6594 
G01 X-19.1437 Y47.7129 
G01 X-19.0065 Y47.7402 
G01 X-18.8665 Y47.7402 
G01 X-18.7293 Y47.7129 
G01 X-18.6000 Y47.6594 
G01 X-18.4837 Y47.5816 
G01 X-18.3847 Y47.4827 
G01 X-18.3070 Y47.3663 
G01 X-18.2534 Y47.2371 
G01 X-18.2261 Y47.0998 
G01 X-18.2261 Y46.9599 
G01 X-18.2534 Y46.8226 
G01 X-18.3070 Y46.6933 
G01 X-18.3847 Y46.5770 
G01 X-18.4837 Y46.4780 
G01 X-18.6000 Y46.4003 
G01 X-18.7293 Y46.3467 
G01 X-18.8665 Y46.3194 
G01 X-19.0065 Y46.3194 
G01 X-19.1437 Y46.3467 
G01 X-19.2730 Y46.4003 
G01 X-19.3212 Y46.4325 
G01 X-19.5703 Y46.1834 
G01 X-19.6447 Y46.1526 
G01 X-32.0443 Y46.1526 
G01 X-32.1187 Y46.1834 
G01 X-32.1756 Y46.2403 
G01 X-33.8658 Y47.9306 
G01 X-37.0672 Y47.9306 
G01 X-37.6436 Y47.8345 
G01 X-37.6436 Y45.4228 
G01 X-37.1664 Y44.9457 
G01 X-37.1356 Y44.8713 
G01 X-37.1356 Y19.9797 
G01 X-37.0862 Y19.9719 
G01 X-36.9252 Y19.9196 
G01 X-36.7744 Y19.8428 
G01 X-36.6374 Y19.7433 
G01 X-36.5177 Y19.6236 
G01 X-36.4182 Y19.4866 
G01 X-36.3414 Y19.3358 
G01 X-36.2891 Y19.1748 
G01 X-36.2626 Y19.0076 
G01 X-36.2626 Y18.8384 
G01 X-36.2891 Y18.6712 
G01 X-36.3414 Y18.5102 
G01 X-36.4182 Y18.3594 
G01 X-36.5177 Y18.2224 
G01 X-36.6374 Y18.1027 
G01 X-36.7744 Y18.0032 
G01 X-36.9252 Y17.9264 
G01 X-37.0862 Y17.8741 
G01 X-37.2534 Y17.8476 
G01 X-37.4226 Y17.8476 
G01 X-37.5898 Y17.8741 
G01 X-37.7508 Y17.9264 
G01 X-37.9016 Y18.0032 
G01 X-38.0386 Y18.1027 
G01 X-38.1583 Y18.2224 
G01 X-38.2578 Y18.3594 
G01 X-38.3346 Y18.5102 
G01 X-38.3869 Y18.6712 
G01 X-38.4134 Y18.8384 
G01 X-38.4134 Y19.0076 
G01 X-38.3869 Y19.1748 
G01 X-38.3346 Y19.3358 
G01 X-38.2578 Y19.4866 
G01 X-38.1583 Y19.6236 
G01 X-38.0386 Y19.7433 
G01 X-37.9016 Y19.8428 
G01 X-37.7508 Y19.9196 
G01 X-37.5898 Y19.9719 
G01 X-37.5404 Y19.9797 
G01 X-37.5404 Y44.7472 
G00 Z2.0000  
G00 X-29.4124 Y39.3297 
G01 Z-0.2500 F100   
G01 X-29.4124 Y39.4103 F100   
G01 X-29.3816 Y39.4847 
G01 X-24.6656 Y44.2006 
G01 X-24.6996 Y44.2826 
G01 X-24.7269 Y44.4199 
G01 X-24.7269 Y44.5598 
G01 X-24.6996 Y44.6971 
G01 X-24.6461 Y44.8263 
G01 X-24.5683 Y44.9427 
G01 X-24.4694 Y45.0416 
G01 X-24.3530 Y45.1194 
G01 X-24.2237 Y45.1729 
G01 X-24.0865 Y45.2002 
G01 X-23.9465 Y45.2002 
G01 X-23.8093 Y45.1729 
G01 X-23.6800 Y45.1194 
G01 X-23.5637 Y45.0416 
G01 X-23.4647 Y44.9427 
G01 X-23.3870 Y44.8263 
G01 X-23.3334 Y44.6971 
G01 X-23.3061 Y44.5598 
G01 X-23.3061 Y44.4199 
G01 X-23.3334 Y44.2826 
G01 X-23.3870 Y44.1533 
G01 X-23.4647 Y44.0370 
G01 X-23.5637 Y43.9380 
G01 X-23.6800 Y43.8603 
G01 X-23.8093 Y43.8067 
G01 X-23.9465 Y43.7794 
G01 X-24.0865 Y43.7794 
G01 X-24.2237 Y43.8067 
G01 X-24.3530 Y43.8603 
G01 X-24.4012 Y43.8925 
G01 X-29.0076 Y39.2862 
G01 X-29.0076 Y20.8687 
G01 X-28.9582 Y20.8609 
G01 X-28.7972 Y20.8086 
G01 X-28.6464 Y20.7318 
G01 X-28.5094 Y20.6323 
G01 X-28.3897 Y20.5126 
G01 X-28.2902 Y20.3756 
G01 X-28.2134 Y20.2248 
G01 X-28.1611 Y20.0638 
G01 X-28.1346 Y19.8966 
G01 X-28.1346 Y19.7274 
G01 X-28.1611 Y19.5602 
G01 X-28.2134 Y19.3992 
G01 X-28.2902 Y19.2484 
G01 X-28.3897 Y19.1114 
G01 X-28.5094 Y18.9917 
G01 X-28.6464 Y18.8922 
G01 X-28.7972 Y18.8154 
G01 X-28.9582 Y18.7631 
G01 X-29.1254 Y18.7366 
G01 X-29.2946 Y18.7366 
G01 X-29.4618 Y18.7631 
G01 X-29.6228 Y18.8154 
G01 X-29.7736 Y18.8922 
G01 X-29.9106 Y18.9917 
G01 X-30.0303 Y19.1114 
G01 X-30.1298 Y19.2484 
G01 X-30.2066 Y19.3992 
G01 X-30.2589 Y19.5602 
G01 X-30.2854 Y19.7274 
G01 X-30.2854 Y19.8966 
G01 X-30.2589 Y20.0638 
G01 X-30.2066 Y20.2248 
G01 X-30.1298 Y20.3756 
G01 X-30.0303 Y20.5126 
G01 X-29.9106 Y20.6323 
G01 X-29.7736 Y20.7318 
G01 X-29.6228 Y20.8086 
G01 X-29.4618 Y20.8609 
G01 X-29.4124 Y20.8687 
G01 X-29.4124 Y39.3297 
G00 Z2.0000  
G00 X-32.2064 Y39.0757 
G01 Z-0.2500 F100   
G01 X-32.2064 Y39.1563 F100   
G01 X-32.1756 Y39.2307 
G01 X-27.2056 Y44.2006 
G01 X-27.2396 Y44.2826 
G01 X-27.2669 Y44.4199 
G01 X-27.2669 Y44.5598 
G01 X-27.2396 Y44.6971 
G01 X-27.1861 Y44.8263 
G01 X-27.1083 Y44.9427 
G01 X-27.0094 Y45.0416 
G01 X-26.8930 Y45.1194 
G01 X-26.7637 Y45.1729 
G01 X-26.6265 Y45.2002 
G01 X-26.4865 Y45.2002 
G01 X-26.3493 Y45.1729 
G01 X-26.2200 Y45.1194 
G01 X-26.1037 Y45.0416 
G01 X-26.0047 Y44.9427 
G01 X-25.9270 Y44.8263 
G01 X-25.8734 Y44.6971 
G01 X-25.8461 Y44.5598 
G01 X-25.8461 Y44.4199 
G01 X-25.8734 Y44.2826 
G01 X-25.9270 Y44.1533 
G01 X-26.0047 Y44.0370 
G01 X-26.1037 Y43.9380 
G01 X-26.2200 Y43.8603 
G01 X-26.3493 Y43.8067 
G01 X-26.4865 Y43.7794 
G01 X-26.6265 Y43.7794 
G01 X-26.7637 Y43.8067 
G01 X-26.8930 Y43.8603 
G01 X-26.9412 Y43.8925 
G01 X-31.8016 Y39.0322 
G01 X-31.8016 Y23.0277 
G01 X-31.7522 Y23.0199 
G01 X-31.5912 Y22.9676 
G01 X-31.4404 Y22.8908 
G01 X-31.3034 Y22.7913 
G01 X-31.1837 Y22.6716 
G01 X-31.0842 Y22.5346 
G01 X-31.0074 Y22.3838 
G01 X-30.9551 Y22.2228 
G01 X-30.9286 Y22.0556 
G01 X-30.9286 Y21.8864 
G01 X-30.9551 Y21.7192 
G01 X-31.0074 Y21.5582 
G01 X-31.0842 Y21.4074 
G01 X-31.1837 Y21.2704 
G01 X-31.3034 Y21.1507 
G01 X-31.4404 Y21.0512 
G01 X-31.5912 Y20.9744 
G01 X-31.7522 Y20.9221 
G01 X-31.9194 Y20.8956 
G01 X-32.0886 Y20.8956 
G01 X-32.2558 Y20.9221 
G01 X-32.4168 Y20.9744 
G01 X-32.5676 Y21.0512 
G01 X-32.7046 Y21.1507 
G01 X-32.8243 Y21.2704 
G01 X-32.9238 Y21.4074 
G01 X-33.0006 Y21.5582 
G01 X-33.0529 Y21.7192 
G01 X-33.0794 Y21.8864 
G01 X-33.0794 Y22.0556 
G01 X-33.0529 Y22.2228 
G01 X-33.0006 Y22.3838 
G01 X-32.9238 Y22.5346 
G01 X-32.8243 Y22.6716 
G01 X-32.7046 Y22.7913 
G01 X-32.5676 Y22.8908 
G01 X-32.4168 Y22.9676 
G01 X-32.2558 Y23.0199 
G01 X-32.2064 Y23.0277 
G01 X-32.2064 Y39.0757 
G00 Z2.0000  
G00 X-35.9342 Y49.8072 
G01 Z-0.2500 F100   
G01 X-35.9955 Y49.9552 F100   
G01 X-36.0845 Y50.0885 
G01 X-36.1979 Y50.2018 
G01 X-36.3311 Y50.2908 
G01 X-36.4792 Y50.3522 
G01 X-36.4911 Y50.3545 
G01 X-36.4911 Y50.2454 
G01 X-36.3800 Y50.1994 
G01 X-36.2637 Y50.1216 
G01 X-36.1647 Y50.0227 
G01 X-36.0870 Y49.9063 
G01 X-36.0409 Y49.7952 
G01 X-35.9318 Y49.7952 
G01 X-35.9342 Y49.8072 
G00 Z2.0000  
G00 X-1.1535 Y74.0086 
G01 Z-0.2500 F100   
G01 X-1.0791 Y73.9778 F100   
G01 X-1.0222 Y73.9209 
G01 X-0.9914 Y73.8465 
G01 X-0.9914 Y1.1535  
G01 X-1.0222 Y1.0791  
G01 X-1.0791 Y1.0222  
G01 X-1.1535 Y0.9914  
G01 X-48.8465 Y0.9914  
G01 X-48.9209 Y1.0222  
G01 X-48.9778 Y1.0791  
G01 X-49.0086 Y1.1535  
G01 X-49.0086 Y73.8465 
G01 X-48.9778 Y73.9209 
G01 X-48.9209 Y73.9778 
G01 X-48.8465 Y74.0086 
G01 X-48.7659 Y74.0086 
G01 X-1.1535 Y74.0086 
G00 Z2.0000  
G00 X-35.5579 Y7.2874  
G01 Z-0.2500 F100   
G01 X-35.6481 Y7.3167  F100   
G01 X-35.7907 Y7.3894  
G01 X-35.6887 Y7.2874  
G01 X-35.5579 Y7.2874  
G00 Z2.0000  
G00 X-27.7125 Y66.0202 
G01 Z-0.2500 F100   
G01 X-27.7125 Y66.2591 F100   
G01 X-27.7779 Y66.3245 
G01 X-28.0822 Y66.3245 
G01 X-28.0822 Y65.9548 
G01 X-27.7779 Y65.9548 
G01 X-27.7125 Y66.0202 
G00 Z2.0000  
G00 X-32.6893 Y65.4548 
G01 Z-0.2500 F100   
G01 X-32.6295 Y65.5147 F100   
G01 X-32.6893 Y65.5745 
G01 X-33.0480 Y65.5745 
G01 X-32.9283 Y65.4548 
G01 X-32.6893 Y65.4548 
G00 Z2.0000  
G00 X-32.6893 Y66.3245 
G01 Z-0.2500 F100   
G01 X-32.9283 Y66.3245 F100   
G01 X-32.9881 Y66.2646 
G01 X-32.9283 Y66.2047 
G01 X-32.5696 Y66.2047 
G01 X-32.6893 Y66.3245 
G00 Z2.0000  
G00 X-39.4769 Y65.4548 
G01 Z-0.2500 F100   
G01 X-39.2380 Y65.4548 F100   
G01 X-39.1781 Y65.5147 
G01 X-39.2380 Y65.5745 
G01 X-39.4769 Y65.5745 
G01 X-39.5368 Y65.5147 
G01 X-39.4769 Y65.4548 
G00 Z2.0000  
G00 X-39.1781 Y66.2646 
G01 Z-0.2500 F100   
G01 X-39.2380 Y66.3245 F100   
G01 X-39.4769 Y66.3245 
G01 X-39.5368 Y66.2646 
G01 X-39.4769 Y66.2047 
G01 X-39.2380 Y66.2047 
G01 X-39.1781 Y66.2646 
G00 Z2.0000  
G00 X-37.6356 Y15.1603 
G01 Z-0.2500 F100   
G01 X-37.6497 Y15.1744 F100   
G01 X-37.6656 Y15.1866 
G01 X-37.6778 Y15.2024 
G01 X-40.8337 Y18.3583 
G01 X-40.8900 Y18.4146 
G01 X-40.8950 Y18.4234 
G01 X-40.9298 Y18.4836 
G01 X-40.9481 Y18.5518 
G01 X-40.9504 Y18.5605 
G01 X-40.9504 Y27.7082 
G01 X-40.9530 Y27.7281 
G01 X-40.9504 Y27.7479 
G01 X-40.9504 Y27.7679 
G01 X-40.9452 Y27.7872 
G01 X-40.9426 Y27.8070 
G01 X-40.9350 Y27.8255 
G01 X-40.9298 Y27.8448 
G01 X-40.9198 Y27.8621 
G01 X-40.9121 Y27.8806 
G01 X-40.9000 Y27.8964 
G01 X-40.8900 Y27.9137 
G01 X-40.8758 Y27.9279 
G01 X-40.8637 Y27.9437 
G01 X-40.8478 Y27.9559 
G01 X-40.8337 Y27.9700 
G01 X-40.8164 Y27.9800 
G01 X-40.8005 Y27.9922 
G01 X-40.7820 Y27.9999 
G01 X-40.7647 Y28.0099 
G01 X-40.7454 Y28.0150 
G01 X-40.3684 Y28.1712 
G01 X-40.1477 Y28.3919 
G01 X-40.1355 Y28.4692 
G01 X-40.0783 Y28.6452 
G01 X-39.9943 Y28.8100 
G01 X-39.8855 Y28.9597 
G01 X-39.7547 Y29.0905 
G01 X-39.6578 Y29.1610 
G01 X-39.5774 Y29.3551 
G01 X-39.5774 Y30.0809 
G01 X-39.8552 Y30.7516 
G01 X-40.3684 Y31.2648 
G01 X-41.0391 Y31.5426 
G01 X-41.7649 Y31.5426 
G01 X-42.4355 Y31.2648 
G01 X-42.9488 Y30.7516 
G01 X-43.2266 Y30.0809 
G01 X-43.2266 Y29.3551 
G01 X-42.9488 Y28.6844 
G01 X-42.4355 Y28.1712 
G01 X-42.0586 Y28.0150 
G01 X-42.0393 Y28.0099 
G01 X-42.0220 Y27.9999 
G01 X-42.0035 Y27.9922 
G01 X-41.9876 Y27.9800 
G01 X-41.9703 Y27.9700 
G01 X-41.9562 Y27.9559 
G01 X-41.9403 Y27.9437 
G01 X-41.9282 Y27.9279 
G01 X-41.9140 Y27.9137 
G01 X-41.9040 Y27.8964 
G01 X-41.8919 Y27.8806 
G01 X-41.8842 Y27.8621 
G01 X-41.8742 Y27.8448 
G01 X-41.8690 Y27.8255 
G01 X-41.8614 Y27.8070 
G01 X-41.8588 Y27.7872 
G01 X-41.8536 Y27.7679 
G01 X-41.8536 Y27.7479 
G01 X-41.8510 Y27.7281 
G01 X-41.8536 Y27.7082 
G01 X-41.8536 Y18.1982 
G01 X-41.7848 Y18.0322 
G01 X-38.3164 Y14.5638 
G01 X-38.3006 Y14.5516 
G01 X-38.2884 Y14.5357 
G01 X-38.2743 Y14.5216 
G01 X-38.2643 Y14.5043 
G01 X-38.2521 Y14.4884 
G01 X-38.2445 Y14.4700 
G01 X-38.2345 Y14.4527 
G01 X-38.2293 Y14.4333 
G01 X-38.2216 Y14.4149 
G01 X-38.2190 Y14.3951 
G01 X-38.2138 Y14.3757 
G01 X-38.2138 Y14.3558 
G01 X-38.2112 Y14.3359 
G01 X-38.2138 Y14.3161 
G01 X-38.2138 Y14.2961 
G01 X-38.2190 Y14.2768 
G01 X-38.2216 Y14.2570 
G01 X-38.2293 Y14.2385 
G01 X-38.2345 Y14.2192 
G01 X-38.2445 Y14.2019 
G01 X-38.4006 Y13.8249 
G01 X-38.4006 Y13.0991 
G01 X-38.1228 Y12.4284 
G01 X-37.6766 Y11.9823 
G01 X-37.6368 Y11.9133 
G01 X-37.6162 Y11.8364 
G01 X-37.6162 Y11.7568 
G01 X-37.6215 Y11.7371 
G01 X-37.6368 Y11.6799 
G01 X-37.6766 Y11.6109 
G01 X-37.7329 Y11.5546 
G01 X-37.8019 Y11.5148 
G01 X-37.8788 Y11.4942 
G01 X-38.0115 Y11.4942 
G01 X-38.4762 Y11.3017 
G01 X-38.8319 Y10.9460 
G01 X-39.0244 Y10.4813 
G01 X-39.0244 Y8.0987  
G01 X-38.8319 Y7.6340  
G01 X-38.4762 Y7.2783  
G01 X-38.0115 Y7.0858  
G01 X-37.5085 Y7.0858  
G01 X-37.0382 Y7.2806  
G01 X-37.0209 Y7.2906  
G01 X-37.0015 Y7.2958  
G01 X-36.9831 Y7.3034  
G01 X-36.9633 Y7.3060  
G01 X-36.9439 Y7.3112  
G01 X-36.9240 Y7.3112  
G01 X-36.9041 Y7.3138  
G01 X-36.8843 Y7.3112  
G01 X-36.8643 Y7.3112  
G01 X-36.8450 Y7.3060  
G01 X-36.8252 Y7.3034  
G01 X-36.8067 Y7.2958  
G01 X-36.7874 Y7.2906  
G01 X-36.7701 Y7.2806  
G01 X-36.7516 Y7.2730  
G01 X-36.7358 Y7.2608  
G01 X-36.7185 Y7.2508  
G01 X-36.7043 Y7.2367  
G01 X-36.6885 Y7.2245  
G01 X-36.6763 Y7.2086  
G01 X-36.0698 Y6.6021  
G01 X-35.9038 Y6.5334  
G01 X-23.1512 Y6.5334  
G01 X-22.9852 Y6.6021  
G01 X-22.7875 Y6.7999  
G01 X-21.9692 Y7.6182  
G01 X-21.9004 Y7.7842  
G01 X-21.9004 Y10.6115 
G01 X-21.9025 Y10.6227 
G01 X-21.9004 Y10.6512 
G01 X-21.9004 Y10.6797 
G01 X-21.8974 Y10.6907 
G01 X-21.8950 Y10.7240 
G01 X-21.8977 Y10.7322 
G01 X-21.8982 Y10.7408 
G01 X-21.9004 Y10.7492 
G01 X-21.9004 Y10.7578 
G01 X-21.9132 Y10.7886 
G01 X-21.9194 Y10.7982 
G01 X-21.9283 Y10.8253 
G01 X-21.9393 Y10.8516 
G01 X-21.9408 Y10.8630 
G01 X-21.9512 Y10.8946 
G01 X-21.9568 Y10.9011 
G01 X-21.9606 Y10.9089 
G01 X-21.9659 Y10.9158 
G01 X-21.9692 Y10.9238 
G01 X-21.9927 Y10.9474 
G01 X-22.0022 Y10.9538 
G01 X-22.0208 Y10.9754 
G01 X-22.0410 Y10.9956 
G01 X-22.0467 Y11.0055 
G01 X-25.7568 Y15.3140 
G01 X-25.7770 Y15.3342 
G01 X-25.7827 Y15.3441 
G01 X-25.7901 Y15.3527 
G01 X-25.8025 Y15.3785 
G01 X-25.8168 Y15.4032 
G01 X-25.8197 Y15.4142 
G01 X-25.8247 Y15.4245 
G01 X-25.8300 Y15.4525 
G01 X-25.8374 Y15.4801 
G01 X-25.8374 Y15.4915 
G01 X-25.8395 Y15.5027 
G01 X-25.8374 Y15.5312 
G01 X-25.8374 Y28.9783 
G01 X-25.8400 Y28.9981 
G01 X-25.8374 Y29.0179 
G01 X-25.8374 Y29.0379 
G01 X-25.8322 Y29.0572 
G01 X-25.8296 Y29.0770 
G01 X-25.8220 Y29.0955 
G01 X-25.8168 Y29.1148 
G01 X-25.8068 Y29.1321 
G01 X-25.7991 Y29.1506 
G01 X-25.7870 Y29.1664 
G01 X-25.7770 Y29.1837 
G01 X-25.7628 Y29.1979 
G01 X-25.7507 Y29.2137 
G01 X-25.7348 Y29.2259 
G01 X-25.7207 Y29.2400 
G01 X-25.7034 Y29.2500 
G01 X-25.6875 Y29.2622 
G01 X-25.6690 Y29.2699 
G01 X-25.6517 Y29.2799 
G01 X-25.6324 Y29.2850 
G01 X-25.2554 Y29.4412 
G01 X-24.7422 Y29.9544 
G01 X-24.4644 Y30.6251 
G01 X-24.4644 Y31.3509 
G01 X-24.7422 Y32.0216 
G01 X-25.2554 Y32.5348 
G01 X-25.9261 Y32.8126 
G01 X-26.6519 Y32.8126 
G01 X-27.3225 Y32.5348 
G01 X-27.4520 Y32.4053 
G01 X-27.5043 Y32.3530 
G01 X-27.5083 Y32.3490 
G01 X-27.5752 Y32.3104 
G01 X-27.6542 Y32.2886 
G01 X-27.7338 Y32.2886 
G01 X-27.7535 Y32.2939 
G01 X-27.8107 Y32.3092 
G01 X-27.8797 Y32.3490 
G01 X-27.9360 Y32.4053 
G01 X-27.9746 Y32.4722 
G01 X-27.9964 Y32.5512 
G01 X-27.9964 Y37.3195 
G01 X-27.9758 Y37.3964 
G01 X-27.9360 Y37.4654 
G01 X-27.8797 Y37.5217 
G01 X-21.9683 Y43.4330 
G01 X-21.9561 Y43.4489 
G01 X-21.9403 Y43.4611 
G01 X-21.9262 Y43.4752 
G01 X-21.9088 Y43.4852 
G01 X-21.8929 Y43.4974 
G01 X-21.8745 Y43.5050 
G01 X-21.8572 Y43.5150 
G01 X-21.8379 Y43.5202 
G01 X-21.8194 Y43.5278 
G01 X-21.7996 Y43.5304 
G01 X-21.7803 Y43.5356 
G01 X-21.7603 Y43.5356 
G01 X-21.7404 Y43.5382 
G01 X-21.7206 Y43.5356 
G01 X-21.7007 Y43.5356 
G01 X-21.6813 Y43.5304 
G01 X-21.2856 Y43.5302 
G01 X-20.9329 Y43.6763 
G01 X-20.6630 Y43.9463 
G01 X-20.5169 Y44.2990 
G01 X-20.5169 Y44.6807 
G01 X-20.6630 Y45.0334 
G01 X-20.9329 Y45.3033 
G01 X-20.9588 Y45.3140 
G01 X-20.9780 Y45.3192 
G01 X-20.9953 Y45.3292 
G01 X-21.0138 Y45.3369 
G01 X-21.0297 Y45.3490 
G01 X-21.0470 Y45.3590 
G01 X-21.0611 Y45.3732 
G01 X-21.0770 Y45.3853 
G01 X-21.0892 Y45.4012 
G01 X-21.1033 Y45.4153 
G01 X-21.1133 Y45.4326 
G01 X-21.1255 Y45.4485 
G01 X-21.1331 Y45.4670 
G01 X-21.1431 Y45.4843 
G01 X-21.1483 Y45.5036 
G01 X-21.1559 Y45.5221 
G01 X-21.1585 Y45.5419 
G01 X-21.1637 Y45.5612 
G01 X-21.1637 Y45.5812 
G01 X-21.1663 Y45.6010 
G01 X-21.1637 Y45.6208 
G01 X-21.1637 Y45.6408 
G01 X-21.1586 Y45.6601 
G01 X-21.1559 Y45.6799 
G01 X-21.1483 Y45.6984 
G01 X-21.1431 Y45.7177 
G01 X-21.1331 Y45.7350 
G01 X-21.1255 Y45.7535 
G01 X-21.1133 Y45.7694 
G01 X-21.1033 Y45.7867 
G01 X-21.0892 Y45.8008 
G01 X-21.0770 Y45.8167 
G01 X-21.0611 Y45.8288 
G01 X-21.0470 Y45.8430 
G01 X-21.0297 Y45.8530 
G01 X-21.0138 Y45.8651 
G01 X-20.9954 Y45.8728 
G01 X-20.9780 Y45.8828 
G01 X-20.9587 Y45.8880 
G01 X-20.9403 Y45.8956 
G01 X-20.9204 Y45.8982 
G01 X-20.9011 Y45.9034 
G01 X-20.8811 Y45.9034 
G01 X-20.8613 Y45.9060 
G01 X-20.8415 Y45.9034 
G01 X-19.5952 Y45.9034 
G01 X-19.4292 Y45.9721 
G01 X-19.4161 Y45.9889 
G01 X-19.4003 Y46.0011 
G01 X-19.3862 Y46.0152 
G01 X-19.3688 Y46.0252 
G01 X-19.3529 Y46.0374 
G01 X-19.3345 Y46.0450 
G01 X-19.3172 Y46.0550 
G01 X-19.2979 Y46.0602 
G01 X-19.2794 Y46.0678 
G01 X-19.2596 Y46.0704 
G01 X-19.2403 Y46.0756 
G01 X-19.2203 Y46.0756 
G01 X-19.2004 Y46.0782 
G01 X-19.1806 Y46.0756 
G01 X-19.1607 Y46.0756 
G01 X-19.1413 Y46.0704 
G01 X-18.7456 Y46.0702 
G01 X-18.5788 Y46.1394 
G01 X-18.5615 Y46.1493 
G01 X-18.5422 Y46.1545 
G01 X-18.5237 Y46.1622 
G01 X-18.5039 Y46.1648 
G01 X-18.4846 Y46.1700 
G01 X-18.4646 Y46.1700 
G01 X-18.4448 Y46.1726 
G01 X-18.4249 Y46.1700 
G01 X-18.4049 Y46.1700 
G01 X-18.3856 Y46.1648 
G01 X-18.3658 Y46.1622 
G01 X-18.3473 Y46.1545 
G01 X-18.3280 Y46.1493 
G01 X-18.3107 Y46.1394 
G01 X-18.2922 Y46.1317 
G01 X-18.2764 Y46.1195 
G01 X-18.2591 Y46.1095 
G01 X-18.2449 Y46.0954 
G01 X-18.2291 Y46.0832 
G01 X-18.2169 Y46.0674 
G01 X-18.2028 Y46.0532 
G01 X-18.1928 Y46.0359 
G01 X-18.1806 Y46.0201 
G01 X-18.1730 Y46.0016 
G01 X-18.1630 Y45.9843 
G01 X-18.1578 Y45.9650 
G01 X-18.1501 Y45.9465 
G01 X-18.1475 Y45.9267 
G01 X-18.1424 Y45.9074 
G01 X-18.1424 Y45.8874 
G01 X-18.1397 Y45.8676 
G01 X-18.1424 Y45.8477 
G01 X-18.1424 Y45.8277 
G01 X-18.1475 Y45.8084 
G01 X-18.1501 Y45.7886 
G01 X-18.1578 Y45.7701 
G01 X-18.1630 Y45.7508 
G01 X-18.1730 Y45.7335 
G01 X-18.1806 Y45.7151 
G01 X-18.1928 Y45.6992 
G01 X-18.2028 Y45.6819 
G01 X-18.2169 Y45.6677 
G01 X-18.2291 Y45.6519 
G01 X-18.2449 Y45.6397 
G01 X-18.5438 Y45.3408 
G01 X-18.6126 Y45.1748 
G01 X-18.6126 Y43.6657 
G01 X-18.6100 Y43.6459 
G01 X-18.6126 Y43.6261 
G01 X-18.6126 Y43.6061 
G01 X-18.6178 Y43.5868 
G01 X-18.6204 Y43.5670 
G01 X-18.6280 Y43.5485 
G01 X-18.6332 Y43.5292 
G01 X-18.6432 Y43.5119 
G01 X-18.6509 Y43.4934 
G01 X-18.6630 Y43.4776 
G01 X-18.6730 Y43.4603 
G01 X-18.6872 Y43.4461 
G01 X-18.6993 Y43.4303 
G01 X-18.7152 Y43.4181 
G01 X-18.7293 Y43.4039 
G01 X-18.7466 Y43.3940 
G01 X-18.7625 Y43.3818 
G01 X-18.7810 Y43.3741 
G01 X-18.7983 Y43.3641 
G01 X-18.8176 Y43.3590 
G01 X-19.1945 Y43.2028 
G01 X-19.7078 Y42.6896 
G01 X-19.9856 Y42.0189 
G01 X-19.9856 Y41.2931 
G01 X-19.7658 Y40.7625 
G01 X-19.7558 Y40.7451 
G01 X-19.7506 Y40.7258 
G01 X-19.7430 Y40.7074 
G01 X-19.7404 Y40.6875 
G01 X-19.7352 Y40.6682 
G01 X-19.7352 Y40.6482 
G01 X-19.7326 Y40.6284 
G01 X-19.7352 Y40.6086 
G01 X-19.7352 Y40.5886 
G01 X-19.7404 Y40.5693 
G01 X-19.7430 Y40.5495 
G01 X-19.7506 Y40.5310 
G01 X-19.7558 Y40.5117 
G01 X-19.7658 Y40.4944 
G01 X-19.7735 Y40.4759 
G01 X-19.7856 Y40.4601 
G01 X-19.7956 Y40.4427 
G01 X-19.8098 Y40.4286 
G01 X-19.8219 Y40.4127 
G01 X-19.8378 Y40.4006 
G01 X-20.3428 Y39.8956 
G01 X-20.6206 Y39.2249 
G01 X-20.6206 Y38.4991 
G01 X-20.3428 Y37.8284 
G01 X-19.8296 Y37.3152 
G01 X-19.1589 Y37.0374 
G01 X-18.4331 Y37.0374 
G01 X-17.7624 Y37.3152 
G01 X-17.2492 Y37.8284 
G01 X-16.9714 Y38.4991 
G01 X-16.9714 Y39.2249 
G01 X-17.1275 Y39.6019 
G01 X-17.1375 Y39.6192 
G01 X-17.1427 Y39.6385 
G01 X-17.1504 Y39.6570 
G01 X-17.1530 Y39.6768 
G01 X-17.1581 Y39.6961 
G01 X-17.1581 Y39.7161 
G01 X-17.1608 Y39.7359 
G01 X-17.1581 Y39.7557 
G01 X-17.1581 Y39.7757 
G01 X-17.1530 Y39.7951 
G01 X-17.1504 Y39.8149 
G01 X-17.1427 Y39.8333 
G01 X-17.1375 Y39.8527 
G01 X-17.1275 Y39.8700 
G01 X-17.1199 Y39.8884 
G01 X-17.1077 Y39.9043 
G01 X-17.0977 Y39.9216 
G01 X-17.0836 Y39.9358 
G01 X-17.0714 Y39.9516 
G01 X-17.0556 Y39.9638 
G01 X-16.3956 Y40.6238 
G01 X-16.2541 Y40.7652 
G01 X-16.1854 Y40.9312 
G01 X-16.1854 Y57.7478 
G01 X-16.2541 Y57.9138 
G01 X-21.8278 Y63.4874 
G01 X-21.9692 Y63.6288 
G01 X-22.1352 Y63.6976 
G01 X-32.2208 Y63.6976 
G01 X-32.3868 Y63.6288 
G01 X-38.0874 Y57.9282 
G01 X-38.2288 Y57.7868 
G01 X-38.2976 Y57.6208 
G01 X-38.2976 Y53.1232 
G01 X-38.2288 Y52.9572 
G01 X-37.7365 Y52.4649 
G01 X-37.6967 Y52.3959 
G01 X-37.6761 Y52.3190 
G01 X-37.6761 Y51.9190 
G01 X-37.5300 Y51.5663 
G01 X-37.2601 Y51.2963 
G01 X-36.9074 Y51.1502 
G01 X-36.5256 Y51.1502 
G01 X-36.1729 Y51.2963 
G01 X-35.9030 Y51.5663 
G01 X-35.7569 Y51.9190 
G01 X-35.7569 Y52.3007 
G01 X-35.9030 Y52.6534 
G01 X-36.1729 Y52.9233 
G01 X-36.5256 Y53.0694 
G01 X-36.9389 Y53.0694 
G01 X-36.9783 Y53.0694 
G01 X-37.0181 Y53.0801 
G01 X-37.0552 Y53.0900 
G01 X-37.0816 Y53.1053 
G01 X-37.1242 Y53.1298 
G01 X-37.1402 Y53.1459 
G01 X-37.1601 Y53.1657 
G01 X-37.1965 Y53.2021 
G01 X-37.2147 Y53.2336 
G01 X-37.2363 Y53.2711 
G01 X-37.2440 Y53.2997 
G01 X-37.2569 Y53.3480 
G01 X-37.2569 Y53.3874 
G01 X-37.2569 Y53.4276 
G01 X-37.2464 Y53.4669 
G01 X-37.2363 Y53.5045 
G01 X-37.2214 Y53.5304 
G01 X-37.1965 Y53.5735 
G01 X-37.1781 Y53.5920 
G01 X-37.1402 Y53.6298 
G01 X-37.1088 Y53.6480 
G01 X-37.0713 Y53.6696 
G01 X-37.0426 Y53.6773 
G01 X-36.9944 Y53.6902 
G01 X-36.9550 Y53.6902 
G01 X-36.9147 Y53.6902 
G01 X-36.5256 Y53.6902 
G01 X-36.1729 Y53.8363 
G01 X-35.9030 Y54.1063 
G01 X-35.7569 Y54.4590 
G01 X-35.7569 Y54.8750 
G01 X-35.7363 Y54.9519 
G01 X-35.6965 Y55.0209 
G01 X-35.6402 Y55.0772 
G01 X-35.5712 Y55.1170 
G01 X-35.4943 Y55.1376 
G01 X-35.4147 Y55.1376 
G01 X-35.3378 Y55.1170 
G01 X-35.2688 Y55.0772 
G01 X-35.2125 Y55.0209 
G01 X-28.3228 Y48.1311 
G01 X-28.1568 Y48.0624 
G01 X-20.0309 Y48.0624 
G01 X-19.9915 Y48.0624 
G01 X-19.9513 Y48.0624 
G01 X-19.8947 Y48.0472 
G01 X-19.8744 Y48.0418 
G01 X-19.8322 Y48.0175 
G01 X-19.8054 Y48.0020 
G01 X-19.7775 Y47.9740 
G01 X-19.7491 Y47.9457 
G01 X-19.7318 Y47.9157 
G01 X-19.7093 Y47.8767 
G01 X-19.7003 Y47.8431 
G01 X-19.6887 Y47.7998 
G01 X-19.6887 Y47.7604 
G01 X-19.6887 Y47.7202 
G01 X-19.7038 Y47.6636 
G01 X-19.7093 Y47.6433 
G01 X-19.7336 Y47.6012 
G01 X-19.7491 Y47.5743 
G01 X-19.8961 Y47.2207 
G01 X-19.8961 Y47.0692 
G01 X-19.9167 Y46.9923 
G01 X-19.9565 Y46.9233 
G01 X-20.0128 Y46.8670 
G01 X-20.0818 Y46.8272 
G01 X-20.1587 Y46.8066 
G01 X-31.7315 Y46.8066 
G01 X-31.8084 Y46.8272 
G01 X-31.8774 Y46.8670 
G01 X-31.9337 Y46.9233 
G01 X-33.5262 Y48.5158 
G01 X-33.6922 Y48.5846 
G01 X-35.9227 Y48.5846 
G01 X-35.9621 Y48.5846 
G01 X-36.0023 Y48.5846 
G01 X-36.0793 Y48.6052 
G01 X-36.1240 Y48.6310 
G01 X-36.1482 Y48.6450 
G01 X-36.2036 Y48.7005 
G01 X-36.2362 Y48.7562 
G01 X-36.2443 Y48.7703 
G01 X-36.2592 Y48.8259 
G01 X-36.2649 Y48.8472 
G01 X-36.2649 Y48.8866 
G01 X-36.2649 Y48.8969 
G01 X-36.3326 Y48.8517 
G01 X-36.4801 Y48.7906 
G01 X-36.6367 Y48.7594 
G01 X-36.7963 Y48.7594 
G01 X-36.9529 Y48.7906 
G01 X-37.1004 Y48.8517 
G01 X-37.1218 Y48.8660 
G01 X-37.1194 Y48.8511 
G01 X-37.1218 Y48.8261 
G01 X-37.1218 Y48.8009 
G01 X-37.1256 Y48.7866 
G01 X-37.1271 Y48.7719 
G01 X-37.1359 Y48.7483 
G01 X-37.1424 Y48.7240 
G01 X-37.1498 Y48.7112 
