(.../pcb-gcode-3.6.0.4/pcb-gcode.ulp)
(Copyright 2005 - 2012 by John Johnson)
(See readme.txt for licensing terms.)
(This file generated from the board:)
(.../Tube Prototypes/IV-18_test.brd)
(Current profile is .../pcb-gcode-3.6.0.4/profiles/mach.pp  )
(This file generated 19/08/2013 6:14:37 PM)
(Settings from pcb-machine.h)
(  Tool Size)
(0.1500  )
(Z Axis Settings)
(  High     Up        Down     Drill)
(15.0000 	2.0000  	-0.1000 	-1.5000 )
(spindle on time = 1.0000)
(milling depth = -0.3000)
(text depth = -0.1500)
(tool change at 0.0000  0.0000  20.0000 )
(feed rate xy = F250   )
(feed rate z  = F100   )
(Settings from pcb-defaults.h)
(isolate min = 0.0254)
(isolate max = 0.1000)
(isolate step = 0.1000)
(Generated top outlines, bottom outlines, bottom drill, )
(Unit of measure: mm)
( Tool|       Size       |  Min Sub |  Max Sub |   Count )
( T01 | 0.600mm 0.0236in | 0.0000in | 0.0000in |       0 )
( T02 | 0.800mm 0.0315in | 0.0000in | 0.0000in |       0 )
( T03 | 0.813mm 0.0320in | 0.0000in | 0.0000in |       0 )
( T04 | 0.840mm 0.0331in | 0.0000in | 0.0000in |       0 )
( T05 | 1.118mm 0.0440in | 0.0000in | 0.0000in |       0 )
(Metric Mode)
G21
(Absolute Coordinates)
G90
M05
G00 Z20.0000 
G00 X0.0000  Y0.0000  
M06 T01  ; 0.6000  
G01 Z0.0000  F100   
M06 T01  ; 0.6000  
G00 Z2.0000  
M03
G04 P1.000000
G82 X-31.6365 Y44.4898 Z-1.5000 F100   R2.0000  P1.000000
G82 X-34.1765 Y44.4898 
G82 X-34.1765 Y59.7298 
G82 X-36.7165 Y47.0298 
G82 X-36.7165 Y49.5698 
G82 X-36.7165 Y52.1098 
G82 X-36.7165 Y54.6498 
G82 X-36.7165 Y57.1898 
G82 X-18.9365 Y47.0298 
G82 X-18.9365 Y49.5698 
G82 X-18.9365 Y52.1098 
G82 X-18.9365 Y54.6498 
G82 X-18.9365 Y57.1898 
G82 X-21.4765 Y44.4898 
G82 X-21.4765 Y59.7298 
G82 X-24.0165 Y44.4898 
G82 X-24.0165 Y59.7298 
G82 X-26.5565 Y44.4898 
G82 X-29.0965 Y44.4898 
M05
G00 Z20.0000 
M06 T02  ; 0.8000  
G01 Z0.0000  F100   
M06 T02  ; 0.8000  
G00 Z2.0000  
M03
G04 P1.000000
G82 X-8.9900 Y44.4500 Z-1.5000 F100   R2.0000  P1.000000
G82 X-8.9900 Y54.6100 
M05
G00 Z20.0000 
M06 T03  ; 0.8128  
G01 Z0.0000  F100   
M06 T03  ; 0.8128  
G00 Z2.0000  
M03
G04 P1.000000
G82 X-8.5740 Y23.0900 Z-1.5000 F100   R2.0000  P1.000000
G82 X-8.7340 Y29.7250 
G82 X-10.6060 Y23.0900 
G82 X-10.7660 Y29.7250 
M05
G00 Z20.0000 
M06 T04  ; 0.8400  
G01 Z0.0000  F100   
M06 T04  ; 0.8400  
G00 Z2.0000  
M03
G04 P1.000000
G82 X-32.7660 Y18.5420 Z-1.5000 F100   R2.0000  P1.000000
G82 X-33.5280 Y14.8590 
G82 X-35.8140 Y20.7010 
G82 X-37.8460 Y16.1290 
G82 X-38.7350 Y35.8140 
G82 X-39.1160 Y42.4180 
G82 X-40.1320 Y29.0830 
G82 X-41.0210 Y23.1140 
G82 X-41.1480 Y39.2430 
G82 X-42.2910 Y9.2710  
G82 X-43.1800 Y35.1790 
G82 X-17.0180 Y36.0680 
G82 X-17.0180 Y44.0690 
G82 X-22.4790 Y20.1930 
G82 X-23.1140 Y41.0210 
G82 X-26.2890 Y48.0060 
G82 X-27.1780 Y40.1320 
G82 X-28.7020 Y58.2930 
G82 X-30.2260 Y21.2090 
M05
G00 Z20.0000 
M06 T05  ; 1.1176  
G01 Z0.0000  F100   
M06 T05  ; 1.1176  
G00 Z2.0000  
M03
G04 P1.000000
G82 X-32.6800 Y9.2900  Z-1.5000 F100   R2.0000  P1.000000
G82 X-35.2200 Y9.2900  
G82 X-37.7600 Y9.2900  
G82 X-8.1700 Y9.2900  
G82 X-10.7100 Y9.2900  
G82 X-13.2500 Y9.2900  
G82 X-25.0600 Y9.2900  
G82 X-27.6000 Y9.2900  
G82 X-30.1400 Y9.2900  
T01 
G00 Z15.0000 
M05
M02
