(.../pcb-gcode-3.6.0.4/pcb-gcode.ulp)
(Copyright 2005 - 2012 by John Johnson)
(See readme.txt for licensing terms.)
(This file generated from the board:)
(.../Tube Prototypes/IV-18_test.brd)
(Current profile is .../pcb-gcode-3.6.0.4/profiles/mach.pp  )
(This file generated 19/08/2013 6:14:36 PM)
(Settings from pcb-machine.h)
(  Tool Size)
(0.1500  )
(Z Axis Settings)
(  High     Up        Down     Drill)
(15.0000 	2.0000  	-0.1000 	-1.5000 )
(spindle on time = 1.0000)
(milling depth = -0.3000)
(text depth = -0.1500)
(tool change at 0.0000  0.0000  20.0000 )
(feed rate xy = F250   )
(feed rate z  = F100   )
(Settings from pcb-defaults.h)
(isolate min = 0.0254)
(isolate max = 0.1000)
(isolate step = 0.1000)
(Generated top outlines, bottom outlines, bottom drill, )
(Unit of measure: mm)
(Metric Mode)
G21
(Absolute Coordinates)
G90
G00 X0.0000  Y0.0000  
M03
G04 P1.000000
G00 Z2.0000  
G00 X-8.4931 Y53.4104 
G01 Z-0.1000 F100   
G01 X-7.7904 Y54.1131 F250   
G01 X-7.7904 Y55.1069 
G01 X-8.4931 Y55.8096 
G01 X-9.4869 Y55.8096 
G01 X-10.1896 Y55.1069 
G01 X-10.1896 Y54.1131 
G01 X-9.4869 Y53.4104 
G01 X-8.4931 Y53.4104 
G00 Z2.0000  
G00 X-9.8904 Y54.2370 
G01 Z-0.1000 F100   
G01 X-9.8904 Y54.9830 F250   
G01 X-9.3630 Y55.5104 
G01 X-8.6170 Y55.5104 
G01 X-8.0896 Y54.9830 
G01 X-8.0896 Y54.2370 
G01 X-8.6170 Y53.7096 
G01 X-9.3630 Y53.7096 
G01 X-9.8904 Y54.2370 
G00 Z2.0000  
G00 X-36.3682 Y50.2215 
G01 Z-0.1000 F100   
G01 X-36.2477 Y50.1411 F250   
G01 X-36.1453 Y50.0386 
G01 X-36.0648 Y49.9182 
G01 X-36.0463 Y49.8735 
G01 X-35.9861 Y49.8735 
G01 X-36.0420 Y49.9832 
G01 X-36.1150 Y50.0836 
G01 X-36.2028 Y50.1714 
G01 X-36.3032 Y50.2443 
G01 X-36.4129 Y50.3002 
G01 X-36.4129 Y50.2401 
G01 X-36.3682 Y50.2215 
G00 Z2.0000  
G00 X-34.3823 Y58.6952 
G01 Z-0.1000 F100   
G01 X-33.9707 Y58.6952 F250   
G01 X-33.5905 Y58.8527 
G01 X-33.2994 Y59.1438 
G01 X-33.1419 Y59.5240 
G01 X-33.1419 Y59.9356 
G01 X-33.2994 Y60.3159 
G01 X-33.5905 Y60.6069 
G01 X-33.9707 Y60.7644 
G01 X-34.3823 Y60.7644 
G01 X-34.6779 Y60.6420 
G01 X-34.7107 Y60.5628 
G01 X-34.7818 Y60.4917 
G01 X-34.8747 Y60.4532 
G01 X-34.9163 Y60.4532 
G01 X-35.0536 Y60.3159 
G01 X-35.2111 Y59.9356 
G01 X-35.2111 Y59.5240 
G01 X-35.0536 Y59.1438 
G01 X-34.7626 Y58.8527 
G01 X-34.3823 Y58.6952 
G00 Z2.0000  
G00 X-34.9119 Y59.6574 
G01 Z-0.1000 F100   
G01 X-34.9119 Y59.8023 F250   
G01 X-34.8836 Y59.9444 
G01 X-34.8282 Y60.0782 
G01 X-34.7477 Y60.1986 
G01 X-34.6453 Y60.3011 
G01 X-34.5249 Y60.3815 
G01 X-34.3910 Y60.4370 
G01 X-34.2489 Y60.4652 
G01 X-34.1041 Y60.4652 
G01 X-33.9620 Y60.4370 
G01 X-33.8282 Y60.3815 
G01 X-33.7077 Y60.3011 
G01 X-33.6053 Y60.1986 
G01 X-33.5248 Y60.0782 
G01 X-33.4694 Y59.9444 
G01 X-33.4411 Y59.8023 
G01 X-33.4411 Y59.6574 
G01 X-33.4694 Y59.5153 
G01 X-33.5248 Y59.3815 
G01 X-33.6053 Y59.2611 
G01 X-33.7077 Y59.1586 
G01 X-33.8282 Y59.0781 
G01 X-33.9620 Y59.0227 
G01 X-34.1041 Y58.9944 
G01 X-34.2489 Y58.9944 
G01 X-34.3910 Y59.0227 
G01 X-34.5249 Y59.0781 
G01 X-34.6453 Y59.1586 
G01 X-34.7477 Y59.2611 
G01 X-34.8282 Y59.3815 
G01 X-34.8836 Y59.5153 
G01 X-34.9119 Y59.6574 
G00 Z2.0000  
G00 X-37.3682 Y49.9182 
G01 Z-0.1000 F100   
G01 X-37.2877 Y50.0386 F250   
G01 X-37.1853 Y50.1411 
G01 X-37.0648 Y50.2215 
G01 X-37.0201 Y50.2401 
G01 X-37.0201 Y50.3002 
G01 X-37.1298 Y50.2443 
G01 X-37.2303 Y50.1714 
G01 X-37.2677 Y50.1339 
G01 X-37.2962 Y50.0972 
G01 X-37.3152 Y50.0864 
G01 X-37.3180 Y50.0836 
G01 X-37.3910 Y49.9832 
G01 X-37.4469 Y49.8735 
G01 X-37.3867 Y49.8735 
G01 X-37.3682 Y49.9182 
G00 Z2.0000  
G00 X-7.1298 Y8.2683  
G01 Z-0.1000 F100   
G01 X-7.1554 Y8.1066  F250   
G01 X-7.2060 Y7.9509  
G01 X-7.2803 Y7.8050  
G01 X-7.3766 Y7.6726  
G01 X-7.4924 Y7.5568  
G01 X-7.6248 Y7.4605  
G01 X-7.7707 Y7.3862  
G01 X-7.7902 Y7.3799  
G01 X-7.7902 Y7.3239  
G01 X-7.7503 Y7.3369  
G01 X-7.5969 Y7.4150  
G01 X-7.4577 Y7.5162  
G01 X-7.3360 Y7.6379  
G01 X-7.2348 Y7.7771  
G01 X-7.1567 Y7.9305  
G01 X-7.1035 Y8.0942  
G01 X-7.0766 Y8.2641  
G01 X-7.0766 Y8.9102  
G01 X-7.1298 Y8.9102  
G01 X-7.1298 Y8.2683  
G00 Z2.0000  
G00 X-24.0198 Y8.2683  
G01 Z-0.1000 F100   
G01 X-24.0454 Y8.1066  F250   
G01 X-24.0960 Y7.9509  
G01 X-24.1703 Y7.8050  
G01 X-24.2666 Y7.6726  
G01 X-24.3824 Y7.5568  
G01 X-24.5148 Y7.4605  
G01 X-24.6607 Y7.3862  
G01 X-24.6802 Y7.3799  
G01 X-24.6802 Y7.3239  
G01 X-24.6403 Y7.3369  
G01 X-24.4869 Y7.4150  
G01 X-24.3530 Y7.5124  
G01 X-24.3416 Y7.5237  
G01 X-24.3208 Y7.5357  
G01 X-24.3013 Y7.5499  
G01 X-24.2863 Y7.5556  
G01 X-24.2731 Y7.5633  
G01 X-24.2654 Y7.5765  
G01 X-24.2597 Y7.5915  
G01 X-24.2455 Y7.6110  
G01 X-24.2335 Y7.6318  
G01 X-24.2222 Y7.6432  
G01 X-24.1248 Y7.7771  
G01 X-24.0467 Y7.9305  
G01 X-23.9935 Y8.0942  
G01 X-23.9666 Y8.2641  
G01 X-23.9666 Y8.9102  
G01 X-24.0198 Y8.9102  
G01 X-24.0198 Y8.2683  
G00 Z2.0000  
G00 X-24.0198 Y10.3117 
G01 Z-0.1000 F100   
G01 X-24.0198 Y9.6698  F250   
G01 X-23.9666 Y9.6698  
G01 X-23.9666 Y10.3158 
G01 X-23.9935 Y10.4858 
G01 X-24.0467 Y10.6495 
G01 X-24.1248 Y10.8029 
G01 X-24.2260 Y10.9421 
G01 X-24.3477 Y11.0638 
G01 X-24.4869 Y11.1650 
G01 X-24.6403 Y11.2431 
G01 X-24.6802 Y11.2561 
G01 X-24.6802 Y11.2001 
G01 X-24.6607 Y11.1938 
G01 X-24.5148 Y11.1195 
G01 X-24.3824 Y11.0232 
G01 X-24.2666 Y10.9074 
G01 X-24.1703 Y10.7750 
G01 X-24.0960 Y10.6291 
G01 X-24.0454 Y10.4734 
G01 X-24.0198 Y10.3117 
G00 Z2.0000  
G00 X-37.3026 Y51.2327 
G01 Z-0.1000 F100   
G01 X-36.9223 Y51.0752 F250   
G01 X-36.5107 Y51.0752 
G01 X-36.1305 Y51.2327 
G01 X-35.8394 Y51.5238 
G01 X-35.6819 Y51.9040 
G01 X-35.6819 Y52.3156 
G01 X-35.8394 Y52.6959 
G01 X-36.1305 Y52.9869 
G01 X-36.3649 Y53.0841 
G01 X-36.4388 Y53.1147 
G01 X-36.4934 Y53.1565 
G01 X-36.5022 Y53.1633 
G01 X-36.5509 Y53.2267 
G01 X-36.5815 Y53.3006 
G01 X-36.5904 Y53.3685 
G01 X-36.5919 Y53.3798 
G01 X-36.5815 Y53.4591 
G01 X-36.5509 Y53.5330 
G01 X-36.5090 Y53.5875 
G01 X-36.5022 Y53.5964 
G01 X-36.4388 Y53.6450 
G01 X-36.1304 Y53.7728 
G01 X-35.8394 Y54.0638 
G01 X-35.6819 Y54.4440 
G01 X-35.6819 Y54.8556 
G01 X-35.8394 Y55.2359 
G01 X-36.1304 Y55.5269 
G01 X-36.4388 Y55.6546 
G01 X-36.5022 Y55.7033 
G01 X-36.5082 Y55.7112 
G01 X-36.5509 Y55.7667 
G01 X-36.5815 Y55.8406 
G01 X-36.5919 Y55.9198 
G01 X-36.5906 Y55.9294 
G01 X-36.5815 Y55.9991 
G01 X-36.5509 Y56.0729 
G01 X-36.5022 Y56.1364 
G01 X-36.4944 Y56.1424 
G01 X-36.4388 Y56.1850 
G01 X-36.3649 Y56.2156 
G01 X-36.1305 Y56.3127 
G01 X-35.8394 Y56.6038 
G01 X-35.6819 Y56.9840 
G01 X-35.6819 Y57.3956 
G01 X-35.8394 Y57.7759 
G01 X-36.1305 Y58.0669 
G01 X-36.5107 Y58.2244 
G01 X-36.9223 Y58.2244 
G01 X-37.3026 Y58.0669 
G01 X-37.5936 Y57.7759 
G01 X-37.7511 Y57.3956 
G01 X-37.7511 Y56.9840 
G01 X-37.5936 Y56.6038 
G01 X-37.3026 Y56.3127 
G01 X-37.0681 Y56.2156 
G01 X-36.9942 Y56.1850 
G01 X-36.9397 Y56.1432 
G01 X-36.9308 Y56.1364 
G01 X-36.8821 Y56.0729 
G01 X-36.8515 Y55.9991 
G01 X-36.8426 Y55.9312 
G01 X-36.8411 Y55.9198 
G01 X-36.8516 Y55.8406 
G01 X-36.8821 Y55.7667 
G01 X-36.9240 Y55.7122 
G01 X-36.9308 Y55.7033 
G01 X-36.9942 Y55.6546 
G01 X-37.3026 Y55.5269 
G01 X-37.5936 Y55.2359 
G01 X-37.7511 Y54.8556 
G01 X-37.7511 Y54.4440 
G01 X-37.5936 Y54.0638 
G01 X-37.3026 Y53.7728 
G01 X-36.9942 Y53.6450 
G01 X-36.9308 Y53.5964 
G01 X-36.9248 Y53.5885 
G01 X-36.8821 Y53.5330 
G01 X-36.8516 Y53.4591 
G01 X-36.8411 Y53.3798 
G01 X-36.8424 Y53.3703 
G01 X-36.8515 Y53.3006 
G01 X-36.8821 Y53.2267 
G01 X-36.9308 Y53.1633 
G01 X-36.9387 Y53.1573 
G01 X-36.9942 Y53.1147 
G01 X-37.0681 Y53.0841 
G01 X-37.3026 Y52.9869 
G01 X-37.5936 Y52.6959 
G01 X-37.7511 Y52.3156 
G01 X-37.7511 Y51.9040 
G01 X-37.5936 Y51.5238 
G01 X-37.3026 Y51.2327 
G00 Z2.0000  
G00 X-37.4519 Y52.0374 
G01 Z-0.1000 F100   
G01 X-37.4519 Y52.1823 F250   
G01 X-37.4236 Y52.3244 
G01 X-37.3682 Y52.4582 
G01 X-37.2877 Y52.5786 
G01 X-37.1853 Y52.6811 
G01 X-37.0648 Y52.7615 
G01 X-36.9310 Y52.8170 
G01 X-36.7889 Y52.8452 
G01 X-36.6441 Y52.8452 
G01 X-36.5020 Y52.8170 
G01 X-36.3682 Y52.7615 
G01 X-36.2477 Y52.6811 
G01 X-36.1453 Y52.5786 
G01 X-36.0648 Y52.4582 
G01 X-36.0094 Y52.3244 
G01 X-35.9811 Y52.1823 
G01 X-35.9811 Y52.0374 
G01 X-36.0094 Y51.8953 
G01 X-36.0648 Y51.7615 
G01 X-36.1453 Y51.6411 
G01 X-36.2477 Y51.5386 
G01 X-36.3682 Y51.4581 
G01 X-36.5020 Y51.4027 
G01 X-36.6441 Y51.3744 
G01 X-36.7889 Y51.3744 
G01 X-36.9310 Y51.4027 
G01 X-37.0648 Y51.4581 
G01 X-37.1853 Y51.5386 
G01 X-37.2877 Y51.6411 
G01 X-37.3682 Y51.7615 
G01 X-37.4236 Y51.8953 
G01 X-37.4519 Y52.0374 
G00 Z2.0000  
G00 X-37.4519 Y57.1174 
G01 Z-0.1000 F100   
G01 X-37.4519 Y57.2623 F250   
G01 X-37.4236 Y57.4044 
G01 X-37.3682 Y57.5382 
G01 X-37.2877 Y57.6586 
G01 X-37.1853 Y57.7611 
G01 X-37.0648 Y57.8415 
G01 X-36.9310 Y57.8970 
G01 X-36.7889 Y57.9252 
G01 X-36.6441 Y57.9252 
G01 X-36.5020 Y57.8970 
G01 X-36.3682 Y57.8415 
G01 X-36.2477 Y57.7611 
G01 X-36.1453 Y57.6586 
G01 X-36.0648 Y57.5382 
G01 X-36.0094 Y57.4044 
G01 X-35.9811 Y57.2623 
G01 X-35.9811 Y57.1174 
G01 X-36.0094 Y56.9753 
G01 X-36.0648 Y56.8415 
G01 X-36.1453 Y56.7211 
G01 X-36.2477 Y56.6186 
G01 X-36.3682 Y56.5381 
G01 X-36.5020 Y56.4827 
G01 X-36.6441 Y56.4544 
G01 X-36.7889 Y56.4544 
G01 X-36.9310 Y56.4827 
G01 X-37.0648 Y56.5381 
G01 X-37.1853 Y56.6186 
G01 X-37.2877 Y56.7211 
G01 X-37.3682 Y56.8415 
G01 X-37.4236 Y56.9753 
G01 X-37.4519 Y57.1174 
G00 Z2.0000  
G00 X-37.4519 Y54.5774 
G01 Z-0.1000 F100   
G01 X-37.4519 Y54.7223 F250   
G01 X-37.4236 Y54.8644 
G01 X-37.3682 Y54.9982 
G01 X-37.2877 Y55.1186 
G01 X-37.1853 Y55.2211 
G01 X-37.0648 Y55.3015 
G01 X-36.9310 Y55.3570 
G01 X-36.7889 Y55.3852 
G01 X-36.6441 Y55.3852 
G01 X-36.5020 Y55.3570 
G01 X-36.3682 Y55.3015 
G01 X-36.2477 Y55.2211 
G01 X-36.1453 Y55.1186 
G01 X-36.0648 Y54.9982 
G01 X-36.0094 Y54.8644 
G01 X-35.9811 Y54.7223 
G01 X-35.9811 Y54.5774 
G01 X-36.0094 Y54.4353 
G01 X-36.0648 Y54.3015 
G01 X-36.1453 Y54.1811 
G01 X-36.2477 Y54.0786 
G01 X-36.3682 Y53.9981 
G01 X-36.5020 Y53.9427 
G01 X-36.6441 Y53.9144 
G01 X-36.7889 Y53.9144 
G01 X-36.9310 Y53.9427 
G01 X-37.0648 Y53.9981 
G01 X-37.1853 Y54.0786 
G01 X-37.2877 Y54.1811 
G01 X-37.3682 Y54.3015 
G01 X-37.4236 Y54.4353 
G01 X-37.4519 Y54.5774 
G00 Z2.0000  
G00 X-8.5693 Y7.3862  
G01 Z-0.1000 F100   
G01 X-8.7152 Y7.4605  F250   
G01 X-8.8476 Y7.5568  
G01 X-8.9634 Y7.6726  
G01 X-9.0597 Y7.8050  
G01 X-9.1340 Y7.9509  
G01 X-9.1846 Y8.1066  
G01 X-9.2102 Y8.2683  
G01 X-9.2102 Y10.3117 
G01 X-9.1846 Y10.4734 
G01 X-9.1340 Y10.6291 
G01 X-9.0597 Y10.7750 
G01 X-8.9634 Y10.9074 
G01 X-8.8476 Y11.0232 
G01 X-8.7152 Y11.1195 
G01 X-8.5693 Y11.1938 
G01 X-8.5498 Y11.2001 
G01 X-8.5498 Y11.2561 
G01 X-8.5897 Y11.2431 
G01 X-8.7431 Y11.1650 
G01 X-8.8823 Y11.0638 
G01 X-9.0040 Y10.9421 
G01 X-9.0153 Y10.9265 
G01 X-9.0169 Y10.9227 
G01 X-9.0388 Y10.8943 
G01 X-9.0600 Y10.8651 
G01 X-9.0631 Y10.8625 
G01 X-9.0656 Y10.8593 
G01 X-9.0941 Y10.8374 
G01 X-9.1221 Y10.8148 
G01 X-9.1258 Y10.8131 
G01 X-9.1290 Y10.8107 
G01 X-9.1622 Y10.7969 
G01 X-9.1951 Y10.7823 
G01 X-9.1991 Y10.7816 
G01 X-9.2028 Y10.7801 
G01 X-9.2385 Y10.7754 
G01 X-9.2741 Y10.7697 
G01 X-9.2781 Y10.7702 
G01 X-9.2821 Y10.7696 
G01 X-9.3177 Y10.7743 
G01 X-9.3536 Y10.7781 
G01 X-9.3573 Y10.7796 
G01 X-9.3613 Y10.7801 
G01 X-9.3945 Y10.7938 
G01 X-9.4282 Y10.8068 
G01 X-9.4315 Y10.8091 
G01 X-9.4352 Y10.8107 
G01 X-9.4637 Y10.8325 
G01 X-9.4929 Y10.8537 
G01 X-9.4954 Y10.8569 
G01 X-9.4986 Y10.8593 
G01 X-9.5205 Y10.8879 
G01 X-9.5432 Y10.9159 
G01 X-9.5448 Y10.9196 
G01 X-9.5473 Y10.9228 
G01 X-9.5610 Y10.9560 
G01 X-9.5757 Y10.9889 
G01 X-9.9283 Y11.3423 
G01 X-9.9683 Y11.4116 
G01 X-9.9890 Y11.4888 
G01 X-9.9890 Y22.1221 
G01 X-9.9683 Y22.1994 
G01 X-9.9283 Y22.2686 
G01 X-9.8718 Y22.3251 
G01 X-9.7115 Y22.4855 
G01 X-9.7030 Y22.5001 
G01 X-9.6953 Y22.5187 
G01 X-9.6831 Y22.5346 
G01 X-9.6730 Y22.5520 
G01 X-9.6589 Y22.5662 
G01 X-9.6466 Y22.5821 
G01 X-9.6307 Y22.5943 
G01 X-9.6165 Y22.6085 
G01 X-9.5991 Y22.6186 
G01 X-9.5832 Y22.6308 
G01 X-9.5647 Y22.6385 
G01 X-9.5473 Y22.6485 
G01 X-9.5279 Y22.6537 
G01 X-9.5094 Y22.6614 
G01 X-9.4895 Y22.6640 
G01 X-9.4701 Y22.6692 
G01 X-9.4500 Y22.6692 
G01 X-9.4301 Y22.6718 
G01 X-9.4102 Y22.6692 
G01 X-9.3901 Y22.6692 
G01 X-9.3708 Y22.6640 
G01 X-9.3509 Y22.6614 
G01 X-9.3323 Y22.6537 
G01 X-9.3129 Y22.6485 
G01 X-9.2956 Y22.6385 
G01 X-9.2770 Y22.6308 
G01 X-9.2611 Y22.6186 
G01 X-9.2437 Y22.6085 
G01 X-9.2295 Y22.5943 
G01 X-9.2136 Y22.5821 
G01 X-9.2014 Y22.5662 
G01 X-8.9112 Y22.2760 
G01 X-8.8776 Y22.2760 
G01 X-8.8776 Y22.3292 
G01 X-8.8891 Y22.3292 
G01 X-9.3348 Y22.7749 
G01 X-9.3348 Y23.4051 
G01 X-8.8891 Y23.8508 
G01 X-8.8776 Y23.8508 
G01 X-8.8776 Y23.9040 
G01 X-8.9112 Y23.9040 
G01 X-9.2014 Y23.6138 
G01 X-9.2136 Y23.5979 
G01 X-9.2295 Y23.5857 
G01 X-9.2437 Y23.5715 
G01 X-9.2611 Y23.5614 
G01 X-9.2770 Y23.5492 
G01 X-9.2956 Y23.5415 
G01 X-9.3129 Y23.5315 
G01 X-9.3323 Y23.5263 
G01 X-9.3509 Y23.5186 
G01 X-9.3708 Y23.5160 
G01 X-9.3901 Y23.5108 
G01 X-9.4102 Y23.5108 
G01 X-9.4301 Y23.5082 
G01 X-9.4500 Y23.5108 
G01 X-9.4701 Y23.5108 
G01 X-9.4895 Y23.5160 
G01 X-9.5094 Y23.5186 
G01 X-9.5279 Y23.5263 
G01 X-9.5473 Y23.5315 
G01 X-9.5647 Y23.5415 
G01 X-9.5832 Y23.5492 
G01 X-9.5991 Y23.5614 
G01 X-9.6165 Y23.5715 
G01 X-9.6307 Y23.5857 
G01 X-9.6466 Y23.5979 
G01 X-9.6589 Y23.6138 
G01 X-9.6730 Y23.6280 
G01 X-9.6831 Y23.6454 
G01 X-9.6953 Y23.6613 
G01 X-9.7030 Y23.6799 
G01 X-9.7115 Y23.6945 
G01 X-10.0056 Y23.9886 
G01 X-10.3951 Y24.1500 
G01 X-10.8168 Y24.1500 
G01 X-11.2064 Y23.9886 
G01 X-11.5046 Y23.6904 
G01 X-11.6660 Y23.3008 
G01 X-11.6660 Y22.8791 
G01 X-11.5046 Y22.4896 
G01 X-11.1537 Y22.1386 
G01 X-11.1137 Y22.0694 
G01 X-11.0930 Y21.9921 
G01 X-11.0930 Y11.7437 
G01 X-11.0904 Y11.7238 
G01 X-11.0930 Y11.7039 
G01 X-11.0930 Y11.6838 
G01 X-11.0982 Y11.6644 
G01 X-11.1008 Y11.6445 
G01 X-11.1085 Y11.6260 
G01 X-11.1137 Y11.6066 
G01 X-11.1237 Y11.5892 
G01 X-11.1314 Y11.5707 
G01 X-11.1436 Y11.5547 
G01 X-11.1537 Y11.5374 
G01 X-11.1678 Y11.5232 
G01 X-11.1801 Y11.5072 
G01 X-11.1960 Y11.4950 
G01 X-11.2102 Y11.4808 
G01 X-11.2276 Y11.4708 
G01 X-11.2435 Y11.4586 
G01 X-11.2620 Y11.4509 
G01 X-11.2794 Y11.4409 
G01 X-11.2988 Y11.4357 
G01 X-11.4687 Y11.3653 
G01 X-11.7371 Y11.0969 
G01 X-11.7874 Y11.0466 
G01 X-11.7936 Y11.0404 
G01 X-11.8628 Y11.0004 
G01 X-11.9400 Y10.9798 
G01 X-12.0200 Y10.9798 
G01 X-12.0233 Y10.9806 
G01 X-12.0972 Y11.0004 
G01 X-12.1649 Y11.0395 
G01 X-12.2229 Y11.0969 
G01 X-12.4913 Y11.3653 
G01 X-12.5055 Y11.3712 
G01 X-12.5214 Y11.3834 
G01 X-12.5388 Y11.3934 
G01 X-12.5530 Y11.4076 
G01 X-12.5689 Y11.4198 
G01 X-12.5811 Y11.4358 
G01 X-12.5953 Y11.4500 
G01 X-12.6054 Y11.4673 
G01 X-12.6176 Y11.4832 
G01 X-12.6253 Y11.5018 
G01 X-12.6353 Y11.5192 
G01 X-12.6405 Y11.5386 
G01 X-12.6482 Y11.5571 
G01 X-12.6508 Y11.5770 
G01 X-12.6560 Y11.5964 
G01 X-12.6560 Y11.6165 
G01 X-12.6586 Y11.6364 
G01 X-12.6560 Y11.6563 
G01 X-12.6560 Y30.2324 
G01 X-12.6353 Y30.3096 
G01 X-12.5953 Y30.3788 
G01 X-12.5388 Y30.4353 
G01 X-12.4696 Y30.4753 
G01 X-12.4139 Y30.4902 
G01 X-12.3924 Y30.4960 
G01 X-12.3124 Y30.4960 
G01 X-12.2352 Y30.4753 
G01 X-12.1660 Y30.4353 
G01 X-11.8867 Y30.1560 
G01 X-11.8467 Y30.0868 
G01 X-11.8313 Y30.0294 
G01 X-11.8260 Y30.0096 
G01 X-11.8260 Y29.5141 
G01 X-11.6646 Y29.1246 
G01 X-11.3664 Y28.8264 
G01 X-10.9768 Y28.6650 
G01 X-10.5551 Y28.6650 
G01 X-10.1656 Y28.8264 
G01 X-9.8715 Y29.1205 
G01 X-9.8630 Y29.1351 
G01 X-9.8553 Y29.1537 
G01 X-9.8431 Y29.1696 
G01 X-9.8330 Y29.1870 
G01 X-9.8189 Y29.2012 
G01 X-9.8066 Y29.2171 
G01 X-9.7907 Y29.2293 
G01 X-9.7765 Y29.2435 
G01 X-9.7591 Y29.2536 
G01 X-9.7432 Y29.2658 
G01 X-9.7247 Y29.2735 
G01 X-9.7073 Y29.2835 
G01 X-9.6879 Y29.2887 
G01 X-9.6694 Y29.2964 
G01 X-9.6495 Y29.2990 
G01 X-9.6301 Y29.3042 
G01 X-9.6100 Y29.3042 
G01 X-9.5901 Y29.3068 
G01 X-9.5702 Y29.3042 
G01 X-9.5501 Y29.3042 
G01 X-9.5308 Y29.2990 
G01 X-9.5109 Y29.2964 
G01 X-9.4923 Y29.2887 
G01 X-9.4729 Y29.2835 
G01 X-9.4556 Y29.2735 
G01 X-9.4370 Y29.2658 
G01 X-9.4211 Y29.2536 
G01 X-9.4037 Y29.2435 
G01 X-9.3895 Y29.2293 
G01 X-9.3736 Y29.2171 
G01 X-9.3614 Y29.2012 
G01 X-9.0712 Y28.9110 
G01 X-9.0376 Y28.9110 
G01 X-9.0376 Y28.9642 
G01 X-9.0491 Y28.9642 
G01 X-9.4948 Y29.4099 
G01 X-9.4948 Y30.0401 
G01 X-9.0491 Y30.4858 
G01 X-9.0376 Y30.4858 
G01 X-9.0376 Y30.5390 
G01 X-9.0712 Y30.5390 
G01 X-9.3614 Y30.2488 
G01 X-9.3736 Y30.2329 
G01 X-9.3895 Y30.2207 
G01 X-9.4037 Y30.2065 
G01 X-9.4211 Y30.1964 
G01 X-9.4370 Y30.1842 
G01 X-9.4556 Y30.1765 
G01 X-9.4729 Y30.1665 
G01 X-9.4923 Y30.1613 
G01 X-9.5109 Y30.1536 
G01 X-9.5308 Y30.1510 
G01 X-9.5501 Y30.1458 
G01 X-9.5702 Y30.1458 
G01 X-9.5901 Y30.1432 
G01 X-9.6100 Y30.1458 
G01 X-9.6301 Y30.1458 
G01 X-9.6495 Y30.1510 
G01 X-9.6694 Y30.1536 
G01 X-9.6879 Y30.1613 
G01 X-9.7073 Y30.1665 
G01 X-9.7247 Y30.1765 
G01 X-9.7432 Y30.1842 
G01 X-9.7591 Y30.1964 
G01 X-9.7765 Y30.2065 
G01 X-9.7907 Y30.2207 
G01 X-9.8066 Y30.2329 
G01 X-9.8189 Y30.2488 
G01 X-9.8330 Y30.2630 
G01 X-9.8431 Y30.2804 
G01 X-9.8553 Y30.2963 
G01 X-9.8630 Y30.3148 
G01 X-9.8715 Y30.3295 
G01 X-10.1656 Y30.6236 
G01 X-10.5551 Y30.7850 
G01 X-10.8686 Y30.7850 
G01 X-10.9458 Y30.8057 
G01 X-11.0150 Y30.8457 
G01 X-11.0288 Y30.8594 
G01 X-11.8436 Y31.6742 
G01 X-11.8863 Y31.7170 
G01 X-11.9001 Y31.7307 
G01 X-12.0842 Y31.9149 
G01 X-12.1408 Y31.9714 
G01 X-15.3004 Y35.1310 
G01 X-15.3163 Y35.1433 
G01 X-15.3285 Y35.1592 
G01 X-15.3427 Y35.1734 
G01 X-15.3528 Y35.1908 
G01 X-15.3650 Y35.2067 
G01 X-15.3727 Y35.2252 
G01 X-15.3827 Y35.2426 
G01 X-15.3879 Y35.2620 
G01 X-15.3956 Y35.2805 
G01 X-15.3982 Y35.3004 
G01 X-15.4034 Y35.3198 
G01 X-15.4034 Y35.3399 
G01 X-15.4060 Y35.3598 
G01 X-15.4034 Y35.3797 
G01 X-15.4034 Y35.3998 
G01 X-15.3982 Y35.4192 
G01 X-15.3956 Y35.4391 
G01 X-15.3879 Y35.4576 
G01 X-15.3827 Y35.4770 
G01 X-15.3727 Y35.4944 
G01 X-15.2784 Y35.7220 
G01 X-15.2784 Y36.4140 
G01 X-15.5432 Y37.0534 
G01 X-16.0326 Y37.5428 
G01 X-16.6720 Y37.8076 
G01 X-17.3640 Y37.8076 
G01 X-18.0034 Y37.5428 
G01 X-18.1350 Y37.4112 
G01 X-18.2042 Y37.3712 
G01 X-18.2814 Y37.3505 
G01 X-18.3614 Y37.3505 
G01 X-18.3812 Y37.3558 
G01 X-18.4386 Y37.3712 
G01 X-18.5078 Y37.4112 
G01 X-18.5643 Y37.4677 
G01 X-18.6043 Y37.5369 
G01 X-18.6250 Y37.6141 
G01 X-18.6250 Y42.5229 
G01 X-18.6043 Y42.6001 
G01 X-18.5643 Y42.6693 
G01 X-18.5087 Y42.7249 
G01 X-18.4386 Y42.7658 
G01 X-18.3829 Y42.7807 
G01 X-18.3614 Y42.7865 
G01 X-18.2814 Y42.7865 
G01 X-18.2042 Y42.7658 
G01 X-18.1350 Y42.7258 
G01 X-18.0034 Y42.5942 
G01 X-17.3640 Y42.3294 
G01 X-16.6720 Y42.3294 
G01 X-16.0326 Y42.5942 
G01 X-15.5432 Y43.0836 
G01 X-15.2784 Y43.7230 
G01 X-15.2784 Y44.4150 
G01 X-15.5432 Y45.0544 
G01 X-16.0326 Y45.5438 
G01 X-16.1332 Y45.5854 
G01 X-16.1526 Y45.5906 
G01 X-16.1700 Y45.6007 
G01 X-16.1886 Y45.6084 
G01 X-16.2045 Y45.6206 
G01 X-16.2219 Y45.6306 
G01 X-16.2360 Y45.6448 
G01 X-16.2520 Y45.6570 
G01 X-16.2642 Y45.6730 
G01 X-16.2784 Y45.6871 
G01 X-16.2884 Y45.7045 
G01 X-16.3006 Y45.7204 
G01 X-16.3083 Y45.7390 
G01 X-16.3184 Y45.7564 
G01 X-16.3236 Y45.7758 
G01 X-16.3312 Y45.7943 
G01 X-16.3338 Y45.8142 
G01 X-16.3390 Y45.8336 
G01 X-16.3390 Y45.8537 
G01 X-16.3417 Y45.8736 
G01 X-16.3390 Y45.8934 
G01 X-16.3390 Y45.9135 
G01 X-16.3338 Y45.9329 
G01 X-16.3312 Y45.9528 
G01 X-16.3236 Y45.9713 
G01 X-16.3184 Y45.9907 
G01 X-16.3083 Y46.0081 
G01 X-16.3006 Y46.0267 
G01 X-16.2884 Y46.0426 
G01 X-16.2784 Y46.0600 
G01 X-16.2642 Y46.0742 
G01 X-16.2520 Y46.0901 
G01 X-16.2360 Y46.1023 
G01 X-16.1690 Y46.1693 
G01 X-16.0850 Y46.3722 
G01 X-16.0850 Y58.1488 
G01 X-16.1690 Y58.3517 
G01 X-17.6786 Y59.8612 
G01 X-17.8483 Y60.0310 
G01 X-18.0512 Y60.1150 
G01 X-20.2934 Y60.1150 
G01 X-20.3133 Y60.1124 
G01 X-20.3332 Y60.1150 
G01 X-20.3533 Y60.1150 
G01 X-20.3727 Y60.1202 
G01 X-20.3926 Y60.1228 
G01 X-20.4111 Y60.1305 
G01 X-20.4305 Y60.1357 
G01 X-20.4479 Y60.1457 
G01 X-20.4665 Y60.1534 
G01 X-20.4824 Y60.1656 
G01 X-20.4998 Y60.1757 
G01 X-20.5139 Y60.1898 
G01 X-20.5299 Y60.2021 
G01 X-20.5421 Y60.2180 
G01 X-20.5563 Y60.2322 
G01 X-20.5663 Y60.2496 
G01 X-20.5785 Y60.2655 
G01 X-20.5862 Y60.2840 
G01 X-20.5963 Y60.3014 
G01 X-20.6004 Y60.3169 
G01 X-20.8905 Y60.6069 
G01 X-21.2707 Y60.7644 
G01 X-21.6823 Y60.7644 
G01 X-22.0626 Y60.6069 
G01 X-22.3536 Y60.3159 
G01 X-22.4813 Y60.0076 
G01 X-22.4933 Y59.9919 
G01 X-22.5300 Y59.9441 
G01 X-22.5925 Y59.8962 
G01 X-22.6672 Y59.8649 
G01 X-22.7465 Y59.8545 
G01 X-22.7549 Y59.8556 
G01 X-22.8258 Y59.8649 
G01 X-22.8996 Y59.8955 
G01 X-22.9152 Y59.9075 
G01 X-22.9630 Y59.9441 
G01 X-23.0110 Y60.0067 
G01 X-23.0147 Y60.0147 
G01 X-23.1394 Y60.3159 
G01 X-23.4305 Y60.6069 
G01 X-23.8107 Y60.7644 
G01 X-24.2223 Y60.7644 
G01 X-24.6026 Y60.6069 
G01 X-24.8936 Y60.3159 
G01 X-25.0511 Y59.9356 
G01 X-25.0511 Y59.5240 
G01 X-25.0322 Y59.4785 
G01 X-25.0222 Y59.4611 
G01 X-25.0170 Y59.4417 
G01 X-25.0093 Y59.4232 
G01 X-25.0067 Y59.4033 
G01 X-25.0015 Y59.3839 
G01 X-25.0015 Y59.3638 
G01 X-24.9989 Y59.3439 
G01 X-25.0015 Y59.3240 
G01 X-25.0015 Y59.3039 
G01 X-25.0067 Y59.2845 
G01 X-25.0093 Y59.2646 
G01 X-25.0170 Y59.2461 
G01 X-25.0222 Y59.2267 
G01 X-25.0322 Y59.2093 
G01 X-25.0399 Y59.1908 
G01 X-25.0521 Y59.1749 
G01 X-25.0622 Y59.1575 
G01 X-25.0764 Y59.1433 
G01 X-25.0886 Y59.1274 
G01 X-25.1045 Y59.1151 
G01 X-26.4159 Y57.8038 
G01 X-26.4504 Y57.7692 
G01 X-26.4724 Y57.7473 
G01 X-26.5416 Y57.7073 
G01 X-26.6188 Y57.6866 
G01 X-26.6988 Y57.6866 
G01 X-26.7760 Y57.7073 
G01 X-26.8452 Y57.7473 
G01 X-26.9017 Y57.8038 
G01 X-26.9417 Y57.8730 
G01 X-26.9624 Y57.9502 
G01 X-26.9624 Y58.6390 
G01 X-27.2272 Y59.2784 
G01 X-27.7166 Y59.7678 
G01 X-28.3560 Y60.0326 
G01 X-29.0480 Y60.0326 
G01 X-29.2756 Y59.9383 
G01 X-29.2930 Y59.9283 
G01 X-29.3124 Y59.9231 
G01 X-29.3309 Y59.9154 
G01 X-29.3508 Y59.9128 
G01 X-29.3702 Y59.9076 
G01 X-29.3903 Y59.9076 
G01 X-29.4102 Y59.9050 
G01 X-29.4301 Y59.9076 
G01 X-29.4502 Y59.9076 
G01 X-29.4696 Y59.9128 
G01 X-29.4895 Y59.9154 
G01 X-29.5080 Y59.9231 
G01 X-29.5274 Y59.9283 
G01 X-29.5448 Y59.9383 
G01 X-29.5633 Y59.9460 
G01 X-29.5792 Y59.9582 
G01 X-29.5966 Y59.9683 
G01 X-29.6108 Y59.9824 
G01 X-29.6267 Y59.9947 
G01 X-29.6389 Y60.0106 
G01 X-32.0723 Y62.4440 
G01 X-32.2752 Y62.5280 
G01 X-35.1618 Y62.5280 
G01 X-35.3647 Y62.4440 
G01 X-35.5909 Y62.2177 
G01 X-43.6480 Y54.1607 
G01 X-43.7320 Y53.9578 
G01 X-43.7320 Y37.0560 
G01 X-43.7294 Y37.0361 
G01 X-43.7320 Y37.0162 
G01 X-43.7320 Y36.9962 
G01 X-43.7372 Y36.9768 
G01 X-43.7398 Y36.9569 
G01 X-43.7475 Y36.9383 
G01 X-43.7527 Y36.9190 
G01 X-43.7627 Y36.9016 
G01 X-43.7704 Y36.8830 
G01 X-43.7826 Y36.8671 
G01 X-43.7927 Y36.8497 
G01 X-43.8068 Y36.8355 
G01 X-43.8191 Y36.8196 
G01 X-43.8350 Y36.8074 
G01 X-43.8492 Y36.7932 
G01 X-43.8666 Y36.7832 
G01 X-43.8825 Y36.7709 
G01 X-43.9010 Y36.7633 
G01 X-43.9184 Y36.7532 
G01 X-43.9378 Y36.7480 
G01 X-44.1654 Y36.6538 
G01 X-44.6548 Y36.1644 
G01 X-44.9196 Y35.5250 
G01 X-44.9196 Y34.8330 
G01 X-44.6548 Y34.1936 
G01 X-44.1654 Y33.7042 
G01 X-43.5260 Y33.4394 
G01 X-42.8340 Y33.4394 
G01 X-42.1946 Y33.7042 
G01 X-41.7052 Y34.1936 
G01 X-41.4404 Y34.8330 
G01 X-41.4404 Y35.5250 
G01 X-41.7052 Y36.1644 
G01 X-42.1946 Y36.6538 
G01 X-42.4222 Y36.7480 
G01 X-42.4416 Y36.7532 
G01 X-42.4590 Y36.7633 
G01 X-42.4775 Y36.7709 
G01 X-42.4934 Y36.7832 
G01 X-42.5108 Y36.7932 
G01 X-42.5250 Y36.8074 
G01 X-42.5409 Y36.8196 
G01 X-42.5532 Y36.8355 
G01 X-42.5673 Y36.8497 
G01 X-42.5774 Y36.8671 
G01 X-42.5896 Y36.8830 
G01 X-42.5973 Y36.9016 
G01 X-42.6073 Y36.9190 
G01 X-42.6125 Y36.9383 
G01 X-42.6202 Y36.9569 
G01 X-42.6228 Y36.9768 
G01 X-42.6280 Y36.9962 
G01 X-42.6280 Y37.0162 
G01 X-42.6306 Y37.0361 
G01 X-42.6280 Y37.0560 
G01 X-42.6280 Y37.4899 
G01 X-42.6280 Y37.5295 
G01 X-42.6280 Y37.5699 
G01 X-42.6177 Y37.6084 
G01 X-42.6073 Y37.6471 
G01 X-42.5913 Y37.6747 
G01 X-42.5673 Y37.7163 
G01 X-42.5395 Y37.7441 
G01 X-42.5108 Y37.7728 
G01 X-42.4774 Y37.7921 
G01 X-42.4416 Y37.8128 
G01 X-42.4089 Y37.8215 
G01 X-42.3644 Y37.8335 
G01 X-42.3248 Y37.8335 
G01 X-42.2844 Y37.8335 
G01 X-42.2459 Y37.8231 
G01 X-42.2072 Y37.8128 
G01 X-42.1796 Y37.7968 
G01 X-42.1380 Y37.7728 
G01 X-42.1334 Y37.7682 
G01 X-41.4940 Y37.5034 
G01 X-40.8020 Y37.5034 
G01 X-40.5744 Y37.5977 
G01 X-40.5570 Y37.6077 
G01 X-40.5376 Y37.6129 
G01 X-40.5191 Y37.6206 
G01 X-40.4992 Y37.6232 
G01 X-40.4798 Y37.6284 
G01 X-40.4597 Y37.6284 
G01 X-40.4398 Y37.6310 
G01 X-40.4199 Y37.6284 
G01 X-40.3998 Y37.6284 
G01 X-40.3804 Y37.6232 
G01 X-40.3605 Y37.6206 
G01 X-40.3420 Y37.6129 
G01 X-40.3226 Y37.6077 
G01 X-40.3052 Y37.5977 
G01 X-40.2867 Y37.5900 
G01 X-40.2708 Y37.5778 
G01 X-40.2534 Y37.5677 
G01 X-40.2392 Y37.5536 
G01 X-40.2233 Y37.5413 
G01 X-40.2110 Y37.5254 
G01 X-40.0338 Y37.3482 
G01 X-39.9938 Y37.2789 
G01 X-39.9732 Y37.2017 
G01 X-39.9732 Y37.1218 
G01 X-39.9938 Y37.0446 
G01 X-40.0338 Y36.9753 
G01 X-40.0903 Y36.9188 
G01 X-40.2098 Y36.7994 
G01 X-40.4746 Y36.1600 
G01 X-40.4746 Y35.4680 
G01 X-40.2098 Y34.8286 
G01 X-39.7204 Y34.3392 
G01 X-39.0810 Y34.0744 
G01 X-38.3890 Y34.0744 
G01 X-37.7496 Y34.3392 
G01 X-37.2602 Y34.8286 
G01 X-36.9954 Y35.4680 
G01 X-36.9954 Y36.1600 
G01 X-37.2602 Y36.7994 
G01 X-37.7496 Y37.2888 
G01 X-38.3890 Y37.5536 
G01 X-38.5922 Y37.5536 
G01 X-38.6694 Y37.5743 
G01 X-38.7386 Y37.6143 
G01 X-38.7500 Y37.6257 
G01 X-39.4304 Y38.3060 
G01 X-39.4463 Y38.3183 
G01 X-39.4586 Y38.3342 
G01 X-39.4727 Y38.3484 
G01 X-39.4828 Y38.3658 
G01 X-39.4950 Y38.3817 
G01 X-39.5027 Y38.4002 
G01 X-39.5127 Y38.4176 
G01 X-39.5179 Y38.4370 
G01 X-39.5256 Y38.4555 
G01 X-39.5282 Y38.4754 
G01 X-39.5334 Y38.4948 
G01 X-39.5334 Y38.5149 
G01 X-39.5360 Y38.5348 
G01 X-39.5334 Y38.5547 
G01 X-39.5334 Y38.5748 
G01 X-39.5282 Y38.5942 
G01 X-39.5256 Y38.6141 
G01 X-39.5179 Y38.6326 
G01 X-39.5127 Y38.6520 
G01 X-39.5027 Y38.6694 
G01 X-39.4084 Y38.8970 
G01 X-39.4084 Y39.5890 
G01 X-39.6781 Y40.2402 
G01 X-39.6882 Y40.2576 
G01 X-39.6934 Y40.2770 
G01 X-39.7010 Y40.2955 
G01 X-39.7037 Y40.3154 
G01 X-39.7089 Y40.3348 
G01 X-39.7089 Y40.3549 
G01 X-39.7115 Y40.3748 
G01 X-39.7089 Y40.3947 
G01 X-39.7089 Y40.4148 
G01 X-39.7037 Y40.4342 
G01 X-39.7010 Y40.4541 
G01 X-39.6934 Y40.4726 
G01 X-39.6882 Y40.4920 
G01 X-39.6781 Y40.5094 
G01 X-39.6705 Y40.5279 
G01 X-39.6582 Y40.5438 
G01 X-39.6482 Y40.5612 
G01 X-39.6340 Y40.5754 
G01 X-39.6218 Y40.5913 
G01 X-39.6059 Y40.6035 
G01 X-39.5917 Y40.6177 
G01 X-39.5743 Y40.6278 
G01 X-39.5584 Y40.6400 
G01 X-39.5398 Y40.6477 
G01 X-39.5224 Y40.6577 
G01 X-39.5031 Y40.6629 
G01 X-39.4845 Y40.6706 
G01 X-39.4646 Y40.6732 
G01 X-39.4452 Y40.6784 
G01 X-39.4252 Y40.6784 
G01 X-39.4053 Y40.6810 
G01 X-39.3854 Y40.6784 
G01 X-38.7700 Y40.6784 
G01 X-38.1306 Y40.9432 
G01 X-37.6412 Y41.4326 
G01 X-37.3764 Y42.0720 
G01 X-37.3764 Y42.7640 
G01 X-37.4520 Y42.9466 
G01 X-37.4621 Y42.9640 
G01 X-37.4672 Y42.9833 
G01 X-37.4749 Y43.0019 
G01 X-37.4775 Y43.0218 
G01 X-37.4827 Y43.0412 
G01 X-37.4827 Y43.0613 
G01 X-37.4854 Y43.0811 
G01 X-37.4827 Y43.1010 
G01 X-37.4827 Y43.1211 
G01 X-37.4775 Y43.1405 
G01 X-37.4749 Y43.1604 
G01 X-37.4672 Y43.1790 
G01 X-37.4621 Y43.1983 
G01 X-37.4520 Y43.2157 
G01 X-37.4443 Y43.2343 
G01 X-37.4321 Y43.2502 
G01 X-37.4221 Y43.2676 
G01 X-37.4079 Y43.2818 
G01 X-37.3957 Y43.2977 
G01 X-37.3798 Y43.3099 
G01 X-37.3656 Y43.3241 
G01 X-37.3482 Y43.3341 
G01 X-37.3323 Y43.3463 
G01 X-37.3137 Y43.3540 
G01 X-37.2963 Y43.3641 
G01 X-37.2769 Y43.3692 
G01 X-37.2584 Y43.3769 
G01 X-37.2385 Y43.3795 
G01 X-37.2191 Y43.3847 
G01 X-37.1990 Y43.3847 
G01 X-37.1791 Y43.3874 
G01 X-37.1592 Y43.3847 
G01 X-37.1392 Y43.3847 
G01 X-37.1198 Y43.3796 
G01 X-37.0999 Y43.3769 
G01 X-37.0813 Y43.3692 
G01 X-37.0620 Y43.3641 
G01 X-37.0446 Y43.3540 
G01 X-37.0260 Y43.3463 
G01 X-37.0101 Y43.3341 
G01 X-36.9927 Y43.3241 
G01 X-36.9785 Y43.3099 
G01 X-36.9626 Y43.2977 
G01 X-36.9504 Y43.2818 
G01 X-33.3787 Y39.7100 
G01 X-33.3387 Y39.6408 
G01 X-33.3180 Y39.5636 
G01 X-33.3180 Y20.4190 
G01 X-33.3154 Y20.3991 
G01 X-33.3180 Y20.3792 
G01 X-33.3180 Y20.3592 
G01 X-33.3232 Y20.3398 
G01 X-33.3258 Y20.3199 
G01 X-33.3335 Y20.3013 
G01 X-33.3387 Y20.2820 
G01 X-33.3487 Y20.2646 
G01 X-33.3564 Y20.2460 
G01 X-33.3686 Y20.2301 
G01 X-33.3787 Y20.2127 
G01 X-33.3929 Y20.1985 
G01 X-33.4051 Y20.1826 
G01 X-33.4210 Y20.1704 
G01 X-33.4352 Y20.1562 
G01 X-33.4526 Y20.1462 
G01 X-33.4685 Y20.1339 
G01 X-33.4870 Y20.1263 
G01 X-33.5044 Y20.1162 
G01 X-33.5238 Y20.1110 
G01 X-33.6362 Y20.0645 
G01 X-33.6536 Y20.0544 
G01 X-33.6730 Y20.0492 
G01 X-33.6915 Y20.0416 
G01 X-33.7114 Y20.0389 
G01 X-33.7308 Y20.0337 
G01 X-33.7509 Y20.0337 
G01 X-33.7708 Y20.0311 
G01 X-33.7907 Y20.0337 
G01 X-33.8108 Y20.0337 
G01 X-33.8301 Y20.0389 
G01 X-33.8501 Y20.0415 
G01 X-33.8686 Y20.0492 
G01 X-33.8880 Y20.0544 
G01 X-33.9053 Y20.0645 
G01 X-33.9239 Y20.0721 
G01 X-33.9398 Y20.0844 
G01 X-33.9572 Y20.0944 
G01 X-33.9714 Y20.1086 
G01 X-33.9873 Y20.1208 
G01 X-33.9995 Y20.1367 
G01 X-34.0137 Y20.1509 
G01 X-34.0238 Y20.1683 
G01 X-34.0360 Y20.1842 
G01 X-34.0437 Y20.2028 
G01 X-34.0537 Y20.2201 
G01 X-34.0589 Y20.2395 
G01 X-34.0666 Y20.2581 
G01 X-34.0692 Y20.2780 
G01 X-34.0744 Y20.2974 
G01 X-34.0744 Y20.3174 
G01 X-34.0770 Y20.3373 
G01 X-34.0744 Y20.3572 
G01 X-34.0744 Y21.0470 
G01 X-34.3392 Y21.6864 
G01 X-34.8286 Y22.1758 
G01 X-35.4680 Y22.4406 
G01 X-36.1600 Y22.4406 
G01 X-36.7994 Y22.1758 
G01 X-36.8040 Y22.1712 
G01 X-36.8449 Y22.1476 
G01 X-36.8732 Y22.1312 
G01 X-36.9111 Y22.1211 
G01 X-36.9504 Y22.1105 
G01 X-36.9899 Y22.1105 
G01 X-37.0303 Y22.1105 
G01 X-37.0741 Y22.1222 
G01 X-37.1076 Y22.1312 
G01 X-37.1428 Y22.1515 
G01 X-37.1768 Y22.1712 
G01 X-37.2046 Y22.1990 
G01 X-37.2333 Y22.2277 
G01 X-37.2569 Y22.2686 
G01 X-37.2733 Y22.2969 
G01 X-37.2835 Y22.3348 
G01 X-37.2940 Y22.3741 
G01 X-37.2940 Y22.4136 
G01 X-37.2940 Y22.4541 
G01 X-37.2940 Y23.2238 
G01 X-37.3780 Y23.4267 
G01 X-37.6043 Y23.6529 
G01 X-39.5193 Y25.5680 
G01 X-39.5593 Y25.6372 
G01 X-39.5800 Y25.7144 
G01 X-39.5800 Y27.2060 
G01 X-39.5826 Y27.2259 
G01 X-39.5800 Y27.2458 
G01 X-39.5800 Y27.2658 
G01 X-39.5748 Y27.2852 
G01 X-39.5722 Y27.3051 
G01 X-39.5645 Y27.3237 
G01 X-39.5593 Y27.3430 
G01 X-39.5493 Y27.3604 
G01 X-39.5416 Y27.3790 
G01 X-39.5294 Y27.3949 
G01 X-39.5193 Y27.4123 
G01 X-39.5052 Y27.4265 
G01 X-39.4929 Y27.4424 
G01 X-39.4770 Y27.4546 
G01 X-39.4628 Y27.4688 
G01 X-39.4454 Y27.4788 
G01 X-39.4295 Y27.4911 
G01 X-39.4110 Y27.4987 
G01 X-39.3936 Y27.5088 
G01 X-39.3742 Y27.5140 
G01 X-39.1466 Y27.6082 
G01 X-38.6572 Y28.0976 
G01 X-38.3924 Y28.7370 
G01 X-38.3924 Y29.4290 
G01 X-38.6572 Y30.0684 
G01 X-39.1466 Y30.5578 
G01 X-39.7860 Y30.8226 
G01 X-40.4780 Y30.8226 
G01 X-41.1174 Y30.5578 
G01 X-41.6068 Y30.0684 
G01 X-41.8716 Y29.4290 
G01 X-41.8716 Y28.7370 
G01 X-41.6068 Y28.0976 
G01 X-41.1174 Y27.6082 
G01 X-40.8898 Y27.5140 
G01 X-40.8704 Y27.5088 
G01 X-40.8530 Y27.4987 
G01 X-40.8345 Y27.4911 
G01 X-40.8186 Y27.4788 
G01 X-40.8012 Y27.4688 
G01 X-40.7870 Y27.4546 
G01 X-40.7711 Y27.4424 
G01 X-40.7588 Y27.4265 
G01 X-40.7447 Y27.4123 
G01 X-40.7346 Y27.3949 
G01 X-40.7224 Y27.3790 
G01 X-40.7147 Y27.3604 
G01 X-40.7047 Y27.3430 
G01 X-40.6995 Y27.3237 
G01 X-40.6918 Y27.3051 
G01 X-40.6892 Y27.2852 
G01 X-40.6840 Y27.2658 
G01 X-40.6840 Y27.2458 
G01 X-40.6814 Y27.2259 
G01 X-40.6840 Y27.2060 
G01 X-40.6840 Y25.2906 
G01 X-40.6746 Y25.2744 
G01 X-40.6694 Y25.2550 
G01 X-40.6617 Y25.2365 
G01 X-40.6591 Y25.2166 
G01 X-40.6539 Y25.1972 
G01 X-40.6539 Y25.1771 
G01 X-40.6513 Y25.1572 
G01 X-40.6539 Y25.1373 
G01 X-40.6539 Y25.1172 
G01 X-40.6591 Y25.0978 
G01 X-40.6617 Y25.0779 
G01 X-40.6694 Y25.0594 
G01 X-40.6746 Y25.0400 
G01 X-40.6846 Y25.0226 
G01 X-40.6923 Y25.0041 
G01 X-40.7046 Y24.9882 
G01 X-40.7146 Y24.9708 
G01 X-40.7288 Y24.9566 
G01 X-40.7410 Y24.9407 
G01 X-40.7569 Y24.9284 
G01 X-40.7711 Y24.9143 
G01 X-40.7885 Y24.9042 
G01 X-40.8044 Y24.8920 
G01 X-40.8230 Y24.8843 
G01 X-40.8403 Y24.8743 
G01 X-40.8597 Y24.8691 
G01 X-40.8783 Y24.8614 
G01 X-40.8982 Y24.8588 
G01 X-40.9175 Y24.8536 
G01 X-40.9376 Y24.8536 
G01 X-40.9575 Y24.8510 
G01 X-40.9774 Y24.8536 
G01 X-41.3670 Y24.8536 
G01 X-42.0064 Y24.5888 
G01 X-42.4958 Y24.0994 
G01 X-42.7606 Y23.4600 
G01 X-42.7606 Y22.7680 
G01 X-42.4958 Y22.1286 
G01 X-42.0064 Y21.6392 
G01 X-41.7788 Y21.5450 
G01 X-41.7594 Y21.5398 
G01 X-41.7420 Y21.5297 
G01 X-41.7235 Y21.5221 
G01 X-41.7076 Y21.5098 
G01 X-41.6902 Y21.4998 
G01 X-41.6760 Y21.4856 
G01 X-41.6601 Y21.4734 
G01 X-41.6478 Y21.4575 
G01 X-41.6337 Y21.4433 
G01 X-41.6236 Y21.4259 
G01 X-41.6114 Y21.4100 
G01 X-41.6037 Y21.3914 
G01 X-41.5937 Y21.3740 
G01 X-41.5885 Y21.3547 
G01 X-41.5808 Y21.3361 
G01 X-41.5782 Y21.3162 
G01 X-41.5730 Y21.2968 
G01 X-41.5730 Y21.2768 
G01 X-41.5704 Y21.2569 
G01 X-41.5730 Y21.2370 
G01 X-41.5730 Y19.0672 
G01 X-41.4890 Y18.8643 
G01 X-40.8717 Y18.2470 
G01 X-40.8317 Y18.1778 
G01 X-40.8110 Y18.1006 
G01 X-40.8110 Y11.0241 
G01 X-40.8110 Y10.9687 
G01 X-40.8110 Y10.9441 
G01 X-40.8251 Y10.8916 
G01 X-40.8317 Y10.8669 
G01 X-40.8548 Y10.8270 
G01 X-40.8717 Y10.7977 
G01 X-40.9153 Y10.7540 
G01 X-40.9282 Y10.7412 
G01 X-40.9717 Y10.7161 
G01 X-40.9974 Y10.7012 
G01 X-41.0459 Y10.6882 
G01 X-41.0746 Y10.6805 
G01 X-41.1300 Y10.6805 
G01 X-41.1546 Y10.6805 
G01 X-41.2071 Y10.6946 
G01 X-41.2318 Y10.7012 
G01 X-41.2717 Y10.7243 
G01 X-41.3010 Y10.7412 
G01 X-41.3056 Y10.7458 
G01 X-41.9450 Y11.0106 
G01 X-42.6370 Y11.0106 
G01 X-43.2764 Y10.7458 
G01 X-43.7658 Y10.2564 
G01 X-44.0306 Y9.6170  
G01 X-44.0306 Y8.9250  
G01 X-43.7658 Y8.2856  
G01 X-43.2764 Y7.7962  
G01 X-42.6370 Y7.5314  
G01 X-41.9450 Y7.5314  
G01 X-41.7174 Y7.6257  
G01 X-41.7000 Y7.6357  
G01 X-41.6806 Y7.6409  
G01 X-41.6621 Y7.6486  
G01 X-41.6422 Y7.6512  
G01 X-41.6228 Y7.6564  
G01 X-41.6027 Y7.6564  
G01 X-41.5828 Y7.6590  
G01 X-41.5629 Y7.6564  
G01 X-41.5428 Y7.6564  
G01 X-41.5234 Y7.6512  
G01 X-41.5035 Y7.6486  
G01 X-41.4850 Y7.6409  
G01 X-41.4656 Y7.6357  
G01 X-41.4482 Y7.6257  
G01 X-41.4297 Y7.6180  
G01 X-41.4138 Y7.6058  
G01 X-41.3964 Y7.5957  
G01 X-41.3822 Y7.5816  
G01 X-41.3663 Y7.5693  
G01 X-41.3540 Y7.5534  
G01 X-39.3444 Y5.5438  
G01 X-39.1747 Y5.3740  
G01 X-38.9718 Y5.2900  
G01 X-24.2742 Y5.2900  
G01 X-24.0713 Y5.3740  
G01 X-18.8788 Y10.5666 
G01 X-18.7090 Y10.7363 
G01 X-18.6250 Y10.9392 
G01 X-18.6250 Y34.5219 
G01 X-18.6043 Y34.5991 
G01 X-18.5643 Y34.6683 
G01 X-18.5087 Y34.7239 
G01 X-18.4386 Y34.7648 
G01 X-18.3829 Y34.7797 
G01 X-18.3614 Y34.7855 
G01 X-18.2814 Y34.7855 
G01 X-18.2042 Y34.7648 
G01 X-18.1350 Y34.7248 
G01 X-18.0034 Y34.5932 
G01 X-17.3640 Y34.3284 
G01 X-16.6720 Y34.3284 
G01 X-16.4444 Y34.4227 
G01 X-16.4270 Y34.4327 
G01 X-16.4076 Y34.4379 
G01 X-16.3891 Y34.4456 
G01 X-16.3692 Y34.4482 
G01 X-16.3498 Y34.4534 
G01 X-16.3297 Y34.4534 
G01 X-16.3098 Y34.4560 
G01 X-16.2899 Y34.4534 
G01 X-16.2698 Y34.4534 
G01 X-16.2504 Y34.4482 
G01 X-16.2305 Y34.4456 
G01 X-16.2120 Y34.4379 
G01 X-16.1926 Y34.4327 
G01 X-16.1752 Y34.4227 
G01 X-16.1567 Y34.4150 
G01 X-16.1408 Y34.4028 
G01 X-16.1234 Y34.3927 
G01 X-16.1092 Y34.3786 
G01 X-16.0933 Y34.3663 
G01 X-16.0810 Y34.3504 
G01 X-13.3496 Y31.6189 
G01 X-13.3096 Y31.5497 
G01 X-13.2889 Y31.4725 
G01 X-13.2889 Y31.3925 
G01 X-13.3096 Y31.3153 
G01 X-13.3496 Y31.2461 
G01 X-13.4061 Y31.1896 
G01 X-13.6760 Y30.9197 
G01 X-13.7600 Y30.7168 
G01 X-13.7600 Y11.6911 
G01 X-13.7574 Y11.6712 
G01 X-13.7600 Y11.6513 
G01 X-13.7600 Y11.6312 
G01 X-13.7652 Y11.6118 
G01 X-13.7678 Y11.5919 
G01 X-13.7755 Y11.5734 
G01 X-13.7807 Y11.5540 
G01 X-13.7907 Y11.5366 
G01 X-13.7984 Y11.5180 
G01 X-13.8106 Y11.5021 
G01 X-13.8207 Y11.4847 
G01 X-13.8348 Y11.4706 
G01 X-13.8471 Y11.4546 
G01 X-13.8630 Y11.4424 
G01 X-13.8772 Y11.4282 
G01 X-13.8946 Y11.4182 
G01 X-13.9105 Y11.4060 
G01 X-13.9290 Y11.3983 
G01 X-13.9464 Y11.3883 
G01 X-13.9658 Y11.3831 
G01 X-14.0087 Y11.3653 
G01 X-14.3855 Y10.9885 
G01 X-14.5894 Y10.4962 
G01 X-14.5894 Y8.0838  
G01 X-14.3855 Y7.5915  
G01 X-14.0087 Y7.2147  
G01 X-13.5164 Y7.0108  
G01 X-12.9836 Y7.0108  
G01 X-12.4913 Y7.2147  
G01 X-12.1664 Y7.5396  
G01 X-12.0972 Y7.5796  
G01 X-12.0200 Y7.6002  
G01 X-11.9400 Y7.6002  
G01 X-11.8661 Y7.5804  
G01 X-11.8628 Y7.5796  
G01 X-11.7936 Y7.5396  
G01 X-11.7371 Y7.4831  
G01 X-11.4687 Y7.2147  
G01 X-10.9764 Y7.0108  
G01 X-10.4436 Y7.0108  
G01 X-9.9513 Y7.2147  
G01 X-9.5758 Y7.5902  
G01 X-9.5610 Y7.6240  
G01 X-9.5473 Y7.6572  
G01 X-9.5448 Y7.6604  
G01 X-9.5432 Y7.6641  
G01 X-9.5205 Y7.6921  
G01 X-9.4986 Y7.7207  
G01 X-9.4954 Y7.7231  
G01 X-9.4929 Y7.7263  
G01 X-9.4637 Y7.7475  
G01 X-9.4352 Y7.7693  
G01 X-9.4315 Y7.7709  
G01 X-9.4282 Y7.7732  
G01 X-9.3945 Y7.7862  
G01 X-9.3613 Y7.7999  
G01 X-9.3573 Y7.8004  
G01 X-9.3536 Y7.8019  
G01 X-9.3177 Y7.8057  
G01 X-9.2821 Y7.8104  
G01 X-9.2781 Y7.8098  
G01 X-9.2741 Y7.8102  
G01 X-9.2385 Y7.8046  
G01 X-9.2028 Y7.7999  
G01 X-9.1991 Y7.7984  
G01 X-9.1951 Y7.7977  
G01 X-9.1622 Y7.7831  
G01 X-9.1290 Y7.7693  
G01 X-9.1258 Y7.7669  
G01 X-9.1221 Y7.7652  
G01 X-9.0941 Y7.7426  
G01 X-9.0656 Y7.7207  
G01 X-9.0631 Y7.7175  
G01 X-9.0600 Y7.7149  
G01 X-9.0388 Y7.6857  
G01 X-9.0169 Y7.6572  
G01 X-9.0153 Y7.6535  
G01 X-9.0040 Y7.6379  
G01 X-8.8823 Y7.5162  
G01 X-8.7431 Y7.4150  
G01 X-8.5897 Y7.3369  
G01 X-8.5498 Y7.3239  
G01 X-8.5498 Y7.3799  
G01 X-8.5693 Y7.3862  
G00 Z2.0000  
G00 X-39.8792 Y25.5047 
G01 Z-0.1000 F100   
G01 X-37.7028 Y23.3283 F250   
G01 X-37.6317 Y23.2572 
G01 X-37.5932 Y23.1643 
G01 X-37.5932 Y17.0375 
G01 X-37.5717 Y17.0333 
G01 X-37.4006 Y16.9624 
G01 X-37.2465 Y16.8595 
G01 X-37.1155 Y16.7285 
G01 X-37.0126 Y16.5744 
G01 X-36.9417 Y16.4033 
G01 X-36.9056 Y16.2216 
G01 X-36.9056 Y16.0364 
G01 X-36.9417 Y15.8547 
G01 X-37.0126 Y15.6836 
G01 X-37.1155 Y15.5295 
G01 X-37.2465 Y15.3985 
G01 X-37.4006 Y15.2956 
G01 X-37.5717 Y15.2247 
G01 X-37.7534 Y15.1886 
G01 X-37.9386 Y15.1886 
G01 X-38.1203 Y15.2247 
G01 X-38.2914 Y15.2956 
G01 X-38.4455 Y15.3985 
G01 X-38.5765 Y15.5295 
G01 X-38.6794 Y15.6836 
G01 X-38.7503 Y15.8547 
G01 X-38.7864 Y16.0364 
G01 X-38.7864 Y16.2216 
G01 X-38.7503 Y16.4033 
G01 X-38.6794 Y16.5744 
G01 X-38.5765 Y16.7285 
G01 X-38.4455 Y16.8595 
G01 X-38.2914 Y16.9624 
G01 X-38.1203 Y17.0333 
G01 X-38.0988 Y17.0375 
G01 X-38.0988 Y23.0093 
G01 X-40.3463 Y25.2568 
G01 X-40.3848 Y25.3497 
G01 X-40.3848 Y28.1745 
G01 X-40.4063 Y28.1787 
G01 X-40.5774 Y28.2496 
G01 X-40.7315 Y28.3525 
G01 X-40.8625 Y28.4835 
G01 X-40.9654 Y28.6376 
G01 X-41.0363 Y28.8087 
G01 X-41.0724 Y28.9904 
G01 X-41.0724 Y29.1756 
G01 X-41.0363 Y29.3573 
G01 X-40.9654 Y29.5284 
G01 X-40.8625 Y29.6825 
G01 X-40.7315 Y29.8135 
G01 X-40.5774 Y29.9164 
G01 X-40.4063 Y29.9873 
G01 X-40.2246 Y30.0234 
G01 X-40.0394 Y30.0234 
G01 X-39.8577 Y29.9873 
G01 X-39.6866 Y29.9164 
G01 X-39.5325 Y29.8135 
G01 X-39.4015 Y29.6825 
G01 X-39.2986 Y29.5284 
G01 X-39.2277 Y29.3573 
G01 X-39.1916 Y29.1756 
G01 X-39.1916 Y28.9904 
G01 X-39.2277 Y28.8087 
G01 X-39.2986 Y28.6376 
G01 X-39.4015 Y28.4835 
G01 X-39.5325 Y28.3525 
G01 X-39.6866 Y28.2496 
G01 X-39.8577 Y28.1787 
G01 X-39.8792 Y28.1745 
G01 X-39.8792 Y25.5047 
G00 Z2.0000  
G00 X-40.7682 Y19.2817 
G01 Z-0.1000 F100   
G01 X-40.1158 Y18.6293 F250   
G01 X-40.1158 Y18.6293 
G01 X-40.0447 Y18.5582 
G01 X-40.0062 Y18.4653 
G01 X-40.0062 Y8.9947  
G01 X-38.2493 Y7.2378  
G01 X-37.3157 Y7.2378  
G01 X-36.2602 Y8.2933  
G01 X-36.2602 Y10.3117 
G01 X-36.2346 Y10.4734 
G01 X-36.1840 Y10.6291 
G01 X-36.1097 Y10.7750 
G01 X-36.0134 Y10.9074 
G01 X-35.8976 Y11.0232 
G01 X-35.7652 Y11.1195 
G01 X-35.6193 Y11.1938 
G01 X-35.4636 Y11.2444 
G01 X-35.3019 Y11.2700 
G01 X-35.1381 Y11.2700 
G01 X-34.9764 Y11.2444 
G01 X-34.8207 Y11.1938 
G01 X-34.6748 Y11.1195 
G01 X-34.5424 Y11.0232 
G01 X-34.4266 Y10.9074 
G01 X-34.3303 Y10.7750 
G01 X-34.2560 Y10.6291 
G01 X-34.2054 Y10.4734 
G01 X-34.1798 Y10.3117 
G01 X-34.1798 Y8.2683  
G01 X-34.2054 Y8.1066  
G01 X-34.2560 Y7.9509  
G01 X-34.3303 Y7.8050  
G01 X-34.4266 Y7.6726  
G01 X-34.5424 Y7.5568  
G01 X-34.6748 Y7.4605  
G01 X-34.8207 Y7.3862  
G01 X-34.9764 Y7.3356  
G01 X-35.1381 Y7.3100  
G01 X-35.3019 Y7.3100  
G01 X-35.4636 Y7.3356  
G01 X-35.6193 Y7.3862  
G01 X-35.7652 Y7.4605  
G01 X-35.8976 Y7.5568  
G01 X-36.0134 Y7.6726  
G01 X-36.0776 Y7.7609  
G01 X-37.0678 Y6.7707  
G01 X-37.1607 Y6.7322  
G01 X-38.4043 Y6.7322  
G01 X-38.4972 Y6.7707  
G01 X-38.5683 Y6.8418  
G01 X-40.4733 Y8.7468  
G01 X-40.5118 Y8.8397  
G01 X-40.5118 Y18.3103 
G01 X-41.2353 Y19.0338 
G01 X-41.2738 Y19.1267 
G01 X-41.2738 Y22.2055 
G01 X-41.2953 Y22.2097 
G01 X-41.4664 Y22.2806 
G01 X-41.6205 Y22.3835 
G01 X-41.7515 Y22.5145 
G01 X-41.8544 Y22.6686 
G01 X-41.9253 Y22.8397 
G01 X-41.9614 Y23.0214 
G01 X-41.9614 Y23.2066 
G01 X-41.9253 Y23.3883 
G01 X-41.8544 Y23.5594 
G01 X-41.7515 Y23.7135 
G01 X-41.6205 Y23.8445 
G01 X-41.4664 Y23.9474 
G01 X-41.2953 Y24.0183 
G01 X-41.1136 Y24.0544 
G01 X-40.9284 Y24.0544 
G01 X-40.7467 Y24.0183 
G01 X-40.5756 Y23.9474 
G01 X-40.4215 Y23.8445 
G01 X-40.2905 Y23.7135 
G01 X-40.1876 Y23.5594 
G01 X-40.1167 Y23.3883 
G01 X-40.0806 Y23.2066 
G01 X-40.0806 Y23.0214 
G01 X-40.1167 Y22.8397 
G01 X-40.1876 Y22.6686 
G01 X-40.2905 Y22.5145 
G01 X-40.4215 Y22.3835 
G01 X-40.5756 Y22.2806 
G01 X-40.7467 Y22.2097 
G01 X-40.7682 Y22.2055 
G01 X-40.7682 Y19.2817 
G00 Z2.0000  
G00 X-30.4788 Y40.0817 
G01 Z-0.1000 F100   
G01 X-30.4788 Y40.1823 F250   
G01 X-30.4403 Y40.2752 
G01 X-26.8854 Y43.8301 
G01 X-26.9048 Y43.8381 
G01 X-27.0253 Y43.9186 
G01 X-27.1277 Y44.0211 
G01 X-27.2082 Y44.1415 
G01 X-27.2636 Y44.2753 
G01 X-27.2919 Y44.4174 
G01 X-27.2919 Y44.5623 
G01 X-27.2636 Y44.7044 
G01 X-27.2082 Y44.8382 
G01 X-27.1277 Y44.9586 
G01 X-27.0253 Y45.0611 
G01 X-26.9048 Y45.1415 
G01 X-26.7710 Y45.1970 
G01 X-26.6289 Y45.2252 
G01 X-26.4841 Y45.2252 
G01 X-26.3420 Y45.1970 
G01 X-26.2082 Y45.1415 
G01 X-26.0877 Y45.0611 
G01 X-25.9853 Y44.9586 
G01 X-25.9048 Y44.8382 
G01 X-25.8494 Y44.7044 
G01 X-25.8211 Y44.5623 
G01 X-25.8211 Y44.4174 
G01 X-25.8494 Y44.2753 
G01 X-25.9048 Y44.1415 
G01 X-25.9853 Y44.0211 
G01 X-26.0877 Y43.9186 
G01 X-26.1767 Y43.8592 
G01 X-26.2017 Y43.7988 
G01 X-26.2728 Y43.7277 
G01 X-29.9732 Y40.0273 
G01 X-29.9732 Y22.1175 
G01 X-29.9517 Y22.1133 
G01 X-29.7806 Y22.0424 
G01 X-29.6265 Y21.9395 
G01 X-29.4955 Y21.8085 
G01 X-29.3926 Y21.6544 
G01 X-29.3217 Y21.4833 
G01 X-29.2856 Y21.3016 
G01 X-29.2856 Y21.1164 
G01 X-29.3217 Y20.9347 
G01 X-29.3926 Y20.7636 
G01 X-29.4955 Y20.6095 
G01 X-29.6265 Y20.4785 
G01 X-29.7806 Y20.3756 
G01 X-29.9517 Y20.3047 
G01 X-30.1334 Y20.2686 
G01 X-30.3186 Y20.2686 
G01 X-30.5003 Y20.3047 
G01 X-30.6714 Y20.3756 
G01 X-30.8255 Y20.4785 
G01 X-30.9565 Y20.6095 
G01 X-31.0594 Y20.7636 
G01 X-31.1303 Y20.9347 
G01 X-31.1664 Y21.1164 
G01 X-31.1664 Y21.3016 
G01 X-31.1303 Y21.4833 
G01 X-31.0594 Y21.6544 
G01 X-30.9565 Y21.8085 
G01 X-30.8255 Y21.9395 
G01 X-30.6714 Y22.0424 
G01 X-30.5003 Y22.1133 
G01 X-30.4788 Y22.1175 
G01 X-30.4788 Y40.0817 
G00 Z2.0000  
G00 X-38.7573 Y6.0948  
G01 Z-0.1000 F100   
G01 X-24.4887 Y6.0948  F250   
G01 X-19.4298 Y11.1537 
G01 X-19.4298 Y46.4831 
G01 X-19.5077 Y46.5611 
G01 X-19.5882 Y46.6815 
G01 X-19.6436 Y46.8153 
G01 X-19.6719 Y46.9574 
G01 X-19.6719 Y47.1023 
G01 X-19.6436 Y47.2444 
G01 X-19.5882 Y47.3782 
G01 X-19.5077 Y47.4986 
G01 X-19.4053 Y47.6011 
G01 X-19.2849 Y47.6815 
G01 X-19.1510 Y47.7370 
G01 X-19.0089 Y47.7652 
G01 X-18.8641 Y47.7652 
G01 X-18.7220 Y47.7370 
G01 X-18.5882 Y47.6815 
G01 X-18.4677 Y47.6011 
G01 X-18.3653 Y47.4986 
G01 X-18.2848 Y47.3782 
G01 X-18.2294 Y47.2444 
G01 X-18.2011 Y47.1023 
G01 X-18.2011 Y46.9574 
G01 X-18.2294 Y46.8153 
G01 X-18.2848 Y46.6815 
G01 X-18.3653 Y46.5611 
G01 X-18.4677 Y46.4586 
G01 X-18.5882 Y46.3781 
G01 X-18.7220 Y46.3227 
G01 X-18.8641 Y46.2944 
G01 X-18.9242 Y46.2944 
G01 X-18.9242 Y10.9987 
G01 X-18.9627 Y10.9058 
G01 X-19.0338 Y10.8347 
G01 X-24.2408 Y5.6277  
G01 X-24.3337 Y5.5892  
G01 X-38.9123 Y5.5892  
G01 X-39.0052 Y5.6277  
G01 X-39.0763 Y5.6988  
G01 X-41.8273 Y8.4498  
G01 X-41.8456 Y8.4376  
G01 X-42.0167 Y8.3667  
G01 X-42.1984 Y8.3306  
G01 X-42.3836 Y8.3306  
G01 X-42.5653 Y8.3667  
G01 X-42.7364 Y8.4376  
G01 X-42.8905 Y8.5405  
G01 X-43.0215 Y8.6715  
G01 X-43.1244 Y8.8256  
G01 X-43.1953 Y8.9967  
G01 X-43.2314 Y9.1784  
G01 X-43.2314 Y9.3636  
G01 X-43.1953 Y9.5453  
G01 X-43.1244 Y9.7164  
G01 X-43.0215 Y9.8705  
G01 X-42.8905 Y10.0015 
G01 X-42.7364 Y10.1044 
G01 X-42.5653 Y10.1753 
G01 X-42.3836 Y10.2114 
G01 X-42.1984 Y10.2114 
G01 X-42.0167 Y10.1753 
G01 X-41.8456 Y10.1044 
G01 X-41.6915 Y10.0015 
G01 X-41.5605 Y9.8705  
G01 X-41.4576 Y9.7164  
G01 X-41.3867 Y9.5453  
G01 X-41.3506 Y9.3636  
G01 X-41.3506 Y9.1784  
G01 X-41.3867 Y8.9967  
G01 X-41.4576 Y8.8256  
G01 X-41.4698 Y8.8073  
G01 X-38.7573 Y6.0948  
G00 Z2.0000  
G00 X-43.4328 Y53.7977 
G01 Z-0.1000 F100   
G01 X-43.4328 Y53.8983 F250   
G01 X-43.3943 Y53.9912 
G01 X-35.2663 Y62.1192 
G01 X-35.1952 Y62.1903 
G01 X-35.1023 Y62.2288 
G01 X-32.3347 Y62.2288 
G01 X-32.2418 Y62.1903 
G01 X-29.1657 Y59.1142 
G01 X-29.1474 Y59.1264 
G01 X-28.9763 Y59.1973 
G01 X-28.7946 Y59.2334 
G01 X-28.6094 Y59.2334 
G01 X-28.4277 Y59.1973 
G01 X-28.2566 Y59.1264 
G01 X-28.1025 Y59.0235 
G01 X-27.9715 Y58.8925 
G01 X-27.8686 Y58.7384 
G01 X-27.7977 Y58.5673 
G01 X-27.7616 Y58.3856 
G01 X-27.7616 Y58.2004 
G01 X-27.7977 Y58.0187 
G01 X-27.8686 Y57.8476 
G01 X-27.9715 Y57.6935 
G01 X-28.1025 Y57.5625 
G01 X-28.2566 Y57.4596 
G01 X-28.4277 Y57.3887 
G01 X-28.6094 Y57.3526 
G01 X-28.7946 Y57.3526 
G01 X-28.9763 Y57.3887 
G01 X-29.1474 Y57.4596 
G01 X-29.3015 Y57.5625 
G01 X-29.4325 Y57.6935 
G01 X-29.5354 Y57.8476 
G01 X-29.6063 Y58.0187 
G01 X-29.6424 Y58.2004 
G01 X-29.6424 Y58.3856 
G01 X-29.6063 Y58.5673 
G01 X-29.5354 Y58.7384 
G01 X-29.5232 Y58.7567 
G01 X-32.4897 Y61.7232 
G01 X-34.9473 Y61.7232 
G01 X-42.9272 Y53.7433 
G01 X-42.9272 Y36.0875 
G01 X-42.9057 Y36.0833 
G01 X-42.7346 Y36.0124 
G01 X-42.5805 Y35.9095 
G01 X-42.4495 Y35.7785 
G01 X-42.3466 Y35.6244 
G01 X-42.2757 Y35.4533 
G01 X-42.2396 Y35.2716 
G01 X-42.2396 Y35.0864 
G01 X-42.2757 Y34.9047 
G01 X-42.3466 Y34.7336 
G01 X-42.4495 Y34.5795 
G01 X-42.5805 Y34.4485 
G01 X-42.7346 Y34.3456 
G01 X-42.9057 Y34.2747 
G01 X-43.0874 Y34.2386 
G01 X-43.2726 Y34.2386 
G01 X-43.4543 Y34.2747 
G01 X-43.6254 Y34.3456 
G01 X-43.7795 Y34.4485 
G01 X-43.9105 Y34.5795 
G01 X-44.0134 Y34.7336 
G01 X-44.0843 Y34.9047 
G01 X-44.1204 Y35.0864 
G01 X-44.1204 Y35.2716 
G01 X-44.0843 Y35.4533 
G01 X-44.0134 Y35.6244 
G01 X-43.9105 Y35.7785 
G01 X-43.7795 Y35.9095 
G01 X-43.6254 Y36.0124 
G01 X-43.4543 Y36.0833 
G01 X-43.4328 Y36.0875 
G01 X-43.4328 Y53.7977 
G00 Z2.0000  
G00 X-38.9878 Y36.7253 
G01 Z-0.1000 F100   
G01 X-40.6843 Y38.4218 F250   
G01 X-40.7026 Y38.4096 
G01 X-40.8737 Y38.3387 
G01 X-41.0554 Y38.3026 
G01 X-41.2406 Y38.3026 
G01 X-41.4223 Y38.3387 
G01 X-41.5934 Y38.4096 
G01 X-41.7475 Y38.5125 
G01 X-41.8785 Y38.6435 
G01 X-41.9814 Y38.7976 
G01 X-42.0523 Y38.9687 
G01 X-42.0884 Y39.1504 
G01 X-42.0884 Y39.3356 
G01 X-42.0523 Y39.5173 
G01 X-41.9814 Y39.6884 
G01 X-41.8785 Y39.8425 
G01 X-41.7475 Y39.9735 
G01 X-41.5934 Y40.0764 
G01 X-41.4223 Y40.1473 
G01 X-41.2406 Y40.1834 
G01 X-41.0554 Y40.1834 
G01 X-40.8737 Y40.1473 
G01 X-40.7026 Y40.0764 
G01 X-40.5485 Y39.9735 
G01 X-40.4175 Y39.8425 
G01 X-40.3146 Y39.6884 
G01 X-40.2437 Y39.5173 
G01 X-40.2076 Y39.3356 
G01 X-40.2076 Y39.1504 
G01 X-40.2437 Y38.9687 
G01 X-40.3146 Y38.7976 
G01 X-40.3268 Y38.7793 
G01 X-38.5207 Y36.9732 
G01 X-38.4822 Y36.8803 
G01 X-38.4822 Y36.7225 
G01 X-38.4607 Y36.7183 
G01 X-38.2896 Y36.6474 
G01 X-38.1355 Y36.5445 
G01 X-38.0045 Y36.4135 
G01 X-37.9016 Y36.2594 
G01 X-37.8307 Y36.0883 
G01 X-37.7946 Y35.9066 
G01 X-37.7946 Y35.7214 
G01 X-37.8307 Y35.5397 
G01 X-37.9016 Y35.3686 
G01 X-38.0045 Y35.2145 
G01 X-38.1355 Y35.0835 
G01 X-38.2896 Y34.9806 
G01 X-38.4607 Y34.9097 
G01 X-38.6424 Y34.8736 
G01 X-38.8276 Y34.8736 
G01 X-39.0093 Y34.9097 
G01 X-39.1804 Y34.9806 
G01 X-39.3345 Y35.0835 
G01 X-39.4655 Y35.2145 
G01 X-39.5684 Y35.3686 
G01 X-39.6393 Y35.5397 
G01 X-39.6754 Y35.7214 
G01 X-39.6754 Y35.9066 
G01 X-39.6393 Y36.0883 
G01 X-39.5684 Y36.2594 
G01 X-39.4655 Y36.4135 
G01 X-39.3345 Y36.5445 
G01 X-39.1804 Y36.6474 
G01 X-39.0093 Y36.7183 
G01 X-38.9878 Y36.7225 
G01 X-38.9878 Y36.7253 
G00 Z2.0000  
G00 X-26.5418 Y57.0997 
G01 Z-0.1000 F100   
G01 X-26.5418 Y57.2003 F250   
G01 X-26.5033 Y57.2932 
G01 X-24.5616 Y59.2349 
G01 X-24.5877 Y59.2611 
G01 X-24.6682 Y59.3815 
G01 X-24.7236 Y59.5153 
G01 X-24.7519 Y59.6574 
G01 X-24.7519 Y59.8023 
G01 X-24.7236 Y59.9444 
G01 X-24.6682 Y60.0782 
G01 X-24.5877 Y60.1986 
G01 X-24.4853 Y60.3011 
G01 X-24.3649 Y60.3815 
G01 X-24.2310 Y60.4370 
G01 X-24.0889 Y60.4652 
G01 X-23.9441 Y60.4652 
G01 X-23.8020 Y60.4370 
G01 X-23.6682 Y60.3815 
G01 X-23.5477 Y60.3011 
G01 X-23.4453 Y60.1986 
G01 X-23.3648 Y60.0782 
G01 X-23.3094 Y59.9444 
G01 X-23.2811 Y59.8023 
G01 X-23.2811 Y59.6574 
G01 X-23.3094 Y59.5153 
G01 X-23.3648 Y59.3815 
G01 X-23.4453 Y59.2611 
G01 X-23.5477 Y59.1586 
G01 X-23.6682 Y59.0781 
G01 X-23.8020 Y59.0227 
G01 X-23.9441 Y58.9944 
G01 X-24.0870 Y58.9944 
G01 X-26.0362 Y57.0453 
G01 X-26.0362 Y48.9145 
G01 X-26.0147 Y48.9103 
G01 X-25.8436 Y48.8394 
G01 X-25.6895 Y48.7365 
G01 X-25.5585 Y48.6055 
G01 X-25.4556 Y48.4514 
G01 X-25.3847 Y48.2803 
G01 X-25.3486 Y48.0986 
G01 X-25.3486 Y47.9134 
G01 X-25.3847 Y47.7317 
G01 X-25.4556 Y47.5606 
G01 X-25.5585 Y47.4065 
G01 X-25.6895 Y47.2755 
G01 X-25.8436 Y47.1726 
G01 X-26.0147 Y47.1017 
G01 X-26.1964 Y47.0656 
G01 X-26.3816 Y47.0656 
G01 X-26.5633 Y47.1017 
G01 X-26.7344 Y47.1726 
G01 X-26.8885 Y47.2755 
G01 X-27.0195 Y47.4065 
G01 X-27.1224 Y47.5606 
G01 X-27.1933 Y47.7317 
G01 X-27.2294 Y47.9134 
G01 X-27.2294 Y48.0986 
G01 X-27.1933 Y48.2803 
G01 X-27.1224 Y48.4514 
G01 X-27.0195 Y48.6055 
G01 X-26.8885 Y48.7365 
G01 X-26.7344 Y48.8394 
G01 X-26.5633 Y48.9103 
G01 X-26.5418 Y48.9145 
G01 X-26.5418 Y57.0997 
G00 Z2.0000  
G00 X-25.4593 Y7.3862  
G01 Z-0.1000 F100   
G01 X-25.6052 Y7.4605  F250   
G01 X-25.7376 Y7.5568  
G01 X-25.8534 Y7.6726  
G01 X-25.9497 Y7.8050  
G01 X-26.0240 Y7.9509  
G01 X-26.0746 Y8.1066  
G01 X-26.1002 Y8.2683  
G01 X-26.1002 Y10.3117 
G01 X-26.0746 Y10.4734 
G01 X-26.0240 Y10.6291 
G01 X-25.9497 Y10.7750 
G01 X-25.8534 Y10.9074 
G01 X-25.7376 Y11.0232 
G01 X-25.6052 Y11.1195 
G01 X-25.4593 Y11.1938 
G01 X-25.4398 Y11.2001 
G01 X-25.4398 Y11.2561 
G01 X-25.4797 Y11.2431 
G01 X-25.6331 Y11.1650 
G01 X-25.7723 Y11.0638 
G01 X-25.8940 Y10.9421 
G01 X-25.9054 Y10.9265 
G01 X-25.9069 Y10.9227 
G01 X-25.9288 Y10.8943 
G01 X-25.9500 Y10.8651 
G01 X-25.9531 Y10.8625 
G01 X-25.9556 Y10.8593 
G01 X-25.9841 Y10.8374 
G01 X-26.0121 Y10.8148 
G01 X-26.0158 Y10.8131 
G01 X-26.0190 Y10.8107 
G01 X-26.0522 Y10.7969 
G01 X-26.0851 Y10.7823 
G01 X-26.0891 Y10.7816 
G01 X-26.0928 Y10.7801 
G01 X-26.1285 Y10.7754 
G01 X-26.1641 Y10.7697 
G01 X-26.1681 Y10.7702 
G01 X-26.1721 Y10.7696 
G01 X-26.2077 Y10.7743 
G01 X-26.2436 Y10.7781 
G01 X-26.2473 Y10.7796 
G01 X-26.2513 Y10.7801 
G01 X-26.2845 Y10.7938 
G01 X-26.3182 Y10.8068 
G01 X-26.3215 Y10.8091 
G01 X-26.3252 Y10.8107 
G01 X-26.3537 Y10.8325 
G01 X-26.3829 Y10.8537 
G01 X-26.3854 Y10.8569 
G01 X-26.3886 Y10.8593 
G01 X-26.4105 Y10.8879 
G01 X-26.4332 Y10.9159 
G01 X-26.4348 Y10.9196 
G01 X-26.4373 Y10.9228 
G01 X-26.4510 Y10.9560 
G01 X-26.4657 Y10.9889 
G01 X-26.8413 Y11.3653 
G01 X-27.3336 Y11.5692 
G01 X-27.8664 Y11.5692 
G01 X-28.3587 Y11.3653 
G01 X-28.6271 Y11.0969 
G01 X-28.6774 Y11.0466 
G01 X-28.6836 Y11.0404 
G01 X-28.7528 Y11.0004 
G01 X-28.8300 Y10.9798 
G01 X-28.9100 Y10.9798 
G01 X-28.9133 Y10.9806 
G01 X-28.9872 Y11.0004 
G01 X-29.0549 Y11.0395 
G01 X-29.1129 Y11.0969 
G01 X-29.3813 Y11.3653 
G01 X-29.3965 Y11.3716 
G01 X-29.4124 Y11.3838 
G01 X-29.4298 Y11.3938 
G01 X-29.4440 Y11.4080 
G01 X-29.4599 Y11.4203 
G01 X-29.4721 Y11.4362 
G01 X-29.4863 Y11.4504 
G01 X-29.4964 Y11.4678 
G01 X-29.5086 Y11.4837 
G01 X-29.5163 Y11.5022 
G01 X-29.5263 Y11.5196 
G01 X-29.5315 Y11.5390 
G01 X-29.5392 Y11.5575 
G01 X-29.5418 Y11.5774 
G01 X-29.5470 Y11.5968 
G01 X-29.5470 Y11.6169 
G01 X-29.5496 Y11.6368 
G01 X-29.5470 Y11.6567 
G01 X-29.5470 Y15.1796 
G01 X-29.5263 Y15.2568 
G01 X-29.4863 Y15.3260 
G01 X-29.4298 Y15.3825 
G01 X-24.7086 Y20.1037 
G01 X-24.6394 Y20.1437 
G01 X-24.5622 Y20.1644 
G01 X-24.4822 Y20.1644 
G01 X-24.4050 Y20.1437 
G01 X-24.3358 Y20.1037 
G01 X-24.2793 Y20.0472 
G01 X-24.2393 Y19.9780 
G01 X-24.2186 Y19.9008 
G01 X-24.2186 Y19.8470 
G01 X-23.9538 Y19.2076 
G01 X-23.4644 Y18.7182 
G01 X-22.8250 Y18.4534 
G01 X-22.1330 Y18.4534 
G01 X-21.4936 Y18.7182 
G01 X-21.0042 Y19.2076 
G01 X-20.7394 Y19.8470 
G01 X-20.7394 Y20.5390 
G01 X-21.0042 Y21.1784 
G01 X-21.4936 Y21.6678 
G01 X-21.7212 Y21.7620 
G01 X-21.7406 Y21.7672 
G01 X-21.7580 Y21.7773 
G01 X-21.7765 Y21.7849 
G01 X-21.7924 Y21.7972 
G01 X-21.8098 Y21.8072 
G01 X-21.8240 Y21.8214 
G01 X-21.8399 Y21.8336 
G01 X-21.8522 Y21.8495 
G01 X-21.8663 Y21.8637 
G01 X-21.8764 Y21.8811 
G01 X-21.8886 Y21.8970 
G01 X-21.8963 Y21.9156 
G01 X-21.9063 Y21.9330 
G01 X-21.9115 Y21.9523 
G01 X-21.9192 Y21.9709 
G01 X-21.9218 Y21.9908 
G01 X-21.9270 Y22.0102 
G01 X-21.9270 Y22.0302 
G01 X-21.9296 Y22.0501 
G01 X-21.9270 Y22.0700 
G01 X-21.9270 Y38.4206 
G01 X-21.9063 Y38.4978 
G01 X-21.8663 Y38.5670 
G01 X-21.8098 Y38.6235 
G01 X-20.7838 Y39.6496 
G01 X-20.6140 Y39.8193 
G01 X-20.5300 Y40.0222 
G01 X-20.5300 Y43.9911 
G01 X-20.5326 Y44.0110 
G01 X-20.5300 Y44.0309 
G01 X-20.5300 Y44.0510 
G01 X-20.5248 Y44.0703 
G01 X-20.5222 Y44.0902 
G01 X-20.5145 Y44.1088 
G01 X-20.5093 Y44.1282 
G01 X-20.4993 Y44.1456 
G01 X-20.4419 Y44.2840 
G01 X-20.4419 Y44.6956 
G01 X-20.5994 Y45.0759 
G01 X-20.8905 Y45.3669 
G01 X-21.2707 Y45.5244 
G01 X-21.6823 Y45.5244 
G01 X-22.0626 Y45.3669 
G01 X-22.3536 Y45.0759 
G01 X-22.4507 Y44.8414 
G01 X-22.4813 Y44.7676 
G01 X-22.5232 Y44.7130 
G01 X-22.5300 Y44.7041 
G01 X-22.5934 Y44.6555 
G01 X-22.6673 Y44.6249 
G01 X-22.7352 Y44.6159 
G01 X-22.7465 Y44.6145 
G01 X-22.8258 Y44.6249 
G01 X-22.8996 Y44.6555 
G01 X-22.9542 Y44.6974 
G01 X-22.9630 Y44.7041 
G01 X-23.0117 Y44.7676 
G01 X-23.1394 Y45.0759 
G01 X-23.4305 Y45.3669 
G01 X-23.8107 Y45.5244 
G01 X-24.2385 Y45.5244 
G01 X-24.2504 Y45.5212 
G01 X-24.2705 Y45.5212 
G01 X-24.2903 Y45.5186 
G01 X-24.3103 Y45.5212 
G01 X-24.3304 Y45.5212 
G01 X-24.3497 Y45.5264 
G01 X-24.3696 Y45.5290 
G01 X-24.3882 Y45.5367 
G01 X-24.4076 Y45.5419 
G01 X-24.4249 Y45.5520 
G01 X-24.4435 Y45.5596 
G01 X-24.4594 Y45.5719 
G01 X-24.4768 Y45.5819 
G01 X-24.4910 Y45.5961 
G01 X-24.5069 Y45.6083 
G01 X-24.5191 Y45.6242 
G01 X-24.5333 Y45.6384 
G01 X-24.5434 Y45.6558 
G01 X-24.5556 Y45.6717 
G01 X-24.5633 Y45.6903 
G01 X-24.5733 Y45.7077 
G01 X-24.5785 Y45.7270 
G01 X-24.5862 Y45.7455 
G01 X-24.5888 Y45.7655 
G01 X-24.5940 Y45.7849 
G01 X-24.5940 Y45.8049 
G01 X-24.5966 Y45.8248 
G01 X-24.5940 Y45.8447 
G01 X-24.5940 Y45.9136 
G01 X-24.5733 Y45.9908 
G01 X-24.5333 Y46.0600 
G01 X-24.4768 Y46.1165 
G01 X-20.9108 Y49.6826 
G01 X-20.7410 Y49.8523 
G01 X-20.6570 Y50.0552 
G01 X-20.6570 Y55.1846 
G01 X-20.6363 Y55.2618 
G01 X-20.5963 Y55.3310 
G01 X-20.5824 Y55.3449 
G01 X-19.7452 Y56.1822 
G01 X-19.7329 Y56.1981 
G01 X-19.7170 Y56.2103 
G01 X-19.7028 Y56.2245 
G01 X-19.6854 Y56.2346 
G01 X-19.6695 Y56.2468 
G01 X-19.6510 Y56.2545 
G01 X-19.6336 Y56.2645 
G01 X-19.6142 Y56.2697 
G01 X-19.5957 Y56.2774 
G01 X-19.5758 Y56.2800 
G01 X-19.5564 Y56.2852 
G01 X-19.5363 Y56.2852 
G01 X-19.5164 Y56.2878 
G01 X-19.4965 Y56.2852 
G01 X-19.4764 Y56.2852 
G01 X-19.4571 Y56.2800 
G01 X-19.4371 Y56.2774 
G01 X-19.4186 Y56.2697 
G01 X-19.3992 Y56.2645 
G01 X-19.3818 Y56.2545 
G01 X-19.2142 Y56.1850 
G01 X-19.1508 Y56.1364 
G01 X-19.1229 Y56.1000 
G01 X-19.1021 Y56.0729 
G01 X-19.0716 Y55.9991 
G01 X-19.0620 Y55.9265 
G01 X-19.0611 Y55.9198 
G01 X-19.0716 Y55.8406 
G01 X-19.1021 Y55.7667 
G01 X-19.1508 Y55.7033 
G01 X-19.1872 Y55.6754 
G01 X-19.2142 Y55.6546 
G01 X-19.5226 Y55.5269 
G01 X-19.8136 Y55.2359 
G01 X-19.9711 Y54.8556 
G01 X-19.9711 Y54.4440 
G01 X-19.8136 Y54.0638 
G01 X-19.5226 Y53.7728 
G01 X-19.4342 Y53.7361 
G01 X-19.4148 Y53.7309 
G01 X-19.3974 Y53.7209 
G01 X-19.3789 Y53.7132 
G01 X-19.3629 Y53.7010 
G01 X-19.3456 Y53.6910 
G01 X-19.3314 Y53.6768 
G01 X-19.3155 Y53.6646 
G01 X-19.3032 Y53.6486 
G01 X-19.2890 Y53.6345 
G01 X-19.2790 Y53.6171 
G01 X-19.2668 Y53.6012 
G01 X-19.2591 Y53.5826 
G01 X-19.2491 Y53.5652 
G01 X-19.2439 Y53.5458 
G01 X-19.2362 Y53.5273 
G01 X-19.2336 Y53.5074 
G01 X-19.2284 Y53.4880 
G01 X-19.2284 Y53.4679 
G01 X-19.2258 Y53.4480 
G01 X-19.2284 Y53.4282 
G01 X-19.2284 Y53.4081 
G01 X-19.2336 Y53.3887 
G01 X-19.2362 Y53.3688 
G01 X-19.2439 Y53.3502 
G01 X-19.2491 Y53.3309 
G01 X-19.2591 Y53.3135 
G01 X-19.2668 Y53.2949 
G01 X-19.2790 Y53.2790 
G01 X-19.2890 Y53.2616 
G01 X-19.3032 Y53.2474 
G01 X-19.3154 Y53.2315 
G01 X-19.3314 Y53.2193 
G01 X-19.3456 Y53.2051 
G01 X-19.3630 Y53.1951 
G01 X-19.3789 Y53.1828 
G01 X-19.3974 Y53.1752 
G01 X-19.4148 Y53.1651 
G01 X-19.4342 Y53.1599 
G01 X-19.4527 Y53.1523 
G01 X-19.4726 Y53.1496 
G01 X-19.4920 Y53.1444 
G01 X-19.5121 Y53.1444 
G01 X-19.5320 Y53.1418 
G01 X-19.5519 Y53.1444 
G01 X-19.6510 Y53.1444 
G01 X-19.7979 Y53.0836 
G01 X-19.9103 Y52.9712 
G01 X-19.9711 Y52.8243 
G01 X-19.9711 Y51.3954 
G01 X-19.9103 Y51.2485 
G01 X-19.7979 Y51.1361 
G01 X-19.6510 Y51.0752 
G01 X-19.5519 Y51.0752 
G01 X-19.5320 Y51.0779 
G01 X-19.5121 Y51.0752 
G01 X-19.4920 Y51.0752 
G01 X-19.4726 Y51.0700 
G01 X-19.4527 Y51.0674 
G01 X-19.4342 Y51.0597 
G01 X-19.4148 Y51.0545 
G01 X-19.3974 Y51.0445 
G01 X-19.3789 Y51.0368 
G01 X-19.3629 Y51.0246 
G01 X-19.3456 Y51.0146 
G01 X-19.3314 Y51.0004 
G01 X-19.3154 Y50.9882 
G01 X-19.3032 Y50.9722 
G01 X-19.2890 Y50.9581 
G01 X-19.2790 Y50.9407 
G01 X-19.2668 Y50.9248 
G01 X-19.2591 Y50.9062 
G01 X-19.2491 Y50.8888 
G01 X-19.2439 Y50.8695 
G01 X-19.2362 Y50.8509 
G01 X-19.2336 Y50.8310 
G01 X-19.2284 Y50.8116 
G01 X-19.2284 Y50.7915 
G01 X-19.2258 Y50.7716 
G01 X-19.2284 Y50.7518 
G01 X-19.2284 Y50.7317 
G01 X-19.2336 Y50.7123 
G01 X-19.2362 Y50.6924 
G01 X-19.2439 Y50.6738 
G01 X-19.2491 Y50.6545 
G01 X-19.2591 Y50.6371 
G01 X-19.2668 Y50.6185 
G01 X-19.2790 Y50.6026 
G01 X-19.2890 Y50.5852 
G01 X-19.3032 Y50.5710 
G01 X-19.3155 Y50.5551 
G01 X-19.3314 Y50.5429 
G01 X-19.3456 Y50.5287 
G01 X-19.3629 Y50.5187 
G01 X-19.3789 Y50.5064 
G01 X-19.3974 Y50.4988 
G01 X-19.4148 Y50.4887 
G01 X-19.4342 Y50.4835 
G01 X-19.5226 Y50.4469 
G01 X-19.8136 Y50.1559 
G01 X-19.9711 Y49.7756 
G01 X-19.9711 Y49.3640 
G01 X-19.8136 Y48.9838 
G01 X-19.5226 Y48.6927 
G01 X-19.2142 Y48.5650 
G01 X-19.1508 Y48.5164 
G01 X-19.1128 Y48.4668 
G01 X-19.1021 Y48.4529 
G01 X-19.0716 Y48.3791 
G01 X-19.0624 Y48.3098 
G01 X-19.0611 Y48.2998 
G01 X-19.0707 Y48.2273 
G01 X-19.0716 Y48.2206 
G01 X-19.1021 Y48.1467 
G01 X-19.1508 Y48.0833 
G01 X-19.2004 Y48.0453 
G01 X-19.2142 Y48.0346 
G01 X-19.5226 Y47.9069 
G01 X-19.8136 Y47.6159 
G01 X-19.9711 Y47.2356 
G01 X-19.9711 Y46.8240 
G01 X-19.8136 Y46.4438 
G01 X-19.7897 Y46.4198 
G01 X-19.7497 Y46.3506 
G01 X-19.7290 Y46.2734 
G01 X-19.7290 Y11.3634 
G01 X-19.7497 Y11.2862 
G01 X-19.7897 Y11.2170 
G01 X-19.8462 Y11.1605 
G01 X-23.7590 Y7.2476  
G01 X-23.7685 Y7.2346  
G01 X-23.7872 Y7.2195  
G01 X-23.8042 Y7.2025  
G01 X-23.8181 Y7.1944  
G01 X-23.8306 Y7.1843  
G01 X-23.8526 Y7.1745  
G01 X-23.8727 Y7.1629  
G01 X-23.8843 Y7.1428  
G01 X-23.8941 Y7.1208  
G01 X-23.9042 Y7.1083  
G01 X-23.9123 Y7.0944  
G01 X-23.9293 Y7.0774  
G01 X-23.9444 Y7.0587  
G01 X-23.9574 Y7.0492  
G01 X-24.5421 Y6.4646  
G01 X-24.5520 Y6.4547  
G01 X-24.6212 Y6.4147  
G01 X-24.6984 Y6.3940  
G01 X-36.3284 Y6.3940  
G01 X-36.4056 Y6.4147  
G01 X-36.4748 Y6.4547  
G01 X-36.5313 Y6.5112  
G01 X-36.5713 Y6.5804  
G01 X-36.5862 Y6.6361  
G01 X-36.5920 Y6.6576  
G01 X-36.5920 Y6.7376  
G01 X-36.5713 Y6.8148  
G01 X-36.5313 Y6.8840  
G01 X-36.2931 Y7.1222  
G01 X-36.2809 Y7.1381  
G01 X-36.2650 Y7.1503  
G01 X-36.2508 Y7.1645  
G01 X-36.2334 Y7.1746  
G01 X-36.2175 Y7.1868  
G01 X-36.1990 Y7.1945  
G01 X-36.1816 Y7.2045  
G01 X-36.1622 Y7.2097  
G01 X-36.1437 Y7.2174  
G01 X-36.1238 Y7.2200  
G01 X-36.1044 Y7.2252  
G01 X-36.0843 Y7.2252  
G01 X-36.0644 Y7.2278  
G01 X-36.0445 Y7.2252  
G01 X-36.0244 Y7.2252  
G01 X-36.0050 Y7.2200  
G01 X-35.9851 Y7.2174  
G01 X-35.9666 Y7.2097  
G01 X-35.9472 Y7.2045  
G01 X-35.9298 Y7.1945  
G01 X-35.4864 Y7.0108  
G01 X-34.9536 Y7.0108  
G01 X-34.4613 Y7.2147  
G01 X-34.1364 Y7.5396  
G01 X-34.0672 Y7.5796  
G01 X-33.9900 Y7.6002  
G01 X-33.9100 Y7.6002  
G01 X-33.8361 Y7.5804  
G01 X-33.8328 Y7.5796  
G01 X-33.7636 Y7.5396  
G01 X-33.7071 Y7.4831  
G01 X-33.4387 Y7.2147  
G01 X-32.9464 Y7.0108  
G01 X-32.4136 Y7.0108  
G01 X-31.9213 Y7.2147  
G01 X-31.5964 Y7.5396  
G01 X-31.5272 Y7.5796  
G01 X-31.4500 Y7.6002  
G01 X-31.3700 Y7.6002  
G01 X-31.2961 Y7.5804  
G01 X-31.2928 Y7.5796  
G01 X-31.2236 Y7.5396  
G01 X-31.1671 Y7.4831  
G01 X-30.8987 Y7.2147  
G01 X-30.4064 Y7.0108  
G01 X-29.8736 Y7.0108  
G01 X-29.3813 Y7.2147  
G01 X-29.0564 Y7.5396  
G01 X-28.9872 Y7.5796  
G01 X-28.9100 Y7.6002  
G01 X-28.8300 Y7.6002  
G01 X-28.7561 Y7.5804  
G01 X-28.7528 Y7.5796  
G01 X-28.6836 Y7.5396  
G01 X-28.6271 Y7.4831  
G01 X-28.3587 Y7.2147  
G01 X-27.8664 Y7.0108  
G01 X-27.3336 Y7.0108  
G01 X-26.8413 Y7.2147  
G01 X-26.4658 Y7.5902  
G01 X-26.4510 Y7.6240  
G01 X-26.4373 Y7.6572  
G01 X-26.4348 Y7.6604  
G01 X-26.4332 Y7.6641  
G01 X-26.4105 Y7.6921  
G01 X-26.3886 Y7.7207  
G01 X-26.3854 Y7.7231  
G01 X-26.3829 Y7.7263  
G01 X-26.3537 Y7.7475  
G01 X-26.3252 Y7.7693  
G01 X-26.3215 Y7.7709  
G01 X-26.3182 Y7.7732  
G01 X-26.2845 Y7.7862  
G01 X-26.2513 Y7.7999  
G01 X-26.2473 Y7.8004  
G01 X-26.2436 Y7.8019  
G01 X-26.2077 Y7.8057  
G01 X-26.1721 Y7.8104  
G01 X-26.1681 Y7.8098  
G01 X-26.1641 Y7.8102  
G01 X-26.1285 Y7.8046  
G01 X-26.0928 Y7.7999  
G01 X-26.0891 Y7.7984  
G01 X-26.0851 Y7.7977  
G01 X-26.0522 Y7.7831  
G01 X-26.0190 Y7.7693  
G01 X-26.0158 Y7.7669  
G01 X-26.0121 Y7.7652  
G01 X-25.9841 Y7.7426  
G01 X-25.9556 Y7.7207  
G01 X-25.9531 Y7.7175  
G01 X-25.9500 Y7.7149  
G01 X-25.9288 Y7.6857  
G01 X-25.9069 Y7.6572  
G01 X-25.9054 Y7.6535  
G01 X-25.8940 Y7.6379  
G01 X-25.7723 Y7.5162  
G01 X-25.6331 Y7.4150  
G01 X-25.4797 Y7.3369  
G01 X-25.4398 Y7.3239  
G01 X-25.4398 Y7.3799  
G01 X-25.4593 Y7.3862  
G00 Z2.0000  
G00 X-26.5598 Y10.3117 
G01 Z-0.1000 F100   
G01 X-26.5598 Y8.2683  F250   
G01 X-26.5854 Y8.1066  
G01 X-26.6360 Y7.9509  
G01 X-26.7103 Y7.8050  
G01 X-26.8066 Y7.6726  
G01 X-26.9224 Y7.5568  
G01 X-27.0548 Y7.4605  
G01 X-27.2007 Y7.3862  
G01 X-27.3564 Y7.3356  
G01 X-27.5181 Y7.3100  
G01 X-27.6819 Y7.3100  
G01 X-27.8436 Y7.3356  
G01 X-27.9993 Y7.3862  
G01 X-28.1452 Y7.4605  
G01 X-28.2776 Y7.5568  
G01 X-28.3934 Y7.6726  
G01 X-28.4897 Y7.8050  
G01 X-28.5640 Y7.9509  
G01 X-28.6146 Y8.1066  
G01 X-28.6402 Y8.2683  
G01 X-28.6402 Y10.3117 
G01 X-28.6146 Y10.4734 
G01 X-28.5640 Y10.6291 
G01 X-28.4897 Y10.7750 
G01 X-28.3934 Y10.9074 
G01 X-28.2776 Y11.0232 
G01 X-28.1452 Y11.1195 
G01 X-27.9993 Y11.1938 
G01 X-27.8436 Y11.2444 
G01 X-27.6819 Y11.2700 
G01 X-27.5181 Y11.2700 
G01 X-27.3564 Y11.2444 
G01 X-27.2007 Y11.1938 
G01 X-27.0548 Y11.1195 
G01 X-26.9224 Y11.0232 
G01 X-26.8066 Y10.9074 
G01 X-26.7103 Y10.7750 
G01 X-26.6360 Y10.6291 
G01 X-26.5854 Y10.4734 
G01 X-26.5598 Y10.3117 
G00 Z2.0000  
G00 X-29.0998 Y10.3117 
G01 Z-0.1000 F100   
G01 X-29.0998 Y8.2683  F250   
G01 X-29.1254 Y8.1066  
G01 X-29.1760 Y7.9509  
G01 X-29.2503 Y7.8050  
G01 X-29.3466 Y7.6726  
G01 X-29.4624 Y7.5568  
G01 X-29.5948 Y7.4605  
G01 X-29.7407 Y7.3862  
G01 X-29.8964 Y7.3356  
G01 X-30.0581 Y7.3100  
G01 X-30.2219 Y7.3100  
G01 X-30.3836 Y7.3356  
G01 X-30.5393 Y7.3862  
G01 X-30.6852 Y7.4605  
G01 X-30.8176 Y7.5568  
G01 X-30.9334 Y7.6726  
G01 X-31.0297 Y7.8050  
G01 X-31.1040 Y7.9509  
G01 X-31.1546 Y8.1066  
G01 X-31.1802 Y8.2683  
G01 X-31.1802 Y10.3117 
G01 X-31.1546 Y10.4734 
G01 X-31.1040 Y10.6291 
G01 X-31.0297 Y10.7750 
G01 X-30.9334 Y10.9074 
G01 X-30.8176 Y11.0232 
G01 X-30.6852 Y11.1195 
G01 X-30.5393 Y11.1938 
G01 X-30.3836 Y11.2444 
G01 X-30.3518 Y11.2494 
G01 X-30.3518 Y15.5443 
G01 X-30.3133 Y15.6372 
G01 X-30.2422 Y15.7083 
G01 X-23.3668 Y22.5837 
G01 X-23.3668 Y40.1125 
G01 X-23.3883 Y40.1167 
G01 X-23.5594 Y40.1876 
G01 X-23.7135 Y40.2905 
G01 X-23.8445 Y40.4215 
G01 X-23.9474 Y40.5756 
G01 X-24.0183 Y40.7467 
G01 X-24.0544 Y40.9284 
G01 X-24.0544 Y41.1136 
G01 X-24.0183 Y41.2953 
G01 X-23.9474 Y41.4664 
G01 X-23.8445 Y41.6205 
G01 X-23.7135 Y41.7515 
G01 X-23.5594 Y41.8544 
G01 X-23.3883 Y41.9253 
G01 X-23.2066 Y41.9614 
G01 X-23.0214 Y41.9614 
G01 X-22.8397 Y41.9253 
G01 X-22.6686 Y41.8544 
G01 X-22.5145 Y41.7515 
G01 X-22.3835 Y41.6205 
G01 X-22.2806 Y41.4664 
G01 X-22.2097 Y41.2953 
G01 X-22.1736 Y41.1136 
G01 X-22.1736 Y40.9284 
G01 X-22.2097 Y40.7467 
G01 X-22.2806 Y40.5756 
G01 X-22.3835 Y40.4215 
G01 X-22.5145 Y40.2905 
G01 X-22.6686 Y40.1876 
G01 X-22.8397 Y40.1167 
G01 X-22.8612 Y40.1125 
G01 X-22.8612 Y22.4287 
G01 X-22.8997 Y22.3358 
G01 X-29.8462 Y15.3893 
G01 X-29.8462 Y11.2281 
G01 X-29.7407 Y11.1938 
G01 X-29.5948 Y11.1195 
G01 X-29.4624 Y11.0232 
G01 X-29.3466 Y10.9074 
G01 X-29.2503 Y10.7750 
G01 X-29.1760 Y10.6291 
G01 X-29.1254 Y10.4734 
G01 X-29.0998 Y10.3117 
G00 Z2.0000  
G00 X-31.6398 Y10.3117 
G01 Z-0.1000 F100   
G01 X-31.6398 Y8.2683  F250   
G01 X-31.6654 Y8.1066  
G01 X-31.7160 Y7.9509  
G01 X-31.7903 Y7.8050  
G01 X-31.8866 Y7.6726  
G01 X-32.0024 Y7.5568  
G01 X-32.1348 Y7.4605  
G01 X-32.2807 Y7.3862  
G01 X-32.4364 Y7.3356  
G01 X-32.5981 Y7.3100  
G01 X-32.7619 Y7.3100  
G01 X-32.9236 Y7.3356  
G01 X-33.0793 Y7.3862  
G01 X-33.2252 Y7.4605  
G01 X-33.3576 Y7.5568  
G01 X-33.4734 Y7.6726  
G01 X-33.5697 Y7.8050  
G01 X-33.6440 Y7.9509  
G01 X-33.6946 Y8.1066  
G01 X-33.7202 Y8.2683  
G01 X-33.7202 Y10.3117 
G01 X-33.6946 Y10.4734 
G01 X-33.6440 Y10.6291 
G01 X-33.5697 Y10.7750 
G01 X-33.4734 Y10.9074 
G01 X-33.3576 Y11.0232 
G01 X-33.2252 Y11.1195 
G01 X-33.0793 Y11.1938 
G01 X-32.9236 Y11.2444 
G01 X-32.7619 Y11.2700 
G01 X-32.5981 Y11.2700 
G01 X-32.4364 Y11.2444 
G01 X-32.2807 Y11.1938 
G01 X-32.1348 Y11.1195 
G01 X-32.0024 Y11.0232 
G01 X-31.8866 Y10.9074 
G01 X-31.7903 Y10.7750 
G01 X-31.7160 Y10.6291 
G01 X-31.6654 Y10.4734 
G01 X-31.6398 Y10.3117 
G00 Z2.0000  
G00 X-9.6698 Y10.3117 
G01 Z-0.1000 F100   
G01 X-9.6698 Y8.2683  F250   
G01 X-9.6954 Y8.1066  
G01 X-9.7460 Y7.9509  
G01 X-9.8203 Y7.8050  
G01 X-9.9166 Y7.6726  
G01 X-10.0324 Y7.5568  
G01 X-10.1648 Y7.4605  
G01 X-10.3107 Y7.3862  
G01 X-10.4664 Y7.3356  
G01 X-10.6281 Y7.3100  
G01 X-10.7919 Y7.3100  
G01 X-10.9536 Y7.3356  
G01 X-11.1093 Y7.3862  
G01 X-11.2552 Y7.4605  
G01 X-11.3876 Y7.5568  
G01 X-11.5034 Y7.6726  
G01 X-11.5997 Y7.8050  
G01 X-11.6740 Y7.9509  
G01 X-11.7246 Y8.1066  
G01 X-11.7502 Y8.2683  
G01 X-11.7502 Y10.3117 
G01 X-11.7246 Y10.4734 
G01 X-11.6740 Y10.6291 
G01 X-11.5997 Y10.7750 
G01 X-11.5034 Y10.9074 
G01 X-11.3876 Y11.0232 
G01 X-11.2552 Y11.1195 
G01 X-11.1093 Y11.1938 
G01 X-10.9536 Y11.2444 
G01 X-10.7938 Y11.2697 
G01 X-10.7938 Y22.3516 
G01 X-10.8279 Y22.3584 
G01 X-10.9664 Y22.4158 
G01 X-11.0910 Y22.4990 
G01 X-11.1970 Y22.6050 
G01 X-11.2802 Y22.7296 
G01 X-11.3376 Y22.8681 
G01 X-11.3668 Y23.0151 
G01 X-11.3668 Y23.1649 
G01 X-11.3376 Y23.3119 
G01 X-11.2802 Y23.4504 
G01 X-11.1970 Y23.5750 
G01 X-11.0910 Y23.6810 
G01 X-10.9664 Y23.7642 
G01 X-10.8279 Y23.8216 
G01 X-10.6809 Y23.8508 
G01 X-10.5311 Y23.8508 
G01 X-10.3841 Y23.8216 
G01 X-10.2456 Y23.7642 
G01 X-10.1210 Y23.6810 
G01 X-10.0150 Y23.5750 
G01 X-9.9318 Y23.4504 
G01 X-9.8744 Y23.3119 
G01 X-9.8452 Y23.1649 
G01 X-9.8452 Y23.0151 
G01 X-9.8744 Y22.8681 
G01 X-9.9318 Y22.7296 
G01 X-10.0150 Y22.6050 
G01 X-10.1210 Y22.4990 
G01 X-10.2456 Y22.4158 
G01 X-10.2882 Y22.3982 
G01 X-10.2882 Y11.1823 
G01 X-10.1648 Y11.1195 
G01 X-10.0324 Y11.0232 
G01 X-9.9166 Y10.9074 
G01 X-9.8203 Y10.7750 
G01 X-9.7460 Y10.6291 
G01 X-9.6954 Y10.4734 
G01 X-9.6698 Y10.3117 
G00 Z2.0000  
G00 X-29.8319 Y44.4174 
G01 Z-0.1000 F100   
G01 X-29.8319 Y44.5623 F250   
G01 X-29.8036 Y44.7044 
G01 X-29.7482 Y44.8382 
G01 X-29.6677 Y44.9586 
G01 X-29.5653 Y45.0611 
G01 X-29.4449 Y45.1415 
G01 X-29.3110 Y45.1970 
G01 X-29.1689 Y45.2252 
G01 X-29.0241 Y45.2252 
G01 X-28.8820 Y45.1970 
G01 X-28.7482 Y45.1415 
G01 X-28.6277 Y45.0611 
G01 X-28.5253 Y44.9586 
G01 X-28.4448 Y44.8382 
G01 X-28.3894 Y44.7044 
G01 X-28.3611 Y44.5623 
G01 X-28.3611 Y44.4174 
G01 X-28.3894 Y44.2753 
G01 X-28.4448 Y44.1415 
G01 X-28.5253 Y44.0211 
G01 X-28.6277 Y43.9186 
G01 X-28.7482 Y43.8381 
G01 X-28.8820 Y43.7827 
G01 X-29.0241 Y43.7544 
G01 X-29.1689 Y43.7544 
G01 X-29.3110 Y43.7827 
G01 X-29.4449 Y43.8381 
G01 X-29.5653 Y43.9186 
G01 X-29.6677 Y44.0211 
G01 X-29.7482 Y44.1415 
G01 X-29.8036 Y44.2753 
G01 X-29.8319 Y44.4174 
G00 Z2.0000  
G00 X-19.5915 Y52.8452 
G01 Z-0.1000 F100   
G01 X-18.2815 Y52.8452 F250   
G01 X-18.2446 Y52.8300 
G01 X-18.2164 Y52.8017 
G01 X-18.2011 Y52.7648 
G01 X-18.2011 Y51.4549 
G01 X-18.2164 Y51.4180 
G01 X-18.2446 Y51.3897 
G01 X-18.2815 Y51.3744 
G01 X-19.5915 Y51.3744 
G01 X-19.6284 Y51.3897 
G01 X-19.6566 Y51.4180 
G01 X-19.6719 Y51.4549 
G01 X-19.6719 Y52.7648 
G01 X-19.6566 Y52.8017 
G01 X-19.6284 Y52.8300 
G01 X-19.5915 Y52.8452 
G00 Z2.0000  
G00 X-22.2119 Y44.4174 
G01 Z-0.1000 F100   
G01 X-22.2119 Y44.5623 F250   
G01 X-22.1836 Y44.7044 
G01 X-22.1282 Y44.8382 
G01 X-22.0477 Y44.9586 
G01 X-21.9453 Y45.0611 
G01 X-21.8249 Y45.1415 
G01 X-21.6910 Y45.1970 
G01 X-21.5489 Y45.2252 
G01 X-21.4041 Y45.2252 
G01 X-21.2620 Y45.1970 
G01 X-21.1282 Y45.1415 
G01 X-21.0077 Y45.0611 
G01 X-20.9053 Y44.9586 
G01 X-20.8248 Y44.8382 
G01 X-20.7694 Y44.7044 
G01 X-20.7411 Y44.5623 
G01 X-20.7411 Y44.4174 
G01 X-20.7694 Y44.2753 
G01 X-20.8248 Y44.1415 
G01 X-20.8332 Y44.1289 
G01 X-20.8292 Y44.1193 
G01 X-20.8292 Y40.0817 
G01 X-20.8677 Y39.9888 
G01 X-20.9388 Y39.9177 
G01 X-22.2262 Y38.6303 
G01 X-22.2262 Y21.1015 
G01 X-22.2047 Y21.0973 
G01 X-22.0336 Y21.0264 
G01 X-21.8795 Y20.9235 
G01 X-21.7485 Y20.7925 
G01 X-21.6456 Y20.6384 
G01 X-21.5747 Y20.4673 
G01 X-21.5386 Y20.2856 
G01 X-21.5386 Y20.1004 
G01 X-21.5747 Y19.9187 
G01 X-21.6456 Y19.7476 
G01 X-21.7485 Y19.5935 
G01 X-21.8795 Y19.4625 
G01 X-22.0336 Y19.3596 
G01 X-22.2047 Y19.2887 
G01 X-22.3864 Y19.2526 
G01 X-22.5716 Y19.2526 
G01 X-22.7533 Y19.2887 
G01 X-22.9244 Y19.3596 
G01 X-23.0785 Y19.4625 
G01 X-23.2095 Y19.5935 
G01 X-23.3124 Y19.7476 
G01 X-23.3833 Y19.9187 
G01 X-23.4194 Y20.1004 
G01 X-23.4194 Y20.2856 
G01 X-23.3833 Y20.4673 
G01 X-23.3124 Y20.6384 
G01 X-23.2095 Y20.7925 
G01 X-23.0785 Y20.9235 
G01 X-22.9244 Y21.0264 
G01 X-22.7533 Y21.0973 
G01 X-22.7318 Y21.1015 
G01 X-22.7318 Y38.7853 
G01 X-22.6933 Y38.8782 
G01 X-21.3348 Y40.2367 
G01 X-21.3348 Y43.7682 
G01 X-21.4041 Y43.7544 
G01 X-21.5489 Y43.7544 
G01 X-21.6910 Y43.7827 
G01 X-21.8249 Y43.8381 
G01 X-21.9453 Y43.9186 
G01 X-22.0477 Y44.0211 
G01 X-22.1282 Y44.1415 
G01 X-22.1836 Y44.2753 
G01 X-22.2119 Y44.4174 
G00 Z2.0000  
G00 X-19.6719 Y49.4974 
G01 Z-0.1000 F100   
G01 X-19.6719 Y49.6423 F250   
G01 X-19.6436 Y49.7844 
G01 X-19.5882 Y49.9182 
G01 X-19.5077 Y50.0386 
G01 X-19.4053 Y50.1411 
G01 X-19.2849 Y50.2215 
G01 X-19.1510 Y50.2770 
G01 X-19.0089 Y50.3052 
G01 X-18.8641 Y50.3052 
G01 X-18.7220 Y50.2770 
G01 X-18.5882 Y50.2215 
G01 X-18.4677 Y50.1411 
G01 X-18.3653 Y50.0386 
G01 X-18.2848 Y49.9182 
G01 X-18.2294 Y49.7844 
G01 X-18.2011 Y49.6423 
G01 X-18.2011 Y49.4974 
G01 X-18.2294 Y49.3553 
G01 X-18.2848 Y49.2215 
G01 X-18.3653 Y49.1011 
G01 X-18.4677 Y48.9986 
G01 X-18.5882 Y48.9181 
G01 X-18.7220 Y48.8627 
G01 X-18.8641 Y48.8344 
G01 X-19.0089 Y48.8344 
G01 X-19.1510 Y48.8627 
G01 X-19.2849 Y48.9181 
G01 X-19.4053 Y48.9986 
G01 X-19.5077 Y49.1011 
G01 X-19.5882 Y49.2215 
G01 X-19.6436 Y49.3553 
G01 X-19.6719 Y49.4974 
G00 Z2.0000  
G00 X-19.6719 Y54.5774 
G01 Z-0.1000 F100   
G01 X-19.6719 Y54.7223 F250   
G01 X-19.6436 Y54.8644 
G01 X-19.5882 Y54.9982 
G01 X-19.5077 Y55.1186 
G01 X-19.4053 Y55.2211 
G01 X-19.2849 Y55.3015 
G01 X-19.1510 Y55.3570 
G01 X-19.0089 Y55.3852 
G01 X-18.8641 Y55.3852 
G01 X-18.7220 Y55.3570 
G01 X-18.5882 Y55.3015 
G01 X-18.4677 Y55.2211 
G01 X-18.3653 Y55.1186 
G01 X-18.2848 Y54.9982 
G01 X-18.2294 Y54.8644 
G01 X-18.2011 Y54.7223 
G01 X-18.2011 Y54.5774 
G01 X-18.2294 Y54.4353 
G01 X-18.2848 Y54.3015 
G01 X-18.3653 Y54.1811 
G01 X-18.4677 Y54.0786 
G01 X-18.5882 Y53.9981 
G01 X-18.7220 Y53.9427 
G01 X-18.8641 Y53.9144 
G01 X-19.0089 Y53.9144 
G01 X-19.1510 Y53.9427 
G01 X-19.2849 Y53.9981 
G01 X-19.4053 Y54.0786 
G01 X-19.5077 Y54.1811 
G01 X-19.5882 Y54.3015 
G01 X-19.6436 Y54.4353 
G01 X-19.6719 Y54.5774 
G00 Z2.0000  
G00 X-22.2119 Y59.6574 
G01 Z-0.1000 F100   
G01 X-22.2119 Y59.8023 F250   
G01 X-22.1836 Y59.9444 
G01 X-22.1282 Y60.0782 
G01 X-22.0477 Y60.1986 
G01 X-21.9453 Y60.3011 
G01 X-21.8249 Y60.3815 
G01 X-21.6910 Y60.4370 
G01 X-21.5489 Y60.4652 
G01 X-21.4041 Y60.4652 
G01 X-21.2620 Y60.4370 
G01 X-21.1282 Y60.3815 
G01 X-21.0077 Y60.3011 
G01 X-20.9053 Y60.1986 
G01 X-20.8248 Y60.0782 
G01 X-20.7694 Y59.9444 
G01 X-20.7438 Y59.8158 
G01 X-18.1107 Y59.8158 
G01 X-18.0178 Y59.7773 
G01 X-17.9467 Y59.7062 
G01 X-16.4938 Y58.2533 
G01 X-16.4227 Y58.1822 
G01 X-16.3842 Y58.0893 
G01 X-16.3842 Y46.4317 
G01 X-16.4227 Y46.3388 
G01 X-16.4938 Y46.2677 
G01 X-16.7652 Y45.9963 
G01 X-16.7652 Y44.9775 
G01 X-16.7437 Y44.9733 
G01 X-16.5726 Y44.9024 
G01 X-16.4185 Y44.7995 
G01 X-16.2875 Y44.6685 
G01 X-16.1846 Y44.5144 
G01 X-16.1137 Y44.3433 
G01 X-16.0776 Y44.1616 
G01 X-16.0776 Y43.9764 
G01 X-16.1137 Y43.7947 
G01 X-16.1846 Y43.6236 
G01 X-16.2875 Y43.4695 
G01 X-16.4185 Y43.3385 
G01 X-16.5726 Y43.2356 
G01 X-16.7437 Y43.1647 
G01 X-16.9254 Y43.1286 
G01 X-17.1106 Y43.1286 
G01 X-17.2923 Y43.1647 
G01 X-17.4634 Y43.2356 
G01 X-17.6175 Y43.3385 
G01 X-17.7485 Y43.4695 
G01 X-17.8514 Y43.6236 
G01 X-17.9223 Y43.7947 
G01 X-17.9584 Y43.9764 
G01 X-17.9584 Y44.1616 
G01 X-17.9223 Y44.3433 
G01 X-17.8514 Y44.5144 
G01 X-17.7485 Y44.6685 
G01 X-17.6175 Y44.7995 
G01 X-17.4634 Y44.9024 
G01 X-17.2923 Y44.9733 
G01 X-17.2708 Y44.9775 
G01 X-17.2708 Y46.1513 
G01 X-17.2323 Y46.2442 
G01 X-16.8898 Y46.5867 
G01 X-16.8898 Y57.9343 
G01 X-18.2657 Y59.3102 
G01 X-20.8725 Y59.3102 
G01 X-20.9053 Y59.2611 
G01 X-21.0077 Y59.1586 
G01 X-21.1282 Y59.0781 
G01 X-21.2620 Y59.0227 
G01 X-21.4041 Y58.9944 
G01 X-21.5489 Y58.9944 
G01 X-21.6910 Y59.0227 
G01 X-21.8249 Y59.0781 
G01 X-21.9453 Y59.1586 
G01 X-22.0477 Y59.2611 
G01 X-22.1282 Y59.3815 
G01 X-22.1836 Y59.5153 
G01 X-22.2119 Y59.6574 
G00 Z2.0000  
G00 X-32.3719 Y44.4174 
G01 Z-0.1000 F100   
G01 X-32.3719 Y44.5623 F250   
G01 X-32.3436 Y44.7044 
G01 X-32.2882 Y44.8382 
G01 X-32.2077 Y44.9586 
G01 X-32.1053 Y45.0611 
G01 X-31.9849 Y45.1415 
G01 X-31.8510 Y45.1970 
G01 X-31.7089 Y45.2252 
G01 X-31.5641 Y45.2252 
G01 X-31.4220 Y45.1970 
G01 X-31.2882 Y45.1415 
G01 X-31.1677 Y45.0611 
G01 X-31.0653 Y44.9586 
G01 X-30.9848 Y44.8382 
G01 X-30.9294 Y44.7044 
G01 X-30.9011 Y44.5623 
G01 X-30.9011 Y44.4174 
G01 X-30.9294 Y44.2753 
G01 X-30.9848 Y44.1415 
G01 X-31.0653 Y44.0211 
G01 X-31.1677 Y43.9186 
G01 X-31.2882 Y43.8381 
G01 X-31.4220 Y43.7827 
G01 X-31.5641 Y43.7544 
G01 X-31.7089 Y43.7544 
G01 X-31.8510 Y43.7827 
G01 X-31.9849 Y43.8381 
G01 X-32.1053 Y43.9186 
G01 X-32.2077 Y44.0211 
G01 X-32.2882 Y44.1415 
G01 X-32.3436 Y44.2753 
G01 X-32.3719 Y44.4174 
G00 Z2.0000  
G00 X-37.4519 Y46.9574 
G01 Z-0.1000 F100   
G01 X-37.4519 Y47.1023 F250   
G01 X-37.4236 Y47.2444 
G01 X-37.3682 Y47.3782 
G01 X-37.2877 Y47.4986 
G01 X-37.1853 Y47.6011 
G01 X-37.0648 Y47.6815 
G01 X-36.9310 Y47.7370 
G01 X-36.7889 Y47.7652 
G01 X-36.6441 Y47.7652 
G01 X-36.5020 Y47.7370 
G01 X-36.3682 Y47.6815 
G01 X-36.2477 Y47.6011 
G01 X-36.1453 Y47.4986 
G01 X-36.0648 Y47.3782 
G01 X-36.0094 Y47.2444 
G01 X-35.9811 Y47.1023 
G01 X-35.9811 Y46.9574 
G01 X-36.0094 Y46.8153 
G01 X-36.0648 Y46.6815 
G01 X-36.1453 Y46.5611 
G01 X-36.2477 Y46.4586 
G01 X-36.3682 Y46.3781 
G01 X-36.5020 Y46.3227 
G01 X-36.5772 Y46.3077 
G01 X-36.5772 Y44.0467 
G01 X-32.5517 Y40.0212 
G01 X-32.5132 Y39.9283 
G01 X-32.5132 Y19.4505 
G01 X-32.4917 Y19.4463 
G01 X-32.3206 Y19.3754 
G01 X-32.1665 Y19.2725 
G01 X-32.0355 Y19.1415 
G01 X-31.9326 Y18.9874 
G01 X-31.8617 Y18.8163 
G01 X-31.8256 Y18.6346 
G01 X-31.8256 Y18.4494 
G01 X-31.8617 Y18.2677 
G01 X-31.9326 Y18.0966 
G01 X-32.0355 Y17.9425 
G01 X-32.1665 Y17.8115 
G01 X-32.3206 Y17.7086 
G01 X-32.4917 Y17.6377 
G01 X-32.6734 Y17.6016 
G01 X-32.8586 Y17.6016 
G01 X-33.0403 Y17.6377 
G01 X-33.2114 Y17.7086 
G01 X-33.3655 Y17.8115 
G01 X-33.4965 Y17.9425 
G01 X-33.5994 Y18.0966 
G01 X-33.6703 Y18.2677 
G01 X-33.7064 Y18.4494 
G01 X-33.7064 Y18.6346 
G01 X-33.6703 Y18.8163 
G01 X-33.5994 Y18.9874 
G01 X-33.4965 Y19.1415 
G01 X-33.3655 Y19.2725 
G01 X-33.2114 Y19.3754 
G01 X-33.0403 Y19.4463 
G01 X-33.0188 Y19.4505 
G01 X-33.0188 Y39.7733 
G01 X-36.9732 Y43.7277 
G01 X-37.0443 Y43.7988 
G01 X-37.0828 Y43.8917 
G01 X-37.0828 Y46.3901 
G01 X-37.1853 Y46.4586 
G01 X-37.2877 Y46.5611 
G01 X-37.3682 Y46.6815 
G01 X-37.4236 Y46.8153 
G01 X-37.4519 Y46.9574 
G00 Z2.0000  
G00 X-36.0648 Y49.2215 
G01 Z-0.1000 F100   
G01 X-36.1453 Y49.1011 F250   
G01 X-36.2477 Y48.9986 
G01 X-36.3682 Y48.9181 
G01 X-36.5020 Y48.8627 
G01 X-36.6441 Y48.8344 
G01 X-36.7889 Y48.8344 
G01 X-36.9310 Y48.8627 
G01 X-37.0648 Y48.9181 
G01 X-37.1853 Y48.9986 
G01 X-37.2877 Y49.1011 
G01 X-37.3682 Y49.2215 
G01 X-37.3867 Y49.2662 
G01 X-37.4469 Y49.2662 
G01 X-37.3910 Y49.1565 
G01 X-37.3401 Y49.0865 
G01 X-37.3182 Y49.0579 
G01 X-37.3167 Y49.0542 
G01 X-37.3143 Y49.0510 
G01 X-37.3014 Y49.0173 
G01 X-37.2876 Y48.9841 
G01 X-37.2871 Y48.9801 
G01 X-37.2856 Y48.9763 
G01 X-37.2819 Y48.9405 
G01 X-37.2772 Y48.9048 
G01 X-37.2777 Y48.9008 
G01 X-37.2773 Y48.8968 
G01 X-37.2829 Y48.8613 
G01 X-37.2876 Y48.8256 
G01 X-37.2891 Y48.8218 
G01 X-37.2898 Y48.8179 
G01 X-37.3044 Y48.7850 
G01 X-37.3182 Y48.7517 
G01 X-37.3207 Y48.7485 
G01 X-37.3223 Y48.7448 
G01 X-37.3450 Y48.7168 
G01 X-37.3669 Y48.6883 
G01 X-37.3701 Y48.6859 
G01 X-37.3726 Y48.6827 
G01 X-37.4018 Y48.6615 
G01 X-37.4303 Y48.6396 
G01 X-37.4340 Y48.6381 
G01 X-37.4373 Y48.6357 
G01 X-37.4709 Y48.6228 
G01 X-37.5237 Y48.6010 
G01 X-37.7499 Y48.3747 
G01 X-39.5840 Y46.5407 
G01 X-39.6680 Y46.3378 
G01 X-39.6680 Y44.2950 
G01 X-39.6654 Y44.2751 
G01 X-39.6680 Y44.2552 
G01 X-39.6680 Y44.2352 
G01 X-39.6732 Y44.2158 
G01 X-39.6758 Y44.1959 
G01 X-39.6835 Y44.1773 
G01 X-39.6887 Y44.1579 
G01 X-39.6987 Y44.1406 
G01 X-39.7064 Y44.1220 
G01 X-39.7186 Y44.1061 
G01 X-39.7287 Y44.0887 
G01 X-39.7428 Y44.0745 
G01 X-39.7551 Y44.0586 
G01 X-39.7710 Y44.0464 
G01 X-39.7852 Y44.0322 
G01 X-39.8026 Y44.0222 
G01 X-39.8185 Y44.0099 
G01 X-39.8370 Y44.0023 
G01 X-39.8544 Y43.9922 
G01 X-39.8738 Y43.9870 
G01 X-40.1014 Y43.8928 
G01 X-40.5908 Y43.4034 
G01 X-40.8556 Y42.7640 
G01 X-40.8556 Y42.0720 
G01 X-40.5859 Y41.4208 
G01 X-40.5758 Y41.4034 
G01 X-40.5706 Y41.3840 
G01 X-40.5629 Y41.3655 
G01 X-40.5603 Y41.3456 
G01 X-40.5551 Y41.3262 
G01 X-40.5551 Y41.3061 
G01 X-40.5525 Y41.2862 
G01 X-40.5551 Y41.2663 
G01 X-40.5551 Y41.2462 
G01 X-40.5603 Y41.2268 
G01 X-40.5629 Y41.2069 
G01 X-40.5706 Y41.1884 
G01 X-40.5758 Y41.1690 
G01 X-40.5859 Y41.1516 
G01 X-40.5935 Y41.1331 
G01 X-40.6058 Y41.1172 
G01 X-40.6158 Y41.0998 
G01 X-40.6300 Y41.0856 
G01 X-40.6422 Y41.0697 
G01 X-40.6581 Y41.0574 
G01 X-40.6723 Y41.0433 
G01 X-40.6897 Y41.0332 
G01 X-40.7056 Y41.0210 
G01 X-40.7242 Y41.0133 
G01 X-40.7415 Y41.0033 
G01 X-40.7609 Y40.9981 
G01 X-40.7795 Y40.9904 
G01 X-40.7994 Y40.9878 
G01 X-40.8188 Y40.9826 
G01 X-40.8388 Y40.9826 
G01 X-40.8587 Y40.9800 
G01 X-40.8786 Y40.9826 
G01 X-41.4940 Y40.9826 
G01 X-42.1334 Y40.7178 
G01 X-42.1380 Y40.7132 
G01 X-42.1789 Y40.6896 
G01 X-42.2072 Y40.6732 
G01 X-42.2451 Y40.6631 
G01 X-42.2844 Y40.6525 
G01 X-42.3239 Y40.6525 
G01 X-42.3643 Y40.6525 
G01 X-42.4081 Y40.6642 
G01 X-42.4416 Y40.6732 
G01 X-42.4768 Y40.6935 
G01 X-42.5108 Y40.7132 
G01 X-42.5386 Y40.7410 
G01 X-42.5673 Y40.7697 
G01 X-42.5909 Y40.8106 
G01 X-42.6073 Y40.8389 
G01 X-42.6175 Y40.8768 
G01 X-42.6280 Y40.9161 
G01 X-42.6280 Y40.9556 
G01 X-42.6280 Y40.9961 
G01 X-42.6280 Y53.5336 
G01 X-42.6073 Y53.6108 
G01 X-42.5673 Y53.6800 
G01 X-42.5108 Y53.7365 
G01 X-34.8840 Y61.3633 
G01 X-34.8148 Y61.4033 
G01 X-34.7376 Y61.4240 
G01 X-32.6994 Y61.4240 
G01 X-32.6222 Y61.4033 
G01 X-32.5530 Y61.3633 
G01 X-32.5191 Y61.3294 
G01 X-30.4196 Y59.2299 
G01 X-30.4037 Y59.2177 
G01 X-30.3914 Y59.2018 
G01 X-30.3773 Y59.1876 
G01 X-30.3672 Y59.1702 
G01 X-30.3550 Y59.1543 
G01 X-30.3473 Y59.1358 
G01 X-30.3373 Y59.1184 
G01 X-30.3321 Y59.0990 
G01 X-30.3244 Y59.0805 
G01 X-30.3218 Y59.0606 
G01 X-30.3166 Y59.0412 
G01 X-30.3166 Y59.0211 
G01 X-30.3140 Y59.0012 
G01 X-30.3166 Y58.9813 
G01 X-30.3166 Y58.9612 
G01 X-30.3218 Y58.9418 
G01 X-30.3244 Y58.9219 
G01 X-30.3321 Y58.9034 
G01 X-30.3373 Y58.8840 
G01 X-30.3473 Y58.8666 
G01 X-30.4416 Y58.6390 
G01 X-30.4416 Y57.9470 
G01 X-30.1768 Y57.3076 
G01 X-29.6874 Y56.8182 
G01 X-29.0480 Y56.5534 
G01 X-28.3560 Y56.5534 
G01 X-27.7166 Y56.8182 
G01 X-27.3875 Y57.1473 
G01 X-27.3381 Y57.1967 
G01 X-27.3310 Y57.2038 
G01 X-27.2618 Y57.2438 
G01 X-27.1846 Y57.2645 
G01 X-27.1046 Y57.2645 
G01 X-27.0274 Y57.2438 
G01 X-26.9582 Y57.2038 
G01 X-26.9017 Y57.1473 
G01 X-26.8617 Y57.0781 
G01 X-26.8410 Y57.0009 
G01 X-26.8410 Y49.8830 
G01 X-26.8384 Y49.8631 
G01 X-26.8410 Y49.8432 
G01 X-26.8410 Y49.8232 
G01 X-26.8462 Y49.8038 
G01 X-26.8488 Y49.7839 
G01 X-26.8565 Y49.7653 
G01 X-26.8617 Y49.7460 
G01 X-26.8717 Y49.7286 
G01 X-26.8794 Y49.7100 
G01 X-26.8916 Y49.6941 
G01 X-26.9017 Y49.6767 
G01 X-26.9158 Y49.6625 
G01 X-26.9281 Y49.6466 
G01 X-26.9440 Y49.6344 
G01 X-26.9582 Y49.6202 
G01 X-26.9756 Y49.6102 
G01 X-26.9915 Y49.5979 
G01 X-27.0100 Y49.5903 
G01 X-27.0274 Y49.5802 
G01 X-27.0468 Y49.5750 
G01 X-27.2744 Y49.4808 
G01 X-27.7638 Y48.9914 
G01 X-28.0286 Y48.3520 
G01 X-28.0286 Y47.6600 
G01 X-27.7638 Y47.0206 
G01 X-27.2744 Y46.5312 
G01 X-26.6350 Y46.2664 
G01 X-25.9616 Y46.2664 
G01 X-25.8844 Y46.2457 
G01 X-25.8152 Y46.2057 
G01 X-25.7587 Y46.1492 
G01 X-25.7187 Y46.0800 
G01 X-25.6980 Y46.0028 
G01 X-25.6980 Y45.7283 
G01 X-25.6954 Y45.7084 
G01 X-25.6980 Y45.6885 
G01 X-25.6980 Y45.6685 
G01 X-25.7032 Y45.6491 
G01 X-25.7058 Y45.6292 
G01 X-25.7135 Y45.6106 
G01 X-25.7187 Y45.5913 
G01 X-25.7287 Y45.5739 
G01 X-25.7364 Y45.5553 
G01 X-25.7486 Y45.5394 
G01 X-25.7587 Y45.5220 
G01 X-25.7728 Y45.5078 
G01 X-25.7851 Y45.4919 
G01 X-25.8010 Y45.4797 
G01 X-25.8152 Y45.4655 
G01 X-25.8326 Y45.4555 
G01 X-25.8485 Y45.4432 
G01 X-25.8670 Y45.4356 
G01 X-25.8844 Y45.4255 
G01 X-25.9038 Y45.4203 
G01 X-25.9223 Y45.4127 
G01 X-25.9422 Y45.4100 
G01 X-25.9616 Y45.4048 
G01 X-25.9817 Y45.4048 
G01 X-26.0016 Y45.4022 
G01 X-26.0215 Y45.4048 
G01 X-26.0416 Y45.4048 
G01 X-26.0610 Y45.4100 
G01 X-26.0809 Y45.4127 
G01 X-26.0994 Y45.4203 
G01 X-26.1188 Y45.4255 
G01 X-26.1362 Y45.4356 
G01 X-26.3507 Y45.5244 
G01 X-26.7623 Y45.5244 
G01 X-27.1426 Y45.3669 
G01 X-27.4336 Y45.0759 
G01 X-27.5613 Y44.7676 
G01 X-27.6100 Y44.7041 
G01 X-27.6595 Y44.6661 
G01 X-27.6734 Y44.6555 
G01 X-27.7473 Y44.6249 
G01 X-27.8165 Y44.6158 
G01 X-27.8265 Y44.6145 
G01 X-27.8991 Y44.6240 
G01 X-27.9058 Y44.6249 
G01 X-27.9796 Y44.6555 
G01 X-28.0430 Y44.7041 
G01 X-28.0811 Y44.7537 
G01 X-28.0917 Y44.7676 
G01 X-28.2194 Y45.0759 
G01 X-28.5105 Y45.3669 
G01 X-28.8907 Y45.5244 
G01 X-29.3023 Y45.5244 
G01 X-29.6826 Y45.3669 
G01 X-29.9736 Y45.0759 
G01 X-30.1013 Y44.7676 
G01 X-30.1133 Y44.7519 
G01 X-30.1500 Y44.7041 
G01 X-30.2125 Y44.6562 
G01 X-30.2872 Y44.6249 
G01 X-30.3665 Y44.6145 
G01 X-30.3749 Y44.6156 
G01 X-30.4458 Y44.6249 
G01 X-30.5196 Y44.6555 
G01 X-30.5352 Y44.6675 
G01 X-30.5830 Y44.7041 
G01 X-30.6310 Y44.7667 
G01 X-30.6347 Y44.7747 
G01 X-30.7594 Y45.0759 
G01 X-31.0505 Y45.3669 
G01 X-31.4307 Y45.5244 
G01 X-31.8423 Y45.5244 
G01 X-32.2226 Y45.3669 
G01 X-32.5136 Y45.0759 
G01 X-32.6107 Y44.8414 
G01 X-32.6413 Y44.7676 
G01 X-32.6832 Y44.7130 
G01 X-32.6900 Y44.7041 
G01 X-32.7534 Y44.6555 
G01 X-32.8273 Y44.6249 
G01 X-32.8952 Y44.6159 
G01 X-32.9065 Y44.6145 
G01 X-32.9858 Y44.6249 
G01 X-33.0596 Y44.6555 
G01 X-33.1142 Y44.6974 
G01 X-33.1230 Y44.7041 
G01 X-33.1717 Y44.7676 
G01 X-33.2994 Y45.0759 
G01 X-33.5905 Y45.3669 
G01 X-33.6592 Y45.3954 
G01 X-33.6786 Y45.4006 
G01 X-33.6960 Y45.4106 
G01 X-33.7145 Y45.4183 
G01 X-33.7304 Y45.4305 
G01 X-33.7478 Y45.4406 
G01 X-33.7620 Y45.4548 
G01 X-33.7779 Y45.4670 
G01 X-33.7902 Y45.4829 
G01 X-33.8043 Y45.4971 
G01 X-33.8144 Y45.5145 
G01 X-33.8266 Y45.5304 
G01 X-33.8343 Y45.5489 
G01 X-33.8443 Y45.5663 
G01 X-33.8495 Y45.5857 
G01 X-33.8572 Y45.6043 
G01 X-33.8598 Y45.6242 
G01 X-33.8650 Y45.6435 
G01 X-33.8650 Y45.6636 
G01 X-33.8676 Y45.6835 
G01 X-33.8650 Y45.7034 
G01 X-33.8650 Y46.3378 
G01 X-33.9490 Y46.5407 
G01 X-34.1753 Y46.7669 
G01 X-36.0081 Y48.5998 
G01 X-36.0189 Y48.6039 
G01 X-36.0221 Y48.6063 
G01 X-36.0259 Y48.6078 
G01 X-36.0544 Y48.6297 
G01 X-36.0835 Y48.6509 
G01 X-36.0861 Y48.6540 
G01 X-36.0893 Y48.6565 
G01 X-36.1112 Y48.6850 
G01 X-36.1339 Y48.7130 
G01 X-36.1355 Y48.7167 
G01 X-36.1379 Y48.7199 
G01 X-36.1517 Y48.7532 
G01 X-36.1664 Y48.7860 
G01 X-36.1670 Y48.7900 
G01 X-36.1685 Y48.7937 
G01 X-36.1732 Y48.8294 
G01 X-36.1789 Y48.8650 
G01 X-36.1784 Y48.8690 
G01 X-36.1790 Y48.8730 
G01 X-36.1743 Y48.9086 
G01 X-36.1705 Y48.9445 
G01 X-36.1691 Y48.9483 
G01 X-36.1685 Y48.9523 
G01 X-36.1548 Y48.9855 
G01 X-36.1419 Y49.0191 
G01 X-36.1395 Y49.0224 
G01 X-36.1380 Y49.0261 
G01 X-36.1160 Y49.0547 
G01 X-36.0420 Y49.1565 
G01 X-35.9861 Y49.2662 
G01 X-36.0463 Y49.2662 
G01 X-36.0648 Y49.2215 
G00 Z2.0000  
G00 X-34.9119 Y44.4174 
G01 Z-0.1000 F100   
G01 X-34.9119 Y44.5623 F250   
G01 X-34.8836 Y44.7044 
G01 X-34.8282 Y44.8382 
G01 X-34.7477 Y44.9586 
G01 X-34.6698 Y45.0366 
G01 X-34.6698 Y46.1233 
G01 X-36.4267 Y47.8802 
G01 X-37.1063 Y47.8802 
G01 X-38.8632 Y46.1233 
G01 X-38.8632 Y43.3265 
G01 X-38.8417 Y43.3223 
G01 X-38.6706 Y43.2514 
G01 X-38.5165 Y43.1485 
G01 X-38.3855 Y43.0175 
G01 X-38.2826 Y42.8634 
G01 X-38.2117 Y42.6923 
G01 X-38.1756 Y42.5106 
G01 X-38.1756 Y42.3254 
G01 X-38.2117 Y42.1437 
G01 X-38.2826 Y41.9726 
G01 X-38.3855 Y41.8185 
G01 X-38.5165 Y41.6875 
G01 X-38.6706 Y41.5846 
G01 X-38.8417 Y41.5137 
G01 X-39.0234 Y41.4776 
G01 X-39.2086 Y41.4776 
G01 X-39.3903 Y41.5137 
G01 X-39.5614 Y41.5846 
G01 X-39.7155 Y41.6875 
G01 X-39.8465 Y41.8185 
G01 X-39.9494 Y41.9726 
G01 X-40.0203 Y42.1437 
G01 X-40.0564 Y42.3254 
G01 X-40.0564 Y42.5106 
G01 X-40.0203 Y42.6923 
G01 X-39.9494 Y42.8634 
G01 X-39.8465 Y43.0175 
G01 X-39.7155 Y43.1485 
G01 X-39.5614 Y43.2514 
G01 X-39.3903 Y43.3223 
G01 X-39.3688 Y43.3265 
G01 X-39.3688 Y46.2783 
G01 X-39.3303 Y46.3712 
G01 X-37.4253 Y48.2762 
G01 X-37.3542 Y48.3473 
G01 X-37.2613 Y48.3858 
G01 X-36.2717 Y48.3858 
G01 X-36.1788 Y48.3473 
G01 X-34.2738 Y46.4423 
G01 X-34.2027 Y46.3712 
G01 X-34.1642 Y46.2783 
G01 X-34.1642 Y45.2252 
G01 X-34.1041 Y45.2252 
G01 X-33.9620 Y45.1970 
G01 X-33.8282 Y45.1415 
G01 X-33.7077 Y45.0611 
G01 X-33.6053 Y44.9586 
G01 X-33.5248 Y44.8382 
G01 X-33.4694 Y44.7044 
G01 X-33.4411 Y44.5623 
G01 X-33.4411 Y44.4174 
G01 X-33.4694 Y44.2753 
G01 X-33.5248 Y44.1415 
G01 X-33.6053 Y44.0211 
G01 X-33.7077 Y43.9186 
G01 X-33.8282 Y43.8381 
G01 X-33.9620 Y43.7827 
G01 X-34.1041 Y43.7544 
G01 X-34.2489 Y43.7544 
G01 X-34.3910 Y43.7827 
G01 X-34.5249 Y43.8381 
G01 X-34.6453 Y43.9186 
G01 X-34.7477 Y44.0211 
G01 X-34.8282 Y44.1415 
G01 X-34.8836 Y44.2753 
G01 X-34.9119 Y44.4174 
G00 Z2.0000  
G00 X-24.7519 Y44.4174 
G01 Z-0.1000 F100   
G01 X-24.7519 Y44.5623 F250   
G01 X-24.7236 Y44.7044 
G01 X-24.6682 Y44.8382 
G01 X-24.5877 Y44.9586 
G01 X-24.4853 Y45.0611 
G01 X-24.3649 Y45.1415 
G01 X-24.2310 Y45.1970 
G01 X-24.0889 Y45.2252 
G01 X-23.9441 Y45.2252 
G01 X-23.8020 Y45.1970 
G01 X-23.6682 Y45.1415 
G01 X-23.5477 Y45.0611 
G01 X-23.4453 Y44.9586 
G01 X-23.3648 Y44.8382 
G01 X-23.3094 Y44.7044 
G01 X-23.2811 Y44.5623 
G01 X-23.2811 Y44.4174 
G01 X-23.3094 Y44.2753 
G01 X-23.3648 Y44.1415 
G01 X-23.4453 Y44.0211 
G01 X-23.5477 Y43.9186 
G01 X-23.6367 Y43.8592 
G01 X-23.6617 Y43.7988 
G01 X-23.7328 Y43.7277 
G01 X-24.8932 Y42.5673 
G01 X-24.8932 Y23.1907 
G01 X-24.9317 Y23.0978 
G01 X-25.0028 Y23.0267 
G01 X-32.7068 Y15.3227 
G01 X-32.6946 Y15.3044 
G01 X-32.6237 Y15.1333 
G01 X-32.5876 Y14.9516 
G01 X-32.5876 Y14.7664 
G01 X-32.6237 Y14.5847 
G01 X-32.6946 Y14.4136 
G01 X-32.7975 Y14.2595 
G01 X-32.9285 Y14.1285 
G01 X-33.0826 Y14.0256 
G01 X-33.2537 Y13.9547 
G01 X-33.4354 Y13.9186 
G01 X-33.6206 Y13.9186 
G01 X-33.8023 Y13.9547 
G01 X-33.9734 Y14.0256 
G01 X-34.1275 Y14.1285 
G01 X-34.2585 Y14.2595 
G01 X-34.3614 Y14.4136 
G01 X-34.4323 Y14.5847 
G01 X-34.4684 Y14.7664 
G01 X-34.4684 Y14.9516 
G01 X-34.4323 Y15.1333 
G01 X-34.3614 Y15.3044 
G01 X-34.2585 Y15.4585 
G01 X-34.1275 Y15.5895 
G01 X-33.9734 Y15.6924 
G01 X-33.8023 Y15.7633 
G01 X-33.6206 Y15.7994 
G01 X-33.4354 Y15.7994 
G01 X-33.2537 Y15.7633 
G01 X-33.0826 Y15.6924 
G01 X-33.0643 Y15.6802 
G01 X-25.3988 Y23.3457 
G01 X-25.3988 Y42.7223 
G01 X-25.3603 Y42.8152 
G01 X-24.3454 Y43.8301 
G01 X-24.3649 Y43.8381 
G01 X-24.4853 Y43.9186 
G01 X-24.5877 Y44.0211 
G01 X-24.6682 Y44.1415 
G01 X-24.7236 Y44.2753 
G01 X-24.7519 Y44.4174 
G00 Z2.0000  
G00 X-12.2393 Y31.6468 
G01 Z-0.1000 F100   
G01 X-12.1682 Y31.5757 F250   
G01 X-11.0311 Y30.4387 
G01 X-10.9879 Y30.4566 
G01 X-10.8409 Y30.4858 
G01 X-10.6911 Y30.4858 
G01 X-10.5441 Y30.4566 
G01 X-10.4056 Y30.3992 
G01 X-10.2810 Y30.3160 
G01 X-10.1750 Y30.2100 
G01 X-10.0918 Y30.0854 
G01 X-10.0344 Y29.9469 
G01 X-10.0052 Y29.7999 
G01 X-10.0052 Y29.6501 
G01 X-10.0344 Y29.5031 
G01 X-10.0918 Y29.3646 
G01 X-10.1750 Y29.2400 
G01 X-10.2810 Y29.1340 
G01 X-10.4056 Y29.0508 
G01 X-10.5441 Y28.9934 
G01 X-10.6911 Y28.9642 
G01 X-10.8409 Y28.9642 
G01 X-10.9879 Y28.9934 
G01 X-11.1264 Y29.0508 
G01 X-11.2510 Y29.1340 
G01 X-11.3570 Y29.2400 
G01 X-11.4402 Y29.3646 
G01 X-11.4976 Y29.5031 
G01 X-11.5268 Y29.6501 
G01 X-11.5268 Y29.7999 
G01 X-11.4976 Y29.9469 
G01 X-11.4402 Y30.0854 
G01 X-11.4213 Y30.1137 
G01 X-12.3825 Y31.0750 
G01 X-12.9552 Y30.5023 
G01 X-12.9552 Y11.2277 
G01 X-12.8507 Y11.1938 
G01 X-12.7048 Y11.1195 
G01 X-12.5724 Y11.0232 
G01 X-12.4566 Y10.9074 
G01 X-12.3603 Y10.7750 
G01 X-12.2860 Y10.6291 
G01 X-12.2354 Y10.4734 
G01 X-12.2098 Y10.3117 
G01 X-12.2098 Y8.2683  
G01 X-12.2354 Y8.1066  
G01 X-12.2860 Y7.9509  
G01 X-12.3603 Y7.8050  
G01 X-12.4566 Y7.6726  
G01 X-12.5724 Y7.5568  
G01 X-12.7048 Y7.4605  
G01 X-12.8507 Y7.3862  
G01 X-13.0064 Y7.3356  
G01 X-13.1681 Y7.3100  
G01 X-13.3319 Y7.3100  
G01 X-13.4936 Y7.3356  
G01 X-13.6493 Y7.3862  
G01 X-13.7952 Y7.4605  
G01 X-13.9276 Y7.5568  
G01 X-14.0434 Y7.6726  
G01 X-14.1397 Y7.8050  
G01 X-14.2140 Y7.9509  
G01 X-14.2646 Y8.1066  
G01 X-14.2902 Y8.2683  
G01 X-14.2902 Y10.3117 
G01 X-14.2646 Y10.4734 
G01 X-14.2140 Y10.6291 
G01 X-14.1397 Y10.7750 
G01 X-14.0434 Y10.9074 
G01 X-13.9276 Y11.0232 
G01 X-13.7952 Y11.1195 
G01 X-13.6493 Y11.1938 
G01 X-13.4936 Y11.2444 
G01 X-13.4608 Y11.2496 
G01 X-13.4608 Y30.6573 
G01 X-13.4223 Y30.7502 
G01 X-12.7400 Y31.4325 
G01 X-16.5543 Y35.2468 
G01 X-16.5726 Y35.2346 
G01 X-16.7437 Y35.1637 
G01 X-16.9254 Y35.1276 
G01 X-17.1106 Y35.1276 
G01 X-17.2923 Y35.1637 
G01 X-17.4634 Y35.2346 
G01 X-17.6175 Y35.3375 
G01 X-17.7485 Y35.4685 
G01 X-17.8514 Y35.6226 
G01 X-17.9223 Y35.7937 
G01 X-17.9584 Y35.9754 
G01 X-17.9584 Y36.1606 
G01 X-17.9223 Y36.3423 
G01 X-17.8514 Y36.5134 
G01 X-17.7485 Y36.6675 
G01 X-17.6175 Y36.7985 
G01 X-17.4634 Y36.9014 
G01 X-17.2923 Y36.9723 
G01 X-17.1106 Y37.0084 
G01 X-16.9254 Y37.0084 
G01 X-16.7437 Y36.9723 
G01 X-16.5726 Y36.9014 
G01 X-16.4185 Y36.7985 
G01 X-16.2875 Y36.6675 
G01 X-16.1846 Y36.5134 
G01 X-16.1137 Y36.3423 
G01 X-16.0776 Y36.1606 
G01 X-16.0776 Y35.9754 
G01 X-16.1137 Y35.7937 
G01 X-16.1846 Y35.6226 
G01 X-16.1968 Y35.6043 
G01 X-12.2393 Y31.6468 
G00 Z2.0000  
G00 X-27.4308 Y42.2407 
G01 Z-0.1000 F100   
G01 X-27.4308 Y42.3413 F250   
G01 X-27.3923 Y42.4342 
G01 X-25.3988 Y44.4277 
G01 X-25.3988 Y46.2783 
G01 X-25.3603 Y46.3712 
G01 X-21.4618 Y50.2697 
G01 X-21.4618 Y55.5493 
G01 X-21.4233 Y55.6422 
G01 X-19.7723 Y57.2932 
G01 X-19.7012 Y57.3643 
G01 X-19.6472 Y57.3867 
G01 X-19.6436 Y57.4044 
G01 X-19.5882 Y57.5382 
G01 X-19.5077 Y57.6586 
G01 X-19.4053 Y57.7611 
G01 X-19.2849 Y57.8415 
G01 X-19.1510 Y57.8970 
G01 X-19.0089 Y57.9252 
G01 X-18.8641 Y57.9252 
G01 X-18.7220 Y57.8970 
G01 X-18.5882 Y57.8415 
G01 X-18.4677 Y57.7611 
G01 X-18.3653 Y57.6586 
G01 X-18.2848 Y57.5382 
G01 X-18.2294 Y57.4044 
G01 X-18.2011 Y57.2623 
G01 X-18.2011 Y57.1174 
G01 X-18.2294 Y56.9753 
G01 X-18.2848 Y56.8415 
G01 X-18.3653 Y56.7211 
G01 X-18.4677 Y56.6186 
G01 X-18.5882 Y56.5381 
G01 X-18.7220 Y56.4827 
G01 X-18.8641 Y56.4544 
G01 X-19.0089 Y56.4544 
G01 X-19.1510 Y56.4827 
G01 X-19.2849 Y56.5381 
G01 X-19.4053 Y56.6186 
G01 X-19.5077 Y56.7211 
G01 X-19.5565 Y56.7940 
G01 X-20.9562 Y55.3943 
G01 X-20.9562 Y50.1147 
G01 X-20.9947 Y50.0218 
G01 X-21.0658 Y49.9507 
G01 X-24.8932 Y46.1233 
G01 X-24.8932 Y44.2727 
G01 X-24.9317 Y44.1798 
G01 X-25.0028 Y44.1087 
G01 X-26.9252 Y42.1863 
G01 X-26.9252 Y41.0405 
G01 X-26.9037 Y41.0363 
G01 X-26.7326 Y40.9654 
G01 X-26.5785 Y40.8625 
G01 X-26.4475 Y40.7315 
G01 X-26.3446 Y40.5774 
G01 X-26.2737 Y40.4063 
G01 X-26.2376 Y40.2246 
G01 X-26.2376 Y40.0394 
G01 X-26.2737 Y39.8577 
G01 X-26.3446 Y39.6866 
G01 X-26.4475 Y39.5325 
G01 X-26.5785 Y39.4015 
G01 X-26.7326 Y39.2986 
G01 X-26.9037 Y39.2277 
G01 X-27.0854 Y39.1916 
G01 X-27.2706 Y39.1916 
G01 X-27.4523 Y39.2277 
G01 X-27.6234 Y39.2986 
G01 X-27.7775 Y39.4015 
G01 X-27.9085 Y39.5325 
G01 X-28.0114 Y39.6866 
G01 X-28.0823 Y39.8577 
G01 X-28.1184 Y40.0394 
G01 X-28.1184 Y40.2246 
G01 X-28.0823 Y40.4063 
G01 X-28.0114 Y40.5774 
G01 X-27.9085 Y40.7315 
G01 X-27.7775 Y40.8625 
G01 X-27.6234 Y40.9654 
G01 X-27.4523 Y41.0363 
G01 X-27.4308 Y41.0405 
G01 X-27.4308 Y42.2407 
G00 Z2.0000  
G00 X-35.5612 Y13.1313 
G01 Z-0.1000 F100   
G01 X-35.5612 Y13.0307 F250   
G01 X-35.5997 Y12.9378 
G01 X-37.3494 Y11.1881 
G01 X-37.2148 Y11.1195 
G01 X-37.0824 Y11.0232 
G01 X-36.9666 Y10.9074 
G01 X-36.8703 Y10.7750 
G01 X-36.7960 Y10.6291 
G01 X-36.7454 Y10.4734 
G01 X-36.7198 Y10.3117 
G01 X-36.7198 Y8.2683  
G01 X-36.7454 Y8.1066  
G01 X-36.7960 Y7.9509  
G01 X-36.8703 Y7.8050  
G01 X-36.9666 Y7.6726  
G01 X-37.0824 Y7.5568  
G01 X-37.2148 Y7.4605  
G01 X-37.3607 Y7.3862  
G01 X-37.5164 Y7.3356  
G01 X-37.6781 Y7.3100  
G01 X-37.8419 Y7.3100  
G01 X-38.0036 Y7.3356  
G01 X-38.1593 Y7.3862  
G01 X-38.3052 Y7.4605  
G01 X-38.4376 Y7.5568  
G01 X-38.5534 Y7.6726  
G01 X-38.6497 Y7.8050  
G01 X-38.7240 Y7.9509  
G01 X-38.7746 Y8.1066  
G01 X-38.8002 Y8.2683  
G01 X-38.8002 Y10.3117 
G01 X-38.7746 Y10.4734 
G01 X-38.7240 Y10.6291 
G01 X-38.6497 Y10.7750 
G01 X-38.5534 Y10.9074 
G01 X-38.4376 Y11.0232 
G01 X-38.3052 Y11.1195 
G01 X-38.1593 Y11.1938 
G01 X-38.0103 Y11.2422 
G01 X-37.9892 Y11.2633 
G01 X-36.0668 Y13.1857 
G01 X-36.0668 Y19.7925 
G01 X-36.0883 Y19.7967 
G01 X-36.2594 Y19.8676 
G01 X-36.4135 Y19.9705 
G01 X-36.5445 Y20.1015 
G01 X-36.6474 Y20.2556 
G01 X-36.7183 Y20.4267 
G01 X-36.7544 Y20.6084 
G01 X-36.7544 Y20.7936 
G01 X-36.7183 Y20.9753 
G01 X-36.6474 Y21.1464 
G01 X-36.5445 Y21.3005 
G01 X-36.4135 Y21.4315 
G01 X-36.2594 Y21.5344 
G01 X-36.0883 Y21.6053 
G01 X-35.9066 Y21.6414 
G01 X-35.7214 Y21.6414 
G01 X-35.5397 Y21.6053 
G01 X-35.3686 Y21.5344 
G01 X-35.2145 Y21.4315 
G01 X-35.0835 Y21.3005 
G01 X-34.9806 Y21.1464 
G01 X-34.9097 Y20.9753 
G01 X-34.8736 Y20.7936 
G01 X-34.8736 Y20.6084 
G01 X-34.9097 Y20.4267 
G01 X-34.9806 Y20.2556 
G01 X-35.0835 Y20.1015 
G01 X-35.2145 Y19.9705 
G01 X-35.3686 Y19.8676 
G01 X-35.5397 Y19.7967 
G01 X-35.5612 Y19.7925 
G01 X-35.5612 Y13.1313 
G00 Z2.0000  
G00 X-7.1298 Y10.3117 
G01 Z-0.1000 F100   
G01 X-7.1298 Y9.6698  F250   
G01 X-7.0766 Y9.6698  
G01 X-7.0766 Y10.3158 
G01 X-7.1035 Y10.4858 
G01 X-7.1567 Y10.6495 
G01 X-7.2348 Y10.8029 
G01 X-7.3360 Y10.9421 
G01 X-7.4577 Y11.0638 
G01 X-7.5969 Y11.1650 
G01 X-7.7503 Y11.2431 
G01 X-7.7902 Y11.2561 
G01 X-7.7902 Y11.2001 
G01 X-7.7707 Y11.1938 
G01 X-7.6248 Y11.1195 
G01 X-7.4924 Y11.0232 
G01 X-7.3766 Y10.9074 
G01 X-7.2803 Y10.7750 
G01 X-7.2060 Y10.6291 
G01 X-7.1554 Y10.4734 
G01 X-7.1298 Y10.3117 
G00 Z2.0000  
G00 X-7.7600 Y23.4272 
G01 Z-0.1000 F100   
G01 X-8.2368 Y23.9040 F250   
G01 X-8.2704 Y23.9040 
G01 X-8.2704 Y23.8508 
G01 X-8.2589 Y23.8508 
G01 X-7.8132 Y23.4051 
G01 X-7.8132 Y23.3936 
G01 X-7.7600 Y23.3936 
G01 X-7.7600 Y23.4272 
G00 Z2.0000  
G00 X-8.2368 Y22.2760 
G01 Z-0.1000 F100   
G01 X-7.7600 Y22.7528 F250   
G01 X-7.7600 Y22.7864 
G01 X-7.8132 Y22.7864 
G01 X-7.8132 Y22.7749 
G01 X-8.2589 Y22.3292 
G01 X-8.2704 Y22.3292 
G01 X-8.2704 Y22.2760 
G01 X-8.2368 Y22.2760 
G00 Z2.0000  
G00 X-8.3968 Y28.9110 
G01 Z-0.1000 F100   
G01 X-7.9200 Y29.3878 F250   
G01 X-7.9200 Y29.4214 
G01 X-7.9732 Y29.4214 
G01 X-7.9732 Y29.4099 
G01 X-8.4189 Y28.9642 
G01 X-8.4304 Y28.9642 
G01 X-8.4304 Y28.9110 
G01 X-8.3968 Y28.9110 
G00 Z2.0000  
G00 X-7.9200 Y30.0622 
G01 Z-0.1000 F100   
G01 X-8.3968 Y30.5390 F250   
G01 X-8.4304 Y30.5390 
G01 X-8.4304 Y30.4858 
G01 X-8.4189 Y30.4858 
G01 X-7.9732 Y30.0401 
G01 X-7.9732 Y30.0286 
G01 X-7.9200 Y30.0286 
G01 X-7.9200 Y30.0622 
G00 Z2.0000  
G00 X-27.6375 Y65.9891 
G01 Z-0.1000 F100   
G01 X-27.6375 Y66.2901 F250   
G01 X-27.7468 Y66.3995 
G01 X-28.1572 Y66.3995 
G01 X-28.1572 Y65.8798 
G01 X-27.7468 Y65.8798 
G01 X-27.6375 Y65.9891 
G00 Z2.0000  
G00 X-39.0976 Y66.2391 
G01 Z-0.1000 F100   
G01 X-39.0976 Y66.2901 F250   
G01 X-39.2069 Y66.3995 
G01 X-39.5080 Y66.3995 
G01 X-39.6173 Y66.2901 
G01 X-39.6173 Y66.2391 
G01 X-39.5080 Y66.1297 
G01 X-39.2069 Y66.1297 
G01 X-39.0976 Y66.2391 
G00 Z2.0000  
G00 X-39.6173 Y65.5402 
G01 Z-0.1000 F100   
G01 X-39.6173 Y65.4891 F250   
G01 X-39.5080 Y65.3798 
G01 X-39.2069 Y65.3798 
G01 X-39.0976 Y65.4891 
G01 X-39.0976 Y65.5402 
G01 X-39.2069 Y65.6495 
G01 X-39.5080 Y65.6495 
G01 X-39.6173 Y65.5402 
G00 Z2.0000  
G00 X-8.4931 Y43.2504 
G01 Z-0.1000 F100   
G01 X-7.7904 Y43.9531 F250   
G01 X-7.7904 Y44.9469 
G01 X-8.4931 Y45.6496 
G01 X-9.4869 Y45.6496 
G01 X-10.1896 Y44.9469 
G01 X-10.1896 Y43.9531 
G01 X-9.4869 Y43.2504 
G01 X-8.4931 Y43.2504 
G00 Z2.0000  
G00 X-9.8904 Y44.0770 
G01 Z-0.1000 F100   
G01 X-9.8904 Y44.8230 F250   
G01 X-9.3630 Y45.3504 
G01 X-8.6170 Y45.3504 
G01 X-8.0896 Y44.8230 
G01 X-8.0896 Y44.0770 
G01 X-8.6170 Y43.5496 
G01 X-9.3630 Y43.5496 
G01 X-9.8904 Y44.0770 
G00 Z2.0000  
G00 X-45.0010 Y64.7363 
G01 Z-0.1000 F100   
G01 X-44.9318 Y64.7763 F250   
G01 X-44.9318 Y64.7763 
G01 X-44.8969 Y64.7856 
G01 X-44.8546 Y64.7970 
G01 X-44.7747 Y64.7970 
G01 X-44.7342 Y64.7861 
G01 X-44.6974 Y64.7763 
G01 X-44.6876 Y64.7706 
G01 X-44.6282 Y64.7363 
G01 X-44.5744 Y64.6825 
G01 X-44.3762 Y64.6004 
G01 X-44.1616 Y64.6004 
G01 X-43.9634 Y64.6825 
G01 X-43.4779 Y65.1680 
G01 X-43.3562 Y65.2897 
G01 X-43.2870 Y65.3296 
G01 X-43.2098 Y65.3503 
G01 X-42.2975 Y65.3503 
G01 X-42.2203 Y65.3296 
G01 X-42.1510 Y65.2897 
G01 X-42.0945 Y65.2332 
G01 X-42.0545 Y65.1639 
G01 X-42.0338 Y65.0867 
G01 X-42.0338 Y65.0324 
G01 X-41.9517 Y64.8342 
G01 X-41.8000 Y64.6825 
G01 X-41.6018 Y64.6004 
G01 X-40.3874 Y64.6004 
G01 X-40.2041 Y64.6763 
G01 X-40.1903 Y64.6820 
G01 X-40.1303 Y64.7069 
G01 X-40.0510 Y64.7173 
G01 X-40.0443 Y64.7164 
G01 X-39.9718 Y64.7069 
G01 X-39.9151 Y64.6834 
G01 X-39.8979 Y64.6763 
G01 X-39.7147 Y64.6004 
G01 X-39.0002 Y64.6004 
G01 X-38.8020 Y64.6825 
G01 X-38.5793 Y64.9052 
G01 X-38.4003 Y65.0842 
G01 X-38.3182 Y65.2824 
G01 X-38.3182 Y65.7469 
G01 X-38.3445 Y65.8104 
G01 X-38.3524 Y65.8704 
