(.../pcb-gcode-3.6.0.4/pcb-gcode.ulp)
(Copyright 2005 - 2012 by John Johnson)
(See readme.txt for licensing terms.)
(This file generated from the board:)
(.../Tube Prototypes/IV-18_test.brd)
(Current profile is .../pcb-gcode-3.6.0.4/profiles/mach.pp  )
(This file generated 18/08/2013 10:49:46 PM)
(Settings from pcb-machine.h)
(  Tool Size)
(0.1000  )
(Z Axis Settings)
(  High     Up        Down     Drill)
(15.0000 	2.0000  	-0.2500 	-1.5000 )
(spindle on time = 1.0000)
(milling depth = -0.3000)
(text depth = -0.1500)
(tool change at 0.0000  0.0000  20.0000 )
(feed rate xy = F100   )
(feed rate z  = F100   )
(Settings from pcb-defaults.h)
(isolate min = 0.0254)
(isolate max = 0.2500)
(isolate step = 0.1000)
(Generated top outlines, bottom outlines, bottom drill, )
(Unit of measure: mm)
(Metric Mode)
G21
(Absolute Coordinates)
G90
G00 X0.0000  Y0.0000  
M03
G04 P1.000000
G00 Z2.0000  
G00 X7.7315  Y30.8470 
G01 Z-0.2500 F100   
G01 X7.8875  Y30.9116 F100   
G01 X11.6125 Y30.9116 
G01 X11.7685 Y30.8470 
G01 X11.8880 Y30.7275 
G01 X11.9526 Y30.5715 
G01 X11.9526 Y28.8785 
G01 X11.8880 Y28.7225 
G01 X11.7685 Y28.6030 
G01 X11.6125 Y28.5384 
G01 X7.8875  Y28.5384 
G01 X7.7315  Y28.6030 
G01 X7.6120  Y28.7225 
G01 X7.5474  Y28.8785 
G01 X7.5474  Y30.5715 
G01 X7.6120  Y30.7275 
G01 X7.7315  Y30.8470 
G00 Z2.0000  
G00 X9.4698  Y29.4202 
G01 Z-0.2500 F100   
G01 X9.4698  Y30.0298 F100   
G01 X9.0388  Y30.4608 
G01 X8.4292  Y30.4608 
G01 X7.9982  Y30.0298 
G01 X7.9982  Y29.4202 
G01 X8.4292  Y28.9892 
G01 X9.0388  Y28.9892 
G01 X9.4698  Y29.4202 
G00 Z2.0000  
G00 X11.5018 Y29.6525 
G01 Z-0.2500 F100   
G01 X11.5018 Y29.7975 F100   
G01 X11.4735 Y29.9396 
G01 X11.4181 Y30.0735 
G01 X11.3375 Y30.1940 
G01 X11.2350 Y30.2965 
G01 X11.1145 Y30.3771 
G01 X10.9806 Y30.4325 
G01 X10.8385 Y30.4608 
G01 X10.6935 Y30.4608 
G01 X10.5514 Y30.4325 
G01 X10.4175 Y30.3771 
G01 X10.2970 Y30.2965 
G01 X10.1945 Y30.1940 
G01 X10.1139 Y30.0735 
G01 X10.0585 Y29.9396 
G01 X10.0302 Y29.7975 
G01 X10.0302 Y29.6525 
G01 X10.0585 Y29.5104 
G01 X10.1139 Y29.3765 
G01 X10.1945 Y29.2560 
G01 X10.2970 Y29.1535 
G01 X10.4175 Y29.0729 
G01 X10.5514 Y29.0175 
G01 X10.6935 Y28.9892 
G01 X10.8385 Y28.9892 
G01 X10.9806 Y29.0175 
G01 X11.1145 Y29.0729 
G01 X11.2350 Y29.1535 
G01 X11.3375 Y29.2560 
G01 X11.4181 Y29.3765 
G01 X11.4735 Y29.5104 
G01 X11.5018 Y29.6525 
G00 Z2.0000  
G00 X21.8178 Y66.4245 
G01 Z-0.2500 F100   
G01 X22.2635 Y66.4245 F100   
G01 X22.3875 Y66.3005 
G01 X22.3875 Y65.9787 
G01 X22.2635 Y65.8548 
G01 X21.8178 Y65.8548 
G01 X21.8178 Y66.4245 
G00 Z2.0000  
G00 X13.0973 Y66.1612 
G01 Z-0.2500 F100   
G01 X12.9385 Y66.3199 F100   
G01 X12.8526 Y66.5273 
G01 X12.8526 Y66.7518 
G01 X12.9385 Y66.9592 
G01 X13.0973 Y67.1180 
G01 X13.3047 Y67.2039 
G01 X14.5291 Y67.2039 
G01 X14.6208 Y67.1659 
G01 X14.6930 Y67.1360 
G01 X14.7757 Y67.1351 
G01 X14.9418 Y67.2039 
G01 X16.1662 Y67.2039 
G01 X16.3736 Y67.1180 
G01 X16.3829 Y67.1087 
G01 X16.4177 Y67.0942 
G01 X16.4573 Y67.0779 
G01 X16.4973 Y67.0778 
G01 X16.5378 Y67.0778 
G01 X16.5807 Y67.0956 
G01 X16.6122 Y67.1086 
G01 X16.6180 Y67.1144 
G01 X16.6216 Y67.1180 
G01 X16.7089 Y67.1542 
G01 X16.7538 Y67.1728 
G01 X16.7833 Y67.1850 
G01 X16.8290 Y67.2039 
G01 X17.5534 Y67.2039 
G01 X17.7121 Y67.1382 
G01 X17.7365 Y67.1281 
G01 X17.7608 Y67.1180 
G01 X17.7701 Y67.1087 
G01 X17.8033 Y67.0949 
G01 X17.8445 Y67.0779 
G01 X17.8847 Y67.0778 
G01 X17.9250 Y67.0778 
G01 X17.9661 Y67.0949 
G01 X17.9994 Y67.1086 
G01 X18.0087 Y67.1180 
G01 X18.2161 Y67.2039 
G01 X19.4406 Y67.2039 
G01 X19.5323 Y67.1659 
G01 X19.6044 Y67.1360 
G01 X19.6872 Y67.1351 
G01 X19.8533 Y67.2039 
G01 X21.0777 Y67.2039 
G01 X21.1694 Y67.1659 
G01 X21.2416 Y67.1360 
G01 X21.3243 Y67.1351 
G01 X21.4905 Y67.2039 
G01 X22.4649 Y67.2039 
G01 X22.5105 Y67.1850 
G01 X22.5191 Y67.1814 
G01 X22.5849 Y67.1542 
G01 X22.6723 Y67.1180 
G01 X22.6759 Y67.1144 
G01 X22.8310 Y66.9592 
G01 X22.8880 Y66.9023 
G01 X22.9223 Y66.8680 
G01 X23.0810 Y66.7093 
G01 X23.0861 Y66.6969 
G01 X23.0997 Y66.6642 
G01 X23.1669 Y66.5018 
G01 X23.1669 Y65.7774 
G01 X23.1056 Y65.6293 
G01 X23.0762 Y65.5584 
G01 X23.0748 Y65.5549 
G01 X23.0748 Y65.4744 
G01 X23.1056 Y65.4000 
G01 X23.1669 Y65.2519 
G01 X23.1669 Y65.0274 
G01 X23.0810 Y64.8200 
G01 X22.9223 Y64.6613 
G01 X22.7149 Y64.5754 
G01 X22.4904 Y64.5754 
G01 X22.2830 Y64.6613 
G01 X22.2173 Y64.7270 
G01 X22.2054 Y64.7319 
G01 X22.1429 Y64.7578 
G01 X22.0624 Y64.7578 
G01 X22.0325 Y64.7454 
G01 X21.9880 Y64.7270 
G01 X21.9311 Y64.6700 
G01 X21.9223 Y64.6613 
G01 X21.7149 Y64.5754 
G01 X21.4905 Y64.5754 
G01 X21.3243 Y64.6442 
G01 X21.2438 Y64.6442 
G01 X21.1694 Y64.6134 
G01 X21.0777 Y64.5754 
G01 X19.8533 Y64.5754 
G01 X19.6459 Y64.6613 
G01 X19.5685 Y64.7387 
G01 X19.5145 Y64.7927 
G01 X19.5116 Y64.7956 
G01 X19.4814 Y64.8081 
G01 X19.4372 Y64.8264 
G01 X19.3567 Y64.8264 
G01 X19.3137 Y64.8086 
G01 X19.2823 Y64.7956 
G01 X19.2254 Y64.7387 
G01 X19.1480 Y64.6613 
G01 X18.9406 Y64.5754 
G01 X18.7161 Y64.5754 
G01 X18.5087 Y64.6613 
G01 X18.3500 Y64.8200 
G01 X18.3283 Y64.8722 
G01 X18.3244 Y64.8817 
G01 X18.2683 Y64.9378 
G01 X18.2317 Y64.9535 
G01 X18.1931 Y64.9695 
G01 X18.1126 Y64.9695 
G01 X18.0478 Y64.9427 
G01 X18.0382 Y64.9387 
G01 X17.9765 Y64.8770 
G01 X17.7608 Y64.6613 
G01 X17.5534 Y64.5754 
G01 X16.8290 Y64.5754 
G01 X16.6216 Y64.6613 
G01 X16.6123 Y64.6706 
G01 X16.5791 Y64.6843 
G01 X16.5379 Y64.7014 
G01 X16.4977 Y64.7014 
G01 X16.4574 Y64.7014 
G01 X16.4163 Y64.6844 
G01 X16.3830 Y64.6706 
G01 X16.3736 Y64.6613 
G01 X16.1662 Y64.5754 
G01 X14.9418 Y64.5754 
G01 X14.7344 Y64.6613 
G01 X14.6571 Y64.7387 
G01 X14.6031 Y64.7927 
G01 X14.6001 Y64.7956 
G01 X14.5699 Y64.8081 
G01 X14.5257 Y64.8264 
G01 X14.4452 Y64.8264 
G01 X14.4023 Y64.8086 
G01 X14.3708 Y64.7956 
G01 X14.3139 Y64.7387 
G01 X14.2365 Y64.6613 
G01 X14.0291 Y64.5754 
G01 X13.8046 Y64.5754 
G01 X13.5972 Y64.6613 
G01 X13.4385 Y64.8200 
G01 X13.3526 Y65.0275 
G01 X13.3526 Y65.9605 
G01 X13.3218 Y66.0348 
G01 X13.2648 Y66.0918 
G01 X13.1904 Y66.1226 
G01 X13.0973 Y66.1612 
G00 Z2.0000  
G00 X21.0082 Y66.4245 
G01 Z-0.2500 F100   
G01 X21.0873 Y66.4572 F100   
G01 X21.1478 Y66.5177 
G01 X21.1806 Y66.5968 
G01 X21.1806 Y66.6824 
G01 X21.1478 Y66.7614 
G01 X21.0873 Y66.8219 
G01 X21.0082 Y66.8547 
G01 X19.9228 Y66.8547 
G01 X19.8437 Y66.8219 
G01 X19.7832 Y66.7614 
G01 X19.7504 Y66.6824 
G01 X19.7504 Y65.0969 
G01 X19.7832 Y65.0179 
G01 X19.8437 Y64.9573 
G01 X19.9228 Y64.9246 
G01 X21.0082 Y64.9246 
G01 X21.0873 Y64.9573 
G01 X21.1478 Y65.0179 
G01 X21.1806 Y65.0969 
G01 X21.1806 Y65.1825 
G01 X21.1478 Y65.2615 
G01 X21.0873 Y65.3221 
G01 X21.0082 Y65.3548 
G01 X20.1806 Y65.3548 
G01 X20.1806 Y65.6745 
G01 X20.5083 Y65.6745 
G01 X20.5873 Y65.7073 
G01 X20.6479 Y65.7678 
G01 X20.6806 Y65.8469 
G01 X20.6806 Y65.9324 
G01 X20.6479 Y66.0115 
G01 X20.5873 Y66.0720 
G01 X20.5083 Y66.1047 
G01 X20.1806 Y66.1047 
G01 X20.1806 Y66.4245 
G01 X21.0082 Y66.4245 
G00 Z2.0000  
G00 X16.0968 Y66.4245 
G01 Z-0.2500 F100   
G01 X16.1758 Y66.4572 F100   
G01 X16.2363 Y66.5177 
G01 X16.2691 Y66.5968 
G01 X16.2691 Y66.6824 
G01 X16.2363 Y66.7614 
G01 X16.1758 Y66.8219 
G01 X16.0968 Y66.8547 
G01 X15.0113 Y66.8547 
G01 X14.9322 Y66.8219 
G01 X14.8717 Y66.7614 
G01 X14.8390 Y66.6824 
G01 X14.8390 Y65.0969 
G01 X14.8717 Y65.0179 
G01 X14.9322 Y64.9573 
G01 X15.0113 Y64.9246 
G01 X16.0968 Y64.9246 
G01 X16.1758 Y64.9573 
G01 X16.2363 Y65.0179 
G01 X16.2691 Y65.0969 
G01 X16.2691 Y65.1825 
G01 X16.2363 Y65.2615 
G01 X16.1758 Y65.3221 
G01 X16.0968 Y65.3548 
G01 X15.2692 Y65.3548 
G01 X15.2692 Y65.6745 
G01 X15.5968 Y65.6745 
G01 X15.6759 Y65.7073 
G01 X15.7364 Y65.7678 
G01 X15.7691 Y65.8469 
G01 X15.7691 Y65.9324 
G01 X15.7364 Y66.0115 
G01 X15.6759 Y66.0720 
G01 X15.5968 Y66.1047 
G01 X15.2692 Y66.1047 
G01 X15.2692 Y66.4245 
G01 X16.0968 Y66.4245 
G00 Z2.0000  
G00 X13.7018 Y65.0969 
G01 Z-0.2500 F100   
G01 X13.7345 Y65.0179 F100   
G01 X13.7950 Y64.9573 
G01 X13.8741 Y64.9246 
G01 X13.9597 Y64.9246 
G01 X14.0387 Y64.9573 
G01 X14.0992 Y65.0179 
G01 X14.1320 Y65.0969 
G01 X14.1320 Y66.4245 
G01 X14.4596 Y66.4245 
G01 X14.5387 Y66.4572 
G01 X14.5992 Y66.5177 
G01 X14.6319 Y66.5968 
G01 X14.6319 Y66.6824 
G01 X14.5992 Y66.7614 
G01 X14.5387 Y66.8219 
G01 X14.4596 Y66.8547 
G01 X13.3741 Y66.8547 
G01 X13.2951 Y66.8219 
G01 X13.2346 Y66.7614 
G01 X13.2018 Y66.6824 
G01 X13.2018 Y66.5968 
G01 X13.2346 Y66.5177 
G01 X13.2951 Y66.4572 
G01 X13.3741 Y66.4245 
G01 X13.7018 Y66.4245 
G01 X13.7018 Y65.0969 
G00 Z2.0000  
G00 X17.5693 Y66.2072 
G01 Z-0.2500 F100   
G01 X17.6484 Y66.1745 F100   
G01 X17.7339 Y66.1745 
G01 X17.8130 Y66.2072 
G01 X17.8735 Y66.2678 
G01 X17.9062 Y66.3468 
G01 X17.9062 Y66.4324 
G01 X17.8735 Y66.5114 
G01 X17.6235 Y66.7614 
G01 X17.5630 Y66.8219 
G01 X17.4840 Y66.8547 
G01 X16.8984 Y66.8547 
G01 X16.8194 Y66.8219 
G01 X16.7589 Y66.7614 
G01 X16.5694 Y66.5720 
G01 X16.5089 Y66.5114 
G01 X16.4761 Y66.4324 
G01 X16.4761 Y66.0968 
G01 X16.5089 Y66.0178 
G01 X16.8194 Y65.7073 
G01 X16.8984 Y65.6745 
G01 X17.3521 Y65.6745 
G01 X17.4761 Y65.5506 
G01 X17.4761 Y65.4788 
G01 X17.3521 Y65.3548 
G01 X17.0303 Y65.3548 
G01 X16.8131 Y65.5720 
G01 X16.7340 Y65.6048 
G01 X16.6484 Y65.6048 
G01 X16.5694 Y65.5720 
G01 X16.5089 Y65.5115 
G01 X16.4761 Y65.4325 
G01 X16.4761 Y65.3469 
G01 X16.5089 Y65.2678 
G01 X16.8194 Y64.9573 
G01 X16.8984 Y64.9246 
G01 X17.4840 Y64.9246 
G01 X17.5630 Y64.9573 
G01 X17.6235 Y65.0179 
G01 X17.8735 Y65.2678 
G01 X17.9062 Y65.3469 
G01 X17.9062 Y65.6824 
G01 X17.8735 Y65.7615 
G01 X17.8130 Y65.8220 
G01 X17.6235 Y66.0115 
G01 X17.5654 Y66.0696 
G01 X17.4840 Y66.1047 
G01 X17.0303 Y66.1047 
G01 X16.9063 Y66.2287 
G01 X16.9063 Y66.3005 
G01 X17.0303 Y66.4245 
G01 X17.3521 Y66.4245 
G01 X17.5693 Y66.2072 
G00 Z2.0000  
G00 X18.6132 Y65.0969 
G01 Z-0.2500 F100   
G01 X18.6460 Y65.0179 F100   
G01 X18.7065 Y64.9573 
G01 X18.7856 Y64.9246 
G01 X18.8711 Y64.9246 
G01 X18.9502 Y64.9573 
G01 X19.0107 Y65.0179 
G01 X19.0434 Y65.0969 
G01 X19.0434 Y66.4245 
G01 X19.3711 Y66.4245 
G01 X19.4502 Y66.4572 
G01 X19.5107 Y66.5177 
G01 X19.5434 Y66.5968 
G01 X19.5434 Y66.6824 
G01 X19.5107 Y66.7614 
G01 X19.4502 Y66.8219 
G01 X19.3711 Y66.8547 
G01 X18.2856 Y66.8547 
G01 X18.2065 Y66.8219 
G01 X18.1460 Y66.7614 
G01 X18.1133 Y66.6824 
G01 X18.1133 Y66.5968 
G01 X18.1460 Y66.5177 
G01 X18.2065 Y66.4572 
G01 X18.2856 Y66.4245 
G01 X18.6132 Y66.4245 
G01 X18.6132 Y65.0969 
G00 Z2.0000  
G00 X21.3876 Y65.0969 
G01 Z-0.2500 F100   
G01 X21.4203 Y65.0179 F100   
G01 X21.4809 Y64.9573 
G01 X21.5599 Y64.9246 
G01 X21.6455 Y64.9246 
G01 X21.7245 Y64.9573 
G01 X21.7851 Y65.0179 
G01 X21.8178 Y65.0969 
G01 X21.8178 Y65.4246 
G01 X22.0136 Y65.4246 
G01 X22.4808 Y64.9573 
G01 X22.5598 Y64.9246 
G01 X22.6454 Y64.9246 
G01 X22.7245 Y64.9573 
G01 X22.7850 Y65.0179 
G01 X22.8177 Y65.0969 
G01 X22.8177 Y65.1825 
G01 X22.7850 Y65.2615 
G01 X22.5318 Y65.5147 
G01 X22.5350 Y65.5178 
G01 X22.7245 Y65.7073 
G01 X22.7850 Y65.7678 
G01 X22.8168 Y65.8446 
G01 X22.8177 Y66.4324 
G01 X22.7850 Y66.5114 
G01 X22.7245 Y66.5720 
G01 X22.5350 Y66.7614 
G01 X22.4769 Y66.8195 
G01 X22.3954 Y66.8547 
G01 X21.5599 Y66.8547 
G01 X21.4809 Y66.8219 
G01 X21.4203 Y66.7614 
G01 X21.3876 Y66.6824 
G01 X21.3876 Y65.5969 
G01 X21.3876 Y65.0969 
G00 Z2.0000  
G00 X10.9274 Y65.5506 
G01 Z-0.2500 F100   
G01 X10.9274 Y65.4788 F100   
G01 X10.8034 Y65.3548 
G01 X10.4817 Y65.3548 
G01 X10.3577 Y65.4788 
G01 X10.3577 Y65.5506 
G01 X10.4817 Y65.6745 
G01 X10.8034 Y65.6745 
G01 X10.9274 Y65.5506 
G00 Z2.0000  
G00 X10.4817 Y66.4245 
G01 Z-0.2500 F100   
G01 X10.8034 Y66.4245 F100   
G01 X10.9274 Y66.3005 
G01 X10.9274 Y66.2287 
G01 X10.8034 Y66.1047 
G01 X10.4817 Y66.1047 
G01 X10.3577 Y66.2287 
G01 X10.3577 Y66.3005 
G01 X10.4817 Y66.4245 
G00 Z2.0000  
G00 X3.6613  Y66.3199 
G01 Z-0.2500 F100   
G01 X3.5754  Y66.5273 F100   
G01 X3.5754  Y66.7518 
G01 X3.6613  Y66.9592 
G01 X3.8200  Y67.1180 
G01 X4.0274  Y67.2039 
G01 X4.7519  Y67.2039 
G01 X4.8207  Y67.1754 
G01 X4.8253  Y67.1735 
G01 X4.8951  Y67.1445 
G01 X4.9757  Y67.1445 
G01 X5.0436  Y67.1727 
G01 X5.0500  Y67.1754 
G01 X5.1189  Y67.2039 
G01 X5.3434  Y67.2039 
G01 X5.5508  Y67.1180 
G01 X5.5595  Y67.1093 
G01 X5.6155  Y67.0533 
G01 X5.6591  Y67.0346 
G01 X5.6908  Y67.0215 
G01 X5.7714  Y67.0215 
G01 X5.8321  Y67.0467 
G01 X5.8457  Y67.0523 
G01 X5.9018  Y67.1084 
G01 X5.9114  Y67.1180 
G01 X6.1188  Y67.2039 
G01 X6.3433  Y67.2039 
G01 X6.5507  Y67.1180 
G01 X6.7094  Y66.9592 
G01 X6.7954  Y66.7518 
G01 X6.7954  Y66.6161 
G01 X6.8262  Y66.5417 
G01 X6.8831  Y66.4848 
G01 X6.9575  Y66.4539 
G01 X7.9782  Y66.4539 
G01 X8.0525  Y66.4848 
G01 X8.1095  Y66.5417 
G01 X8.4753  Y66.9075 
G01 X8.4820  Y66.9108 
G01 X8.5036  Y66.9358 
G01 X8.5270  Y66.9592 
G01 X8.6858  Y67.1180 
G01 X8.8130  Y67.1707 
G01 X8.8676  Y67.1933 
G01 X8.8874  Y67.2015 
G01 X8.8932  Y67.2039 
G01 X9.1177  Y67.2039 
G01 X9.3251  Y67.1180 
G01 X9.4838  Y66.9592 
G01 X9.4962  Y66.9292 
G01 X9.5093  Y66.8976 
G01 X9.5376  Y66.8693 
G01 X9.5663  Y66.8406 
G01 X9.5945  Y66.8289 
G01 X9.6407  Y66.8098 
G01 X9.6805  Y66.8098 
G01 X9.7212  Y66.8098 
G01 X9.7666  Y66.8286 
G01 X9.7956  Y66.8406 
G01 X9.8230  Y66.8680 
G01 X9.8508  Y66.8958 
G01 X9.8799  Y66.9249 
G01 X9.9142  Y66.9592 
G01 X10.0729 Y67.1180 
G01 X10.1669 Y67.1569 
G01 X10.2270 Y67.1818 
G01 X10.2413 Y67.1877 
G01 X10.2803 Y67.2039 
G01 X11.0048 Y67.2039 
G01 X11.0504 Y67.1850 
G01 X11.0590 Y67.1814 
G01 X11.1248 Y67.1542 
G01 X11.2122 Y67.1180 
G01 X11.2157 Y67.1144 
G01 X11.3709 Y66.9592 
G01 X11.4279 Y66.9023 
G01 X11.4622 Y66.8680 
G01 X11.6209 Y66.7093 
G01 X11.6260 Y66.6969 
G01 X11.6396 Y66.6642 
G01 X11.7068 Y66.5018 
G01 X11.7068 Y66.0274 
G01 X11.6664 Y65.9299 
G01 X11.6664 Y65.8494 
G01 X11.7068 Y65.7519 
G01 X11.7068 Y65.2774 
G01 X11.6209 Y65.0700 
G01 X11.3709 Y64.8200 
G01 X11.2122 Y64.6613 
G01 X11.0048 Y64.5754 
G01 X10.2803 Y64.5754 
G01 X10.0729 Y64.6613 
G01 X10.0637 Y64.6706 
G01 X10.0305 Y64.6843 
G01 X9.9893  Y64.7014 
G01 X9.9491  Y64.7014 
G01 X9.9087  Y64.7014 
G01 X9.8677  Y64.6844 
G01 X9.8344  Y64.6706 
G01 X9.8250  Y64.6613 
G01 X9.6176  Y64.5754 
G01 X8.3932  Y64.5754 
G01 X8.1858  Y64.6613 
G01 X8.0271  Y64.8200 
G01 X7.9411  Y65.0274 
G01 X7.9411  Y65.1632 
G01 X7.9103  Y65.2376 
G01 X7.8534  Y65.2945 
G01 X7.7790  Y65.3253 
G01 X6.7584  Y65.3253 
G01 X6.6840  Y65.2945 
G01 X6.6270  Y65.2376 
G01 X6.4938  Y65.1043 
G01 X6.0507  Y64.6613 
G01 X5.8433  Y64.5754 
G01 X5.6188  Y64.5754 
G01 X5.4114  Y64.6613 
G01 X5.3000  Y64.7727 
G01 X5.2256  Y64.8035 
G01 X5.1451  Y64.8035 
G01 X5.1239  Y64.7948 
G01 X5.0707  Y64.7727 
G01 X5.0138  Y64.7158 
G01 X4.9593  Y64.6613 
G01 X4.7519  Y64.5754 
G01 X4.0274  Y64.5754 
G01 X3.8200  Y64.6613 
G01 X3.6613  Y64.8200 
G01 X3.5754  Y65.0274 
G01 X3.5754  Y65.2519 
G01 X3.6613  Y65.4593 
G01 X3.7946  Y65.5926 
G01 X3.8254  Y65.6670 
G01 X3.8254  Y66.1123 
G01 X3.7946  Y66.1867 
G01 X3.7376  Y66.2436 
G01 X3.6613  Y66.3199 
G00 Z2.0000  
G00 X5.4462  Y66.6824 
G01 Z-0.2500 F100   
G01 X5.4135  Y66.7614 F100   
G01 X5.3530  Y66.8219 
G01 X5.2739  Y66.8547 
G01 X5.1884  Y66.8547 
G01 X5.1093  Y66.8219 
G01 X5.0488  Y66.7614 
G01 X5.0160  Y66.6824 
G01 X5.0160  Y65.5969 
G01 X5.0488  Y65.5178 
G01 X5.5487  Y65.0179 
G01 X5.6093  Y64.9573 
G01 X5.6883  Y64.9246 
G01 X5.7739  Y64.9246 
G01 X5.8529  Y64.9573 
G01 X6.3529  Y65.4573 
G01 X6.4134  Y65.5178 
G01 X6.4462  Y65.5969 
G01 X6.4462  Y66.6824 
G01 X6.4134  Y66.7614 
G01 X6.3529  Y66.8219 
G01 X6.2738  Y66.8547 
G01 X6.1883  Y66.8547 
G01 X6.1092  Y66.8219 
G01 X6.0487  Y66.7614 
G01 X6.0160  Y66.6824 
G01 X6.0160  Y65.7288 
G01 X5.7311  Y65.4439 
G01 X5.4462  Y65.7288 
G01 X5.4462  Y66.6824 
G00 Z2.0000  
G00 X4.6824  Y65.3548 
G01 Z-0.2500 F100   
G01 X4.6048  Y65.3548 F100   
G01 X4.6048  Y66.4245 
G01 X4.6824  Y66.4245 
G01 X4.7615  Y66.4572 
G01 X4.8220  Y66.5177 
G01 X4.8548  Y66.5968 
G01 X4.8548  Y66.6824 
G01 X4.8220  Y66.7614 
G01 X4.7615  Y66.8219 
G01 X4.6824  Y66.8547 
G01 X4.0969  Y66.8547 
G01 X4.0179  Y66.8219 
G01 X3.9573  Y66.7614 
G01 X3.9246  Y66.6824 
G01 X3.9246  Y66.5968 
G01 X3.9573  Y66.5177 
G01 X4.0179  Y66.4572 
G01 X4.0969  Y66.4245 
G01 X4.1746  Y66.4245 
G01 X4.1746  Y65.3548 
G01 X4.0969  Y65.3548 
G01 X4.0179  Y65.3221 
G01 X3.9573  Y65.2615 
G01 X3.9246  Y65.1825 
G01 X3.9246  Y65.0969 
G01 X3.9573  Y65.0179 
G01 X4.0179  Y64.9573 
G01 X4.0969  Y64.9246 
G01 X4.6824  Y64.9246 
G01 X4.7615  Y64.9573 
G01 X4.8220  Y65.0179 
G01 X4.8548  Y65.0969 
G01 X4.8548  Y65.1825 
G01 X4.8220  Y65.2615 
G01 X4.7615  Y65.3221 
G01 X4.6824  Y65.3548 
G00 Z2.0000  
G00 X7.9110  Y66.1047 
G01 Z-0.2500 F100   
G01 X6.8255  Y66.1047 F100   
G01 X6.7464  Y66.0720 
G01 X6.6859  Y66.0115 
G01 X6.6532  Y65.9324 
G01 X6.6532  Y65.8469 
G01 X6.6859  Y65.7678 
G01 X6.7464  Y65.7073 
G01 X6.8255  Y65.6745 
G01 X7.9110  Y65.6745 
G01 X7.9901  Y65.7073 
G01 X8.0506  Y65.7678 
G01 X8.0833  Y65.8469 
G01 X8.0833  Y65.9324 
G01 X8.0506  Y66.0115 
G01 X7.9901  Y66.0720 
G01 X7.9110  Y66.1047 
G00 Z2.0000  
G00 X8.3231  Y66.2615 
G01 Z-0.2500 F100   
G01 X8.2904  Y66.1824 F100   
G01 X8.2904  Y66.0968 
G01 X8.3231  Y66.0178 
G01 X8.3836  Y65.9573 
G01 X8.4627  Y65.9245 
G01 X8.5482  Y65.9245 
G01 X8.6273  Y65.9573 
G01 X8.7903  Y66.1203 
G01 X8.7903  Y65.3548 
G01 X8.4627  Y65.3548 
G01 X8.3836  Y65.3221 
G01 X8.3231  Y65.2615 
G01 X8.2904  Y65.1825 
G01 X8.2904  Y65.0969 
G01 X8.3231  Y65.0179 
G01 X8.3836  Y64.9573 
G01 X8.4627  Y64.9246 
G01 X9.5482  Y64.9246 
G01 X9.6272  Y64.9573 
G01 X9.6877  Y65.0179 
G01 X9.7205  Y65.0969 
G01 X9.7205  Y65.1825 
G01 X9.6877  Y65.2615 
G01 X9.6272  Y65.3221 
G01 X9.5482  Y65.3548 
G01 X9.2205  Y65.3548 
G01 X9.2205  Y66.6824 
G01 X9.1887  Y66.7592 
G01 X9.1273  Y66.8219 
G01 X9.0482  Y66.8547 
G01 X8.9626  Y66.8547 
G01 X8.8858  Y66.8229 
G01 X8.8231  Y66.7614 
G01 X8.3231  Y66.2615 
G00 Z2.0000  
G00 X10.0884 Y65.8896 
G01 Z-0.2500 F100   
G01 X10.0208 Y65.8220 F100   
G01 X10.0208 Y65.8220 
G01 X9.9603  Y65.7615 
G01 X9.9284  Y65.6847 
G01 X9.9275  Y65.3469 
G01 X9.9603  Y65.2678 
G01 X10.0208 Y65.2073 
G01 X10.2707 Y64.9573 
G01 X10.3498 Y64.9246 
G01 X10.9353 Y64.9246 
G01 X11.0144 Y64.9573 
G01 X11.0749 Y65.0179 
G01 X11.3249 Y65.2678 
G01 X11.3576 Y65.3469 
G01 X11.3576 Y65.6824 
G01 X11.3249 Y65.7615 
G01 X11.2644 Y65.8220 
G01 X11.1967 Y65.8896 
G01 X11.3249 Y66.0178 
G01 X11.3576 Y66.0968 
G01 X11.3576 Y66.4324 
G01 X11.3249 Y66.5114 
G01 X11.2644 Y66.5720 
G01 X11.0749 Y66.7614 
G01 X11.0168 Y66.8195 
G01 X10.9353 Y66.8547 
G01 X10.3498 Y66.8547 
G01 X10.2730 Y66.8229 
G01 X10.2102 Y66.7614 
G01 X10.0208 Y66.5720 
G01 X9.9603  Y66.5114 
G01 X9.9275  Y66.4324 
G01 X9.9275  Y66.0968 
G01 X9.9603  Y66.0178 
G01 X10.0208 Y65.9573 
G01 X10.0884 Y65.8896 
G00 Z2.0000  
G00 X7.5715  Y24.2120 
G01 Z-0.2500 F100   
G01 X7.7275  Y24.2766 F100   
G01 X11.4525 Y24.2766 
G01 X11.6085 Y24.2120 
G01 X11.7280 Y24.0925 
G01 X11.7926 Y23.9365 
G01 X11.7926 Y22.2435 
G01 X11.7280 Y22.0875 
G01 X11.6085 Y21.9680 
G01 X11.4525 Y21.9034 
G01 X7.7275  Y21.9034 
G01 X7.5715  Y21.9680 
G01 X7.4520  Y22.0875 
G01 X7.3874  Y22.2435 
G01 X7.3874  Y23.9365 
G01 X7.4520  Y24.0925 
G01 X7.5715  Y24.2120 
G00 Z2.0000  
G00 X9.3098  Y22.7852 
G01 Z-0.2500 F100   
G01 X9.3098  Y23.3948 F100   
G01 X8.8788  Y23.8258 
G01 X8.2692  Y23.8258 
G01 X7.8382  Y23.3948 
G01 X7.8382  Y22.7852 
G01 X8.2692  Y22.3542 
G01 X8.8788  Y22.3542 
G01 X9.3098  Y22.7852 
G00 Z2.0000  
G00 X11.3418 Y23.0175 
G01 Z-0.2500 F100   
G01 X11.3418 Y23.1625 F100   
G01 X11.3135 Y23.3046 
G01 X11.2581 Y23.4385 
G01 X11.1775 Y23.5590 
G01 X11.0750 Y23.6615 
G01 X10.9545 Y23.7421 
G01 X10.8206 Y23.7975 
G01 X10.6785 Y23.8258 
G01 X10.5335 Y23.8258 
G01 X10.3914 Y23.7975 
G01 X10.2575 Y23.7421 
G01 X10.1370 Y23.6615 
G01 X10.0345 Y23.5590 
G01 X9.9539  Y23.4385 
G01 X9.8985  Y23.3046 
G01 X9.8702  Y23.1625 
G01 X9.8702  Y23.0175 
G01 X9.8985  Y22.8754 
G01 X9.9539  Y22.7415 
G01 X10.0345 Y22.6210 
G01 X10.1370 Y22.5185 
G01 X10.2575 Y22.4379 
G01 X10.3914 Y22.3825 
G01 X10.5335 Y22.3542 
G01 X10.6785 Y22.3542 
G01 X10.8206 Y22.3825 
G01 X10.9545 Y22.4379 
G01 X11.0750 Y22.5185 
G01 X11.1775 Y22.6210 
G01 X11.2581 Y22.7415 
G01 X11.3135 Y22.8754 
G01 X11.3418 Y23.0175 
G00 Z2.0000  
G00 X23.9416 Y10.3178 
G01 Z-0.2500 F100   
G01 X23.9691 Y10.4917 F100   
G01 X24.0235 Y10.6591 
G01 X24.1035 Y10.8160 
G01 X24.2069 Y10.9584 
G01 X24.3314 Y11.0829 
G01 X24.4738 Y11.1863 
G01 X24.6307 Y11.2663 
G01 X24.7306 Y11.2987 
G01 X24.7306 Y11.1922 
G01 X24.5791 Y11.1295 
G01 X24.4128 Y11.0184 
G01 X24.2714 Y10.8770 
G01 X24.1603 Y10.7107 
G01 X24.0838 Y10.5259 
G01 X24.0448 Y10.3298 
G01 X24.0448 Y9.6194  
G01 X23.9416 Y9.6194  
G01 X23.9416 Y10.3178 
G00 Z2.0000  
G00 X8.5372  Y7.4034  
G01 Z-0.2500 F100   
G01 X8.5702  Y7.3043  F100   
G01 X8.4994  Y7.2813  
G01 X8.4994  Y7.3878  
G01 X8.5372  Y7.4034  
G00 Z2.0000  
G00 X7.1548  Y8.2502  
G01 Z-0.2500 F100   
G01 X7.1938  Y8.0541  F100   
G01 X7.2703  Y7.8693  
G01 X7.3814  Y7.7030  
G01 X7.5228  Y7.5616  
G01 X7.6891  Y7.4505  
G01 X7.8406  Y7.3878  
G01 X7.8406  Y7.2813  
G01 X7.7407  Y7.3137  
G01 X7.5838  Y7.3937  
G01 X7.4414  Y7.4971  
G01 X7.3169  Y7.6216  
G01 X7.2135  Y7.7640  
G01 X7.1335  Y7.9209  
G01 X7.0791  Y8.0883  
G01 X7.0516  Y8.2622  
G01 X7.0516  Y8.9606  
G01 X7.1548  Y8.9606  
G01 X7.1548  Y8.2502  
G00 Z2.0000  
G00 X7.6891  Y11.1295 
G01 Z-0.2500 F100   
G01 X7.5228  Y11.0184 F100   
G01 X7.3814  Y10.8770 
G01 X7.2703  Y10.7107 
G01 X7.1938  Y10.5259 
G01 X7.1548  Y10.3298 
G01 X7.1548  Y9.6194  
G01 X7.0516  Y9.6194  
G01 X7.0516  Y10.3178 
G01 X7.0791  Y10.4917 
G01 X7.1335  Y10.6591 
G01 X7.2135  Y10.8160 
G01 X7.3169  Y10.9584 
G01 X7.4414  Y11.0829 
G01 X7.5838  Y11.1863 
G01 X7.7407  Y11.2663 
G01 X7.8406  Y11.2987 
G01 X7.8406  Y11.1922 
G01 X7.6891  Y11.1295 
G00 Z2.0000  
G00 X25.7886 Y11.0829 
G01 Z-0.2500 F100   
G01 X25.9131 Y10.9584 F100   
G01 X26.0121 Y10.8221 
G01 X26.0187 Y10.8061 
G01 X26.0245 Y10.8004 
G01 X26.0281 Y10.7931 
G01 X26.0413 Y10.7818 
G01 X26.0496 Y10.7705 
G01 X26.0618 Y10.7630 
G01 X26.0757 Y10.7492 
G01 X26.0832 Y10.7461 
G01 X26.0893 Y10.7408 
G01 X26.1080 Y10.7347 
G01 X26.1182 Y10.7284 
G01 X26.1303 Y10.7265 
G01 X26.1500 Y10.7183 
G01 X26.1582 Y10.7183 
G01 X26.1659 Y10.7158 
G01 X26.1873 Y10.7175 
G01 X26.1978 Y10.7158 
G01 X26.2082 Y10.7183 
G01 X26.2306 Y10.7183 
G01 X26.2381 Y10.7215 
G01 X26.2461 Y10.7221 
G01 X26.2662 Y10.7323 
G01 X26.2760 Y10.7346 
G01 X26.2842 Y10.7406 
G01 X26.3050 Y10.7492 
G01 X26.3107 Y10.7549 
G01 X26.3179 Y10.7586 
G01 X26.3326 Y10.7757 
G01 X26.3412 Y10.7820 
G01 X26.3466 Y10.7908 
G01 X26.3619 Y10.8061 
G01 X26.3650 Y10.8136 
G01 X26.3703 Y10.8198 
G01 X26.3770 Y10.8404 
G01 X26.3833 Y10.8506 
G01 X26.3851 Y10.8620 
G01 X26.4433 Y11.0027 
G01 X26.8271 Y11.3865 
G01 X26.9723 Y11.4466 
G01 X27.0466 Y11.4774 
G01 X27.1027 Y11.5335 
G01 X27.1344 Y11.6087 
G01 X27.1344 Y25.6367 
G01 X27.2184 Y25.8395 
G01 X27.4305 Y26.0516 
G01 X28.6473 Y27.2684 
G01 X28.6940 Y27.3151 
G01 X28.7043 Y27.3253 
G01 X28.7351 Y27.3997 
G01 X28.7351 Y27.4803 
G01 X28.7043 Y27.5547 
G01 X28.6482 Y27.6107 
G01 X28.5729 Y27.6424 
G01 X25.2921 Y27.6424 
G01 X25.2785 Y27.6460 
G01 X25.2522 Y27.6424 
G01 X25.2257 Y27.6424 
G01 X25.2127 Y27.6370 
G01 X25.1987 Y27.6351 
G01 X25.1758 Y27.6217 
G01 X25.1513 Y27.6116 
G01 X25.1413 Y27.6016 
G01 X25.1292 Y27.5945 
G01 X25.1131 Y27.5734 
G01 X25.0943 Y27.5547 
G01 X25.0889 Y27.5416 
G01 X13.2198 Y11.9300 
G01 X13.2011 Y11.9112 
G01 X13.1957 Y11.8982 
G01 X13.1872 Y11.8870 
G01 X13.1804 Y11.8614 
G01 X13.1702 Y11.8369 
G01 X13.1702 Y11.8228 
G01 X13.1667 Y11.8092 
G01 X13.1702 Y11.7829 
G01 X13.1702 Y11.7563 
G01 X13.1756 Y11.7433 
G01 X13.1775 Y11.7294 
G01 X13.1909 Y11.7065 
G01 X13.2011 Y11.6819 
G01 X13.2110 Y11.6720 
G01 X13.2181 Y11.6598 
G01 X13.2392 Y11.6438 
G01 X13.2580 Y11.6250 
G01 X13.2710 Y11.6196 
G01 X13.2822 Y11.6111 
G01 X13.3079 Y11.6044 
G01 X13.3324 Y11.5942 
G01 X13.3465 Y11.5942 
G01 X13.3601 Y11.5906 
G01 X13.3864 Y11.5942 
G01 X13.5214 Y11.5942 
G01 X14.0229 Y11.3865 
G01 X14.4067 Y11.0027 
G01 X14.6144 Y10.5012 
G01 X14.6144 Y8.0788  
G01 X14.4067 Y7.5773  
G01 X14.0229 Y7.1935  
G01 X14.0081 Y7.1874  
G01 X12.4919 Y7.1874  
G01 X12.4771 Y7.1935  
G01 X12.0946 Y7.5760  
G01 X12.0203 Y7.6068  
G01 X11.9397 Y7.6068  
G01 X11.8653 Y7.5760  
G01 X11.8084 Y7.5191  
G01 X11.4829 Y7.1935  
G01 X11.4681 Y7.1874  
G01 X9.9519  Y7.1874  
G01 X9.9371  Y7.1935  
G01 X9.5533  Y7.5773  
G01 X9.4951  Y7.7180  
G01 X9.4933  Y7.7294  
G01 X9.4870  Y7.7396  
G01 X9.4803  Y7.7602  
G01 X9.4750  Y7.7664  
G01 X9.4719  Y7.7739  
G01 X9.4566  Y7.7892  
G01 X9.4512  Y7.7980  
G01 X9.4426  Y7.8042  
G01 X9.4279  Y7.8214  
G01 X9.4207  Y7.8251  
G01 X9.4150  Y7.8308  
G01 X9.3942  Y7.8394  
G01 X9.3860  Y7.8454  
G01 X9.3762  Y7.8477  
G01 X9.3561  Y7.8579  
G01 X9.3481  Y7.8585  
G01 X9.3406  Y7.8616  
G01 X9.3182  Y7.8616  
G01 X9.3078  Y7.8642  
G01 X9.2973  Y7.8625  
G01 X9.2759  Y7.8642  
G01 X9.2682  Y7.8616  
G01 X9.2600  Y7.8616  
G01 X9.2403  Y7.8535  
G01 X9.2282  Y7.8516  
G01 X9.2180  Y7.8453  
G01 X9.1993  Y7.8392  
G01 X9.1932  Y7.8339  
G01 X9.1857  Y7.8308  
G01 X9.1718  Y7.8170  
G01 X9.1596  Y7.8095  
G01 X9.1513  Y7.7982  
G01 X9.1381  Y7.7869  
G01 X9.1345  Y7.7796  
G01 X9.1287  Y7.7739  
G01 X9.1221  Y7.7579  
G01 X9.0231  Y7.6216  
G01 X8.9241  Y7.5227  
G01 X8.8876  Y7.6321  
G01 X8.9586  Y7.7030  
G01 X9.0697  Y7.8693  
G01 X9.1462  Y8.0541  
G01 X9.1852  Y8.2502  
G01 X9.1852  Y10.3298 
G01 X9.1462  Y10.5259 
G01 X9.0697  Y10.7107 
G01 X8.9586  Y10.8770 
G01 X8.8171  Y11.0184 
G01 X8.6509  Y11.1295 
G01 X8.4994  Y11.1922 
G01 X8.4994  Y11.2987 
G01 X8.5993  Y11.2663 
G01 X8.7562  Y11.1863 
G01 X8.8986  Y11.0829 
G01 X9.0231  Y10.9584 
G01 X9.1221  Y10.8221 
G01 X9.1287  Y10.8061 
G01 X9.1345  Y10.8004 
G01 X9.1381  Y10.7931 
G01 X9.1513  Y10.7818 
G01 X9.1596  Y10.7705 
G01 X9.1718  Y10.7630 
G01 X9.1857  Y10.7492 
G01 X9.1932  Y10.7461 
G01 X9.1993  Y10.7408 
G01 X9.2180  Y10.7347 
G01 X9.2282  Y10.7284 
G01 X9.2403  Y10.7265 
G01 X9.2600  Y10.7183 
G01 X9.2682  Y10.7183 
G01 X9.2759  Y10.7158 
G01 X9.2973  Y10.7175 
G01 X9.3078  Y10.7158 
G01 X9.3182  Y10.7183 
G01 X9.3406  Y10.7183 
G01 X9.3481  Y10.7215 
G01 X9.3561  Y10.7221 
G01 X9.3762  Y10.7323 
G01 X9.3860  Y10.7346 
G01 X9.3942  Y10.7406 
G01 X9.4150  Y10.7492 
G01 X9.4207  Y10.7549 
G01 X9.4279  Y10.7586 
G01 X9.4426  Y10.7757 
G01 X9.4512  Y10.7820 
G01 X9.4566  Y10.7908 
G01 X9.4719  Y10.8061 
G01 X9.4750  Y10.8136 
G01 X9.4803  Y10.8198 
G01 X9.4870  Y10.8404 
G01 X9.4933  Y10.8506 
G01 X9.4951  Y10.8620 
G01 X9.5533  Y11.0027 
G01 X9.9371  Y11.3865 
G01 X10.4386 Y11.5942 
G01 X10.9814 Y11.5942 
G01 X11.2673 Y11.4758 
G01 X11.2785 Y11.4673 
G01 X11.3042 Y11.4605 
G01 X11.3287 Y11.4503 
G01 X11.3428 Y11.4503 
G01 X11.3564 Y11.4468 
G01 X11.3827 Y11.4503 
G01 X11.4092 Y11.4503 
G01 X11.4222 Y11.4557 
G01 X11.4362 Y11.4576 
G01 X11.4591 Y11.4710 
G01 X11.4836 Y11.4812 
G01 X11.4935 Y11.4911 
G01 X11.5057 Y11.4982 
G01 X11.5218 Y11.5193 
G01 X11.5405 Y11.5381 
G01 X11.5459 Y11.5511 
G01 X24.2107 Y28.2093 
G01 X24.2295 Y28.2281 
G01 X24.2349 Y28.2411 
G01 X24.2434 Y28.2523 
G01 X24.2502 Y28.2780 
G01 X24.2603 Y28.3025 
G01 X24.2603 Y28.3166 
G01 X24.2639 Y28.3302 
G01 X24.2603 Y28.3565 
G01 X24.2603 Y28.3830 
G01 X24.2549 Y28.3960 
G01 X24.2530 Y28.4100 
G01 X24.2397 Y28.4329 
G01 X24.2295 Y28.4574 
G01 X24.2196 Y28.4674 
G01 X24.2125 Y28.4795 
G01 X24.1914 Y28.4956 
G01 X9.4923  Y43.1946 
G01 X9.4179  Y43.2254 
G01 X8.4828  Y43.2254 
G01 X7.7654  Y43.9428 
G01 X7.7654  Y44.9572 
G01 X8.4828  Y45.6746 
G01 X9.4972  Y45.6746 
G01 X10.2146 Y44.9572 
G01 X10.2146 Y44.0761 
G01 X10.2454 Y44.0017 
G01 X10.3023 Y43.9447 
G01 X24.1842 Y30.0628 
G01 X24.2586 Y30.0320 
G01 X24.3392 Y30.0320 
G01 X24.3603 Y30.0408 
G01 X24.4136 Y30.0628 
G01 X24.4705 Y30.1198 
G01 X24.5013 Y30.1942 
G01 X24.5013 Y30.2747 
G01 X24.4851 Y30.3137 
G01 X24.4705 Y30.3491 
G01 X24.3644 Y30.6052 
G01 X24.3644 Y31.3708 
G01 X24.6574 Y32.0782 
G01 X25.1988 Y32.6196 
G01 X25.4740 Y32.7336 
G01 X25.5484 Y32.7644 
G01 X25.6044 Y32.8204 
G01 X25.6361 Y32.8957 
G01 X25.6361 Y32.9762 
G01 X25.6053 Y33.0506 
G01 X25.5492 Y33.1067 
G01 X20.7470 Y37.9089 
G01 X20.6726 Y37.9397 
G01 X20.5921 Y37.9397 
G01 X20.5177 Y37.9089 
G01 X20.4608 Y37.8520 
G01 X20.4300 Y37.7776 
G01 X20.4276 Y37.7718 
G01 X19.8862 Y37.2304 
G01 X19.1788 Y36.9374 
G01 X18.4132 Y36.9374 
G01 X17.7058 Y37.2304 
G01 X17.1644 Y37.7718 
G01 X16.8714 Y38.4792 
G01 X16.8714 Y39.2448 
G01 X17.1218 Y39.8493 
G01 X17.1218 Y39.9298 
G01 X17.0910 Y40.0042 
G01 X17.0436 Y40.0516 
G01 X17.0340 Y40.0612 
G01 X16.5294 Y40.5658 
G01 X16.2364 Y41.2732 
G01 X16.2364 Y42.0388 
G01 X16.5294 Y42.7462 
G01 X16.6195 Y42.8363 
G01 X16.6764 Y42.8932 
G01 X16.6979 Y42.9452 
G01 X16.7072 Y42.9676 
G01 X16.7072 Y43.0481 
G01 X16.6764 Y43.1225 
G01 X6.0094  Y53.7895 
G01 X5.9254  Y53.9923 
G01 X5.9254  Y55.0339 
G01 X5.9292  Y55.0501 
G01 X5.9254  Y55.0738 
G01 X5.9254  Y55.0978 
G01 X5.9190  Y55.1132 
G01 X5.9150  Y55.1385 
G01 X5.9162  Y55.1437 
G01 X5.9254  Y55.1659 
G01 X5.9254  Y55.1825 
G01 X5.9292  Y55.1986 
G01 X5.9254  Y55.2224 
G01 X5.9254  Y55.2277 
G01 X5.9352  Y55.2514 
G01 X5.9449  Y55.2649 
G01 X5.9505  Y55.2882 
G01 X5.9597  Y55.3104 
G01 X5.9597  Y55.3270 
G01 X5.9656  Y55.3520 
G01 X5.9687  Y55.3563 
G01 X5.9857  Y55.3733 
G01 X5.9921  Y55.3887 
G01 X6.0018  Y55.4021 
G01 X6.0073  Y55.4255 
G01 X6.0094  Y55.4305 
G01 X6.0275  Y55.4486 
G01 X6.0416  Y55.4573 
G01 X6.0557  Y55.4768 
G01 X6.0727  Y55.4938 
G01 X6.0791  Y55.5091 
G01 X9.2707  Y59.9283 
G01 X9.2877  Y59.9453 
G01 X9.2941  Y59.9607 
G01 X9.3038  Y59.9741 
G01 X9.3093  Y59.9975 
G01 X9.3114  Y60.0025 
G01 X9.3295  Y60.0206 
G01 X9.3436  Y60.0293 
G01 X9.3577  Y60.0488 
G01 X9.3747  Y60.0658 
G01 X9.3811  Y60.0811 
G01 X9.3961  Y60.1019 
G01 X9.4006  Y60.1047 
G01 X9.4228  Y60.1139 
G01 X9.4346  Y60.1256 
G01 X9.4487  Y60.1343 
G01 X9.4628  Y60.1538 
G01 X9.4665  Y60.1576 
G01 X9.4902  Y60.1674 
G01 X9.5066  Y60.1701 
G01 X9.5271  Y60.1827 
G01 X9.5493  Y60.1919 
G01 X9.5610  Y60.2036 
G01 X9.5828  Y60.2171 
G01 X9.5881  Y60.2179 
G01 X9.6122  Y60.2179 
G01 X9.6275  Y60.2243 
G01 X9.6439  Y60.2269 
G01 X9.6643  Y60.2396 
G01 X9.6693  Y60.2416 
G01 X9.6949  Y60.2416 
G01 X9.7111  Y60.2378 
G01 X9.7348  Y60.2416 
G01 X9.7588  Y60.2416 
G01 X9.7742  Y60.2480 
G01 X9.7995  Y60.2520 
G01 X9.8047  Y60.2508 
G01 X9.8269  Y60.2416 
G01 X9.8435  Y60.2416 
G01 X9.8596  Y60.2378 
G01 X9.8834  Y60.2416 
G01 X20.3661 Y60.2416 
G01 X20.4059 Y60.2416 
G01 X20.4466 Y60.2416 
G01 X20.4787 Y60.2549 
G01 X20.5210 Y60.2724 
G01 X20.5350 Y60.2864 
G01 X20.5779 Y60.3293 
G01 X20.8763 Y60.6281 
G01 X21.2657 Y60.7894 
G01 X21.6873 Y60.7894 
G01 X22.0767 Y60.6281 
G01 X22.3748 Y60.3301 
G01 X22.5361 Y59.9406 
G01 X22.5361 Y59.5191 
G01 X22.3748 Y59.1296 
G01 X22.0767 Y58.8316 
G01 X21.6873 Y58.6702 
G01 X21.2657 Y58.6702 
G01 X20.8763 Y58.8316 
G01 X20.6003 Y59.1076 
G01 X20.5259 Y59.1384 
G01 X10.1882 Y59.1384 
G01 X10.1720 Y59.1422 
G01 X10.1483 Y59.1384 
G01 X10.1243 Y59.1384 
G01 X10.1089 Y59.1320 
G01 X10.0926 Y59.1294 
G01 X10.0721 Y59.1168 
G01 X10.0499 Y59.1076 
G01 X10.0381 Y59.0958 
G01 X10.0240 Y59.0871 
G01 X10.0100 Y59.0677 
G01 X9.9929  Y59.0507 
G01 X9.9866  Y59.0353 
G01 X7.0764  Y55.0058 
G01 X7.0594  Y54.9888 
G01 X7.0531  Y54.9735 
G01 X7.0433  Y54.9601 
G01 X7.0378  Y54.9367 
G01 X7.0286  Y54.9145 
G01 X7.0286  Y54.8979 
G01 X7.0248  Y54.8817 
G01 X7.0286  Y54.8580 
G01 X7.0286  Y54.3741 
G01 X7.0593  Y54.2999 
G01 X7.1163  Y54.2427 
G01 X7.3914  Y53.9677 
G01 X7.4454  Y53.9137 
G01 X7.4483  Y53.9107 
G01 X7.5227  Y53.8799 
G01 X7.6033  Y53.8799 
G01 X7.6777  Y53.9107 
G01 X7.7337  Y53.9668 
G01 X7.7654  Y54.0420 
G01 X7.7654  Y55.1172 
G01 X8.4828  Y55.8346 
G01 X9.4972  Y55.8346 
G01 X10.2146 Y55.1172 
G01 X10.2146 Y54.2361 
G01 X10.2454 Y54.1617 
G01 X10.3023 Y54.1047 
G01 X11.5707 Y52.8364 
G01 X11.6277 Y52.7794 
G01 X11.6999 Y52.7495 
G01 X17.7485 Y52.7486 
G01 X17.8229 Y52.7794 
G01 X17.8798 Y52.8363 
G01 X17.9106 Y52.9107 
G01 X17.9415 Y52.9854 
G01 X18.0414 Y53.0852 
G01 X18.0722 Y53.1596 
G01 X18.0722 Y53.2401 
G01 X18.0414 Y53.3145 
G01 X17.9845 Y53.3715 
G01 X17.5945 Y53.7614 
G01 X17.4394 Y53.9165 
G01 X17.3554 Y54.1193 
G01 X17.3554 Y56.2437 
G01 X17.4394 Y56.4465 
G01 X17.7892 Y56.7962 
G01 X17.8425 Y56.8496 
G01 X17.8461 Y56.8532 
G01 X17.8769 Y56.9276 
G01 X17.8769 Y57.4006 
G01 X18.0382 Y57.7901 
G01 X18.3363 Y58.0881 
G01 X18.7257 Y58.2494 
G01 X19.1473 Y58.2494 
G01 X19.5367 Y58.0881 
G01 X19.8348 Y57.7901 
G01 X19.9961 Y57.4006 
G01 X19.9961 Y56.9791 
G01 X19.8348 Y56.5896 
G01 X19.5367 Y56.2916 
G01 X19.1473 Y56.1302 
G01 X18.7269 Y56.1302 
G01 X18.6525 Y56.0994 
G01 X18.5956 Y56.0425 
G01 X18.5796 Y56.0265 
G01 X18.5488 Y55.9521 
G01 X18.5488 Y55.8716 
G01 X18.5796 Y55.7972 
G01 X18.6365 Y55.7403 
G01 X18.7109 Y55.7094 
G01 X19.1473 Y55.7094 
G01 X19.5367 Y55.5481 
G01 X19.7654 Y55.3194 
G01 X19.8398 Y55.2886 
G01 X21.3179 Y55.2886 
G01 X21.3923 Y55.3194 
G01 X21.4391 Y55.3662 
G01 X24.3692 Y58.2963 
G01 X24.4261 Y58.3532 
G01 X24.4569 Y58.4276 
G01 X24.4569 Y58.5081 
G01 X24.4261 Y58.5825 
G01 X24.3692 Y58.6394 
G01 X24.2948 Y58.6702 
G01 X23.8057 Y58.6702 
G01 X23.4163 Y58.8316 
G01 X23.1182 Y59.1296 
G01 X22.9569 Y59.5191 
G01 X22.9569 Y59.9406 
G01 X23.1182 Y60.3301 
G01 X23.4163 Y60.6281 
G01 X23.8057 Y60.7894 
G01 X24.2273 Y60.7894 
G01 X24.3323 Y60.7459 
G01 X24.3739 Y60.7287 
G01 X24.4067 Y60.7151 
G01 X24.4872 Y60.7151 
G01 X24.5616 Y60.7459 
G01 X24.6186 Y60.8029 
G01 X24.6401 Y60.8548 
G01 X24.6494 Y60.8772 
G01 X24.6494 Y60.9578 
G01 X24.4914 Y61.3392 
G01 X24.4914 Y62.1048 
G01 X24.7844 Y62.8122 
G01 X25.3258 Y63.3536 
G01 X26.0332 Y63.6466 
G01 X26.7988 Y63.6466 
G01 X27.5062 Y63.3536 
G01 X28.0476 Y62.8122 
G01 X28.2035 Y62.4357 
G01 X28.2343 Y62.3613 
G01 X28.2904 Y62.3053 
G01 X28.3657 Y62.2736 
G01 X35.2887 Y62.2736 
G01 X35.4915 Y62.1896 
G01 X35.7036 Y61.9775 
G01 X39.5836 Y58.0975 
G01 X39.6676 Y57.8947 
G01 X39.6676 Y32.0213 
G01 X39.5836 Y31.8185 
G01 X39.3715 Y31.6064 
G01 X38.4087 Y30.6436 
G01 X38.3600 Y30.5949 
G01 X38.3517 Y30.5866 
G01 X38.3209 Y30.5123 
G01 X38.3209 Y30.4317 
G01 X38.3517 Y30.3573 
G01 X38.4078 Y30.3013 
G01 X38.4830 Y30.2696 
G01 X39.4523 Y30.2696 
G01 X39.5267 Y30.3004 
G01 X39.5837 Y30.3573 
G01 X39.6145 Y30.4317 
G01 X39.7704 Y30.8082 
G01 X40.3118 Y31.3496 
G01 X41.0192 Y31.6426 
G01 X41.7848 Y31.6426 
G01 X42.4922 Y31.3496 
G01 X43.0336 Y30.8082 
G01 X43.3266 Y30.1008 
G01 X43.3266 Y29.3352 
G01 X43.0336 Y28.6278 
G01 X42.4922 Y28.0864 
G01 X41.7848 Y27.7934 
G01 X41.0192 Y27.7934 
G01 X40.3118 Y28.0864 
G01 X40.0540 Y28.3442 
G01 X40.0379 Y28.4458 
G01 X39.9856 Y28.6068 
G01 X39.9088 Y28.7576 
G01 X39.8093 Y28.8946 
G01 X39.6896 Y29.0143 
G01 X39.5526 Y29.1138 
G01 X39.5443 Y29.1180 
G01 X39.5276 Y29.1347 
G01 X39.4523 Y29.1664 
G01 X39.4493 Y29.1664 
G01 X39.4018 Y29.1906 
G01 X39.2408 Y29.2429 
G01 X39.0736 Y29.2694 
G01 X38.9044 Y29.2694 
G01 X38.7372 Y29.2429 
G01 X38.5762 Y29.1906 
G01 X38.4254 Y29.1138 
G01 X38.3230 Y29.0394 
G01 X37.1698 Y29.0394 
G01 X37.0954 Y29.0086 
G01 X37.0385 Y28.9517 
G01 X37.0077 Y28.8773 
G01 X37.0077 Y28.5981 
G01 X36.9431 Y28.4421 
G01 X36.8894 Y28.3885 
G01 X36.8703 Y28.3964 
G01 X36.6307 Y28.3964 
G01 X36.6258 Y28.4013 
G01 X36.5981 Y28.4128 
G01 X35.5775 Y28.4128 
G01 X35.5498 Y28.4013 
G01 X35.5286 Y28.3801 
G01 X35.5171 Y28.3524 
G01 X35.5171 Y28.0176 
G01 X35.5286 Y27.9899 
G01 X35.5498 Y27.9687 
G01 X35.5775 Y27.9572 
G01 X36.5981 Y27.9572 
G01 X36.6258 Y27.9687 
G01 X36.6470 Y27.9899 
G01 X36.7462 Y27.9916 
G01 X37.7379 Y26.9999 
G01 X37.7948 Y26.9429 
G01 X39.1676 Y25.5702 
G01 X39.1676 Y17.8135 
G01 X37.0472 Y15.6932 
G01 X36.9903 Y15.6362 
G01 X36.9595 Y15.5618 
G01 X36.9595 Y15.4813 
G01 X36.9903 Y15.4069 
G01 X37.0472 Y15.3500 
G01 X37.1216 Y15.3192 
G01 X37.6662 Y15.0936 
G01 X38.2076 Y14.5522 
G01 X38.5006 Y13.8448 
G01 X38.5006 Y13.0792 
G01 X38.2076 Y12.3718 
G01 X37.8040 Y11.9682 
G01 X37.7510 Y11.9152 
G01 X37.7470 Y11.9112 
G01 X37.7162 Y11.8369 
G01 X37.7162 Y11.7563 
G01 X37.7470 Y11.6819 
G01 X37.8031 Y11.6259 
G01 X37.8784 Y11.5942 
G01 X38.0314 Y11.5942 
G01 X38.5329 Y11.3865 
G01 X38.9167 Y11.0027 
G01 X39.1244 Y10.5012 
G01 X39.1244 Y8.0788  
G01 X39.0981 Y8.0154  
G01 X38.2702 Y7.1874  
G01 X37.0019 Y7.1874  
G01 X36.9871 Y7.1935  
G01 X36.6046 Y7.5760  
G01 X36.5303 Y7.6068  
G01 X36.4497 Y7.6068  
G01 X36.3753 Y7.5760  
G01 X36.3184 Y7.5191  
G01 X35.9929 Y7.1935  
G01 X35.9781 Y7.1874  
G01 X34.4619 Y7.1874  
G01 X34.4471 Y7.1935  
G01 X34.0646 Y7.5760  
G01 X33.9903 Y7.6068  
G01 X33.9097 Y7.6068  
G01 X33.8353 Y7.5760  
G01 X33.7784 Y7.5191  
G01 X33.4529 Y7.1935  
G01 X33.4381 Y7.1874  
G01 X31.9219 Y7.1874  
G01 X31.9071 Y7.1935  
G01 X31.5246 Y7.5760  
G01 X31.4503 Y7.6068  
G01 X31.3697 Y7.6068  
G01 X31.2953 Y7.5760  
G01 X31.2384 Y7.5191  
G01 X30.9129 Y7.1935  
G01 X30.8981 Y7.1874  
G01 X29.3819 Y7.1874  
G01 X29.3671 Y7.1935  
G01 X28.9846 Y7.5760  
G01 X28.9103 Y7.6068  
G01 X28.8297 Y7.6068  
G01 X28.7553 Y7.5760  
G01 X28.6984 Y7.5191  
G01 X28.3729 Y7.1935  
G01 X28.3581 Y7.1874  
G01 X27.1348 Y7.1874  
G01 X27.1022 Y7.2201  
G01 X26.0747 Y8.2476  
G01 X26.0752 Y8.2502  
G01 X26.0752 Y10.3298 
G01 X26.0362 Y10.5259 
G01 X25.9597 Y10.7107 
G01 X25.8486 Y10.8770 
G01 X25.7072 Y11.0184 
G01 X25.5409 Y11.1295 
G01 X25.3894 Y11.1922 
G01 X25.3894 Y11.2987 
G01 X25.4893 Y11.2663 
G01 X25.6462 Y11.1863 
G01 X25.7886 Y11.0829 
G00 Z2.0000  
G00 X36.9538 Y48.7875 
G01 Z-0.2500 F100   
G01 X36.9419 Y48.7851 F100   
G01 X36.9419 Y48.8943 
G01 X37.0530 Y48.9403 
G01 X37.1694 Y49.0180 
G01 X37.2683 Y49.1170 
G01 X37.3461 Y49.2333 
G01 X37.3996 Y49.3626 
G01 X37.4269 Y49.4999 
G01 X37.4269 Y49.6398 
G01 X37.3996 Y49.7771 
G01 X37.3461 Y49.9063 
G01 X37.2683 Y50.0227 
G01 X37.1694 Y50.1216 
G01 X37.0530 Y50.1994 
G01 X36.9419 Y50.2454 
G01 X36.9419 Y50.3545 
G01 X36.9538 Y50.3522 
G01 X36.9773 Y50.3424 
G01 X37.0490 Y50.3128 
G01 X37.0517 Y50.3116 
G01 X37.1323 Y50.3116 
G01 X37.2067 Y50.3424 
G01 X37.2636 Y50.3994 
G01 X37.2935 Y50.4716 
G01 X37.2944 Y50.9397 
G01 X37.2856 Y50.9608 
G01 X37.2636 Y51.0141 
G01 X37.2067 Y51.0710 
G01 X37.1323 Y51.1018 
G01 X37.0517 Y51.1018 
G01 X37.0222 Y51.0896 
G01 X36.9773 Y51.0710 
G01 X36.9273 Y51.0502 
G01 X36.5057 Y51.0502 
G01 X36.4813 Y51.0604 
G01 X36.4415 Y51.0604 
G01 X36.4008 Y51.0604 
G01 X36.3540 Y51.0410 
G01 X36.3264 Y51.0296 
G01 X36.2924 Y50.9956 
G01 X36.2694 Y50.9727 
G01 X36.2559 Y50.9399 
G01 X36.2386 Y50.8983 
G01 X36.2386 Y50.8584 
G01 X36.2386 Y50.8177 
G01 X36.2386 Y50.5709 
G01 X36.2346 Y50.5509 
G01 X36.2386 Y50.5310 
G01 X36.2386 Y50.5107 
G01 X36.2464 Y50.4919 
G01 X36.2503 Y50.4720 
G01 X36.2616 Y50.4551 
G01 X36.2694 Y50.4363 
G01 X36.2838 Y50.4219 
G01 X36.2951 Y50.4050 
G01 X36.3120 Y50.3937 
G01 X36.3263 Y50.3794 
G01 X36.3451 Y50.3716 
G01 X36.3620 Y50.3603 
G01 X36.3820 Y50.3563 
G01 X36.4007 Y50.3485 
G01 X36.4211 Y50.3485 
G01 X36.4410 Y50.3446 
G01 X36.4609 Y50.3485 
G01 X36.4813 Y50.3485 
G01 X36.4911 Y50.3526 
G01 X36.4911 Y50.2454 
G01 X36.3800 Y50.1994 
G01 X36.2637 Y50.1216 
G01 X36.1647 Y50.0227 
G01 X36.0870 Y49.9063 
G01 X36.0334 Y49.7771 
G01 X36.0061 Y49.6398 
G01 X36.0061 Y49.4999 
G01 X36.0334 Y49.3626 
G01 X36.0870 Y49.2333 
G01 X36.1647 Y49.1170 
G01 X36.2637 Y49.0180 
G01 X36.3800 Y48.9403 
G01 X36.4911 Y48.8943 
G01 X36.4911 Y48.7871 
G01 X36.4813 Y48.7911 
G01 X36.4609 Y48.7911 
G01 X36.4410 Y48.7951 
G01 X36.4211 Y48.7911 
G01 X36.4007 Y48.7911 
G01 X36.3820 Y48.7834 
G01 X36.3620 Y48.7794 
G01 X36.3451 Y48.7681 
G01 X36.3263 Y48.7603 
G01 X36.3120 Y48.7459 
G01 X36.2951 Y48.7347 
G01 X36.2838 Y48.7178 
G01 X36.2694 Y48.7034 
G01 X36.2616 Y48.6846 
G01 X36.2503 Y48.6677 
G01 X36.2464 Y48.6478 
G01 X36.2386 Y48.6290 
G01 X36.2386 Y48.6087 
G01 X36.2346 Y48.5887 
G01 X36.2386 Y48.5688 
G01 X36.2386 Y48.2414 
G01 X36.2694 Y48.1670 
G01 X36.3263 Y48.1101 
G01 X36.4007 Y48.0793 
G01 X36.4813 Y48.0793 
G01 X36.5057 Y48.0894 
G01 X36.9273 Y48.0894 
G01 X36.9773 Y48.0687 
G01 X37.0205 Y48.0508 
G01 X37.0517 Y48.0379 
G01 X37.1323 Y48.0379 
G01 X37.2067 Y48.0687 
G01 X37.2636 Y48.1256 
G01 X37.2851 Y48.1776 
G01 X37.2944 Y48.2000 
G01 X37.2944 Y48.6659 
G01 X37.2636 Y48.7403 
G01 X37.2067 Y48.7973 
G01 X37.1323 Y48.8281 
G01 X37.0517 Y48.8281 
G01 X36.9773 Y48.7973 
G01 X36.9538 Y48.7875 
G00 Z2.0000  
G00 X29.7419 Y32.5072 
G01 Z-0.2500 F100   
G01 X30.7625 Y32.5072 F100   
G01 X30.7902 Y32.5187 
G01 X30.8114 Y32.5399 
G01 X30.8229 Y32.5676 
G01 X30.8229 Y32.9024 
G01 X30.8114 Y32.9301 
G01 X30.7902 Y32.9513 
G01 X30.7625 Y32.9628 
G01 X30.4284 Y32.9628 
G01 X30.4284 Y41.9503 
G01 X30.3976 Y42.0247 
G01 X27.8884 Y44.5338 
G01 X27.8884 Y55.0773 
G01 X27.9378 Y55.0851 
G01 X28.0988 Y55.1374 
G01 X28.2496 Y55.2142 
G01 X28.3866 Y55.3137 
G01 X28.5063 Y55.4334 
G01 X28.6058 Y55.5704 
G01 X28.6826 Y55.7212 
G01 X28.7349 Y55.8822 
G01 X28.7614 Y56.0494 
G01 X28.7614 Y56.2186 
G01 X28.7349 Y56.3858 
G01 X28.6826 Y56.5468 
G01 X28.6058 Y56.6976 
G01 X28.5063 Y56.8346 
G01 X28.3866 Y56.9543 
G01 X28.2496 Y57.0538 
G01 X28.0988 Y57.1306 
G01 X27.9378 Y57.1829 
G01 X27.7706 Y57.2094 
G01 X27.6014 Y57.2094 
G01 X27.4342 Y57.1829 
G01 X27.2732 Y57.1306 
G01 X27.1224 Y57.0538 
G01 X26.9854 Y56.9543 
G01 X26.8657 Y56.8346 
G01 X26.7662 Y56.6976 
G01 X26.6894 Y56.5468 
G01 X26.6371 Y56.3858 
G01 X26.6106 Y56.2186 
G01 X26.6106 Y56.0494 
G01 X26.6371 Y55.8822 
G01 X26.6894 Y55.7212 
G01 X26.7662 Y55.5704 
G01 X26.8657 Y55.4334 
G01 X26.9854 Y55.3137 
G01 X27.1224 Y55.2142 
G01 X27.2732 Y55.1374 
G01 X27.4342 Y55.0851 
G01 X27.4836 Y55.0773 
G01 X27.4836 Y44.4097 
G01 X27.5144 Y44.3353 
G01 X27.5713 Y44.2784 
G01 X30.0236 Y41.8262 
G01 X30.0236 Y32.9628 
G01 X29.7419 Y32.9628 
G01 X29.7142 Y32.9513 
G01 X29.6930 Y32.9301 
G01 X29.6815 Y32.9024 
G01 X29.6815 Y32.5676 
G01 X29.6930 Y32.5399 
G01 X29.7142 Y32.5187 
G01 X29.7419 Y32.5072 
G00 Z2.0000  
G00 X29.7419 Y30.5572 
G01 Z-0.2500 F100   
G01 X30.7625 Y30.5572 F100   
G01 X30.7902 Y30.5687 
G01 X30.8114 Y30.5899 
G01 X30.8229 Y30.6176 
G01 X30.8229 Y30.9524 
G01 X30.8114 Y30.9801 
G01 X30.7902 Y31.0013 
G01 X30.7625 Y31.0128 
G01 X30.3619 Y31.0128 
G01 X30.3509 Y31.0253 
G01 X30.3451 Y31.0281 
G01 X30.3407 Y31.0326 
G01 X30.3091 Y31.0456 
G01 X30.2785 Y31.0606 
G01 X30.2721 Y31.0610 
G01 X30.2663 Y31.0634 
G01 X30.2321 Y31.0634 
G01 X30.1981 Y31.0655 
G01 X30.1921 Y31.0634 
G01 X29.4208 Y31.0634 
G01 X19.1781 Y41.3062 
G01 X19.2099 Y41.4042 
G01 X19.2364 Y41.5714 
G01 X19.2364 Y41.7406 
G01 X19.2099 Y41.9078 
G01 X19.1576 Y42.0688 
G01 X19.0808 Y42.2196 
G01 X18.9813 Y42.3566 
G01 X18.8616 Y42.4763 
G01 X18.7246 Y42.5758 
G01 X18.5738 Y42.6526 
G01 X18.4128 Y42.7049 
G01 X18.2456 Y42.7314 
G01 X18.0764 Y42.7314 
G01 X17.9092 Y42.7049 
G01 X17.7482 Y42.6526 
G01 X17.5974 Y42.5758 
G01 X17.4604 Y42.4763 
G01 X17.3407 Y42.3566 
G01 X17.2412 Y42.2196 
G01 X17.1644 Y42.0688 
G01 X17.1121 Y41.9078 
G01 X17.0856 Y41.7406 
G01 X17.0856 Y41.5714 
G01 X17.1121 Y41.4042 
G01 X17.1644 Y41.2432 
G01 X17.2412 Y41.0924 
G01 X17.3407 Y40.9554 
G01 X17.4604 Y40.8357 
G01 X17.5974 Y40.7362 
G01 X17.7482 Y40.6594 
G01 X17.9092 Y40.6071 
G01 X18.0764 Y40.5806 
G01 X18.2456 Y40.5806 
G01 X18.4128 Y40.6071 
G01 X18.5738 Y40.6594 
G01 X18.7246 Y40.7362 
G01 X18.8616 Y40.8357 
G01 X18.9688 Y40.9430 
G01 X29.2223 Y30.6894 
G01 X29.2967 Y30.6586 
G01 X29.6815 Y30.6586 
G01 X29.6815 Y30.6176 
G01 X29.6930 Y30.5899 
G01 X29.7142 Y30.5687 
G01 X29.7419 Y30.5572 
G00 Z2.0000  
G00 X29.7419 Y29.9072 
G01 Z-0.2500 F100   
G01 X30.7625 Y29.9072 F100   
G01 X30.7902 Y29.9187 
G01 X30.8114 Y29.9399 
G01 X30.8229 Y29.9676 
G01 X30.8229 Y30.3024 
G01 X30.8114 Y30.3301 
G01 X30.7902 Y30.3513 
G01 X30.7625 Y30.3628 
G01 X30.3758 Y30.3628 
G01 X30.3592 Y30.3836 
G01 X30.3489 Y30.3893 
G01 X30.3407 Y30.3976 
G01 X30.3140 Y30.4086 
G01 X30.2887 Y30.4226 
G01 X30.2771 Y30.4239 
G01 X30.2663 Y30.4284 
G01 X30.2374 Y30.4284 
G01 X30.2087 Y30.4316 
G01 X30.1974 Y30.4284 
G01 X29.2938 Y30.4284 
G01 X20.7456 Y38.9766 
G01 X20.6887 Y39.0336 
G01 X20.6143 Y39.0644 
G01 X19.8527 Y39.0644 
G01 X19.8449 Y39.1138 
G01 X19.7926 Y39.2748 
G01 X19.7158 Y39.4256 
G01 X19.6163 Y39.5626 
G01 X19.4966 Y39.6823 
G01 X19.3596 Y39.7818 
G01 X19.2088 Y39.8586 
G01 X19.0478 Y39.9109 
G01 X18.8806 Y39.9374 
G01 X18.7114 Y39.9374 
G01 X18.5442 Y39.9109 
G01 X18.3832 Y39.8586 
G01 X18.2324 Y39.7818 
G01 X18.0954 Y39.6823 
G01 X17.9757 Y39.5626 
G01 X17.8762 Y39.4256 
G01 X17.7994 Y39.2748 
G01 X17.7471 Y39.1138 
G01 X17.7206 Y38.9466 
G01 X17.7206 Y38.7774 
G01 X17.7471 Y38.6102 
G01 X17.7994 Y38.4492 
G01 X17.8762 Y38.2984 
G01 X17.9757 Y38.1614 
G01 X18.0954 Y38.0417 
G01 X18.2324 Y37.9422 
G01 X18.3832 Y37.8654 
G01 X18.5442 Y37.8131 
G01 X18.7114 Y37.7866 
G01 X18.8806 Y37.7866 
G01 X19.0478 Y37.8131 
G01 X19.2088 Y37.8654 
G01 X19.3596 Y37.9422 
G01 X19.4966 Y38.0417 
G01 X19.6163 Y38.1614 
G01 X19.7158 Y38.2984 
G01 X19.7926 Y38.4492 
G01 X19.8449 Y38.6102 
G01 X19.8527 Y38.6596 
G01 X20.4902 Y38.6596 
G01 X29.0953 Y30.0544 
G01 X29.1697 Y30.0236 
G01 X29.6815 Y30.0236 
G01 X29.6815 Y29.9676 
G01 X29.6930 Y29.9399 
G01 X29.7142 Y29.9187 
G01 X29.7419 Y29.9072 
G00 Z2.0000  
G00 X29.7419 Y29.2572 
G01 Z-0.2500 F100   
G01 X30.7625 Y29.2572 F100   
G01 X30.7902 Y29.2687 
G01 X30.8114 Y29.2899 
G01 X30.8229 Y29.3176 
G01 X30.8229 Y29.6524 
G01 X30.8114 Y29.6801 
G01 X30.7902 Y29.7013 
G01 X30.7625 Y29.7128 
G01 X29.7419 Y29.7128 
G01 X29.7142 Y29.7013 
G01 X29.6930 Y29.6801 
G01 X29.6873 Y29.6664 
G01 X27.8968 Y29.6664 
G01 X27.1794 Y30.3839 
G01 X27.2088 Y30.4244 
G01 X27.2856 Y30.5752 
G01 X27.3379 Y30.7362 
G01 X27.3644 Y30.9034 
G01 X27.3644 Y31.0726 
G01 X27.3379 Y31.2398 
G01 X27.2856 Y31.4008 
G01 X27.2088 Y31.5516 
G01 X27.1093 Y31.6886 
G01 X26.9896 Y31.8083 
G01 X26.8526 Y31.9078 
G01 X26.7018 Y31.9846 
G01 X26.5408 Y32.0369 
G01 X26.3736 Y32.0634 
G01 X26.2044 Y32.0634 
G01 X26.0372 Y32.0369 
G01 X25.8762 Y31.9846 
G01 X25.7254 Y31.9078 
G01 X25.5884 Y31.8083 
G01 X25.4687 Y31.6886 
G01 X25.3692 Y31.5516 
G01 X25.2924 Y31.4008 
G01 X25.2401 Y31.2398 
G01 X25.2136 Y31.0726 
G01 X25.2136 Y30.9034 
G01 X25.2401 Y30.7362 
G01 X25.2924 Y30.5752 
G01 X25.3692 Y30.4244 
G01 X25.4687 Y30.2874 
G01 X25.5884 Y30.1677 
G01 X25.7254 Y30.0682 
G01 X25.8762 Y29.9914 
G01 X26.0372 Y29.9391 
G01 X26.2044 Y29.9126 
G01 X26.3736 Y29.9126 
G01 X26.5408 Y29.9391 
G01 X26.7018 Y29.9914 
G01 X26.8526 Y30.0682 
G01 X26.8931 Y30.0976 
G01 X27.6983 Y29.2924 
G01 X27.7727 Y29.2616 
G01 X29.7313 Y29.2616 
G01 X29.7419 Y29.2572 
G00 Z2.0000  
G00 X29.7419 Y28.6072 
G01 Z-0.2500 F100   
G01 X30.7625 Y28.6072 F100   
G01 X30.7902 Y28.6187 
G01 X30.8114 Y28.6399 
G01 X30.8229 Y28.6676 
G01 X30.8229 Y29.0024 
G01 X30.8114 Y29.0301 
G01 X30.7902 Y29.0513 
G01 X30.7625 Y29.0628 
G01 X29.7419 Y29.0628 
G01 X29.7142 Y29.0513 
G01 X29.6943 Y29.0314 
G01 X24.7218 Y29.0314 
G01 X9.7656  Y43.9876 
G01 X9.8654  Y44.0874 
G01 X9.8654  Y44.8126 
G01 X9.3526  Y45.3254 
G01 X8.6274  Y45.3254 
G01 X8.1146  Y44.8126 
G01 X8.1146  Y44.0874 
G01 X8.6274  Y43.5746 
G01 X9.3526  Y43.5746 
G01 X9.4794  Y43.7014 
G01 X24.5233 Y28.6574 
G01 X24.5977 Y28.6266 
G01 X29.7063 Y28.6266 
G01 X29.7142 Y28.6187 
G01 X29.7419 Y28.6072 
G00 Z2.0000  
G00 X29.7419 Y27.9572 
G01 Z-0.2500 F100   
G01 X30.7625 Y27.9572 F100   
G01 X30.7902 Y27.9687 
G01 X30.8114 Y27.9899 
G01 X30.8229 Y28.0176 
G01 X30.8229 Y28.3524 
G01 X30.8114 Y28.3801 
G01 X30.7902 Y28.4013 
G01 X30.7625 Y28.4128 
G01 X29.7419 Y28.4128 
G01 X29.7142 Y28.4013 
G01 X29.7093 Y28.3964 
G01 X24.9182 Y28.3964 
G01 X24.9046 Y28.4000 
G01 X24.8783 Y28.3964 
G01 X24.8517 Y28.3964 
G01 X24.8387 Y28.3910 
G01 X24.8248 Y28.3891 
G01 X24.8019 Y28.3757 
G01 X24.7773 Y28.3656 
G01 X24.7674 Y28.3556 
G01 X24.7552 Y28.3485 
G01 X24.7392 Y28.3274 
G01 X24.7204 Y28.3087 
G01 X24.7150 Y28.2956 
G01 X11.4835 Y10.8920 
G01 X11.3572 Y11.0184 
G01 X11.1909 Y11.1295 
G01 X11.0061 Y11.2060 
G01 X10.8100 Y11.2450 
G01 X10.6100 Y11.2450 
G01 X10.4139 Y11.2060 
G01 X10.2291 Y11.1295 
G01 X10.0628 Y11.0184 
G01 X9.9214  Y10.8770 
G01 X9.8103  Y10.7107 
G01 X9.7338  Y10.5259 
G01 X9.6948  Y10.3298 
G01 X9.6948  Y8.2502  
G01 X9.7338  Y8.0541  
G01 X9.8103  Y7.8693  
G01 X9.9214  Y7.7030  
G01 X10.0628 Y7.5616  
G01 X10.2291 Y7.4505  
G01 X10.4139 Y7.3740  
G01 X10.6100 Y7.3350  
G01 X10.8100 Y7.3350  
G01 X11.0061 Y7.3740  
G01 X11.1909 Y7.4505  
G01 X11.3572 Y7.5616  
G01 X11.4986 Y7.7030  
G01 X11.6097 Y7.8693  
G01 X11.6862 Y8.0541  
G01 X11.7252 Y8.2502  
G01 X11.7252 Y10.3298 
G01 X11.6919 Y10.4973 
G01 X24.9924 Y27.9916 
G01 X29.6923 Y27.9916 
G01 X29.7142 Y27.9687 
G01 X29.7419 Y27.9572 
G00 Z2.0000  
G00 X29.7419 Y26.6572 
G01 Z-0.2500 F100   
G01 X30.7625 Y26.6572 F100   
G01 X30.7902 Y26.6687 
G01 X30.8114 Y26.6899 
G01 X30.8229 Y26.7176 
G01 X30.8229 Y27.0524 
G01 X30.8114 Y27.0801 
G01 X30.7902 Y27.1013 
G01 X30.7625 Y27.1128 
G01 X29.7419 Y27.1128 
G01 X29.7142 Y27.1013 
G01 X29.6930 Y27.0801 
G01 X29.6815 Y27.0524 
G01 X29.6815 Y26.7176 
G01 X29.6930 Y26.6899 
G01 X29.7142 Y26.6687 
G01 X29.7419 Y26.6572 
G00 Z2.0000  
G00 X29.7419 Y26.0072 
G01 Z-0.2500 F100   
G01 X30.7625 Y26.0072 F100   
G01 X30.7902 Y26.0187 
G01 X30.8114 Y26.0399 
G01 X30.8229 Y26.0676 
G01 X30.8229 Y26.4024 
G01 X30.8114 Y26.4301 
G01 X30.7902 Y26.4513 
G01 X30.7625 Y26.4628 
G01 X29.7419 Y26.4628 
G01 X29.7142 Y26.4513 
G01 X29.6930 Y26.4301 
G01 X29.6815 Y26.4024 
G01 X29.6815 Y26.0676 
G01 X29.6930 Y26.0399 
G01 X29.7142 Y26.0187 
G01 X29.7419 Y26.0072 
G00 Z2.0000  
G00 X29.7419 Y25.3572 
G01 Z-0.2500 F100   
G01 X30.7625 Y25.3572 F100   
G01 X30.7902 Y25.3687 
G01 X30.8114 Y25.3899 
G01 X30.8229 Y25.4176 
G01 X30.8229 Y25.7524 
G01 X30.8114 Y25.7801 
G01 X30.7902 Y25.8013 
G01 X30.7625 Y25.8128 
G01 X29.7419 Y25.8128 
G01 X29.7142 Y25.8013 
G01 X29.6930 Y25.7801 
G01 X29.6815 Y25.7524 
G01 X29.6815 Y25.4176 
G01 X29.6930 Y25.3899 
G01 X29.7142 Y25.3687 
G01 X29.7419 Y25.3572 
G00 Z2.0000  
G00 X29.7419 Y24.7072 
G01 Z-0.2500 F100   
G01 X30.2703 Y24.7072 F100   
G01 X30.2746 Y24.7054 
G01 X30.3106 Y24.6900 
G01 X30.3519 Y24.6896 
G01 X30.3911 Y24.6892 
G01 X31.7932 Y24.6896 
G01 X34.1617 Y22.3211 
G01 X34.1322 Y22.2806 
G01 X34.0554 Y22.1298 
G01 X34.0031 Y21.9688 
G01 X33.9766 Y21.8016 
G01 X33.9766 Y21.6324 
G01 X34.0031 Y21.4652 
G01 X34.0554 Y21.3042 
G01 X34.1322 Y21.1534 
G01 X34.2317 Y21.0164 
G01 X34.3514 Y20.8967 
G01 X34.4884 Y20.7972 
G01 X34.6392 Y20.7204 
G01 X34.8002 Y20.6681 
G01 X34.9674 Y20.6416 
G01 X35.1366 Y20.6416 
G01 X35.3038 Y20.6681 
G01 X35.4648 Y20.7204 
G01 X35.6156 Y20.7972 
G01 X35.7526 Y20.8967 
G01 X35.8723 Y21.0164 
G01 X35.9718 Y21.1534 
G01 X36.0486 Y21.3042 
G01 X36.1009 Y21.4652 
G01 X36.1274 Y21.6324 
G01 X36.1274 Y21.8016 
G01 X36.1009 Y21.9688 
G01 X36.0486 Y22.1298 
G01 X35.9718 Y22.2806 
G01 X35.8723 Y22.4176 
G01 X35.7526 Y22.5373 
G01 X35.6156 Y22.6368 
G01 X35.4648 Y22.7136 
G01 X35.3038 Y22.7659 
G01 X35.1366 Y22.7924 
G01 X34.9674 Y22.7924 
G01 X34.8002 Y22.7659 
G01 X34.6392 Y22.7136 
G01 X34.4884 Y22.6368 
G01 X34.4479 Y22.6073 
G01 X31.9916 Y25.0636 
G01 X31.9173 Y25.0944 
G01 X30.8229 Y25.0944 
G01 X30.8229 Y25.1024 
G01 X30.8114 Y25.1301 
G01 X30.7902 Y25.1513 
G01 X30.7625 Y25.1628 
G01 X29.7419 Y25.1628 
G01 X29.7142 Y25.1513 
G01 X29.6930 Y25.1301 
G01 X29.6815 Y25.1024 
G01 X29.6815 Y24.7676 
G01 X29.6930 Y24.7399 
G01 X29.7142 Y24.7187 
G01 X29.7419 Y24.7072 
G00 Z2.0000  
G00 X29.7419 Y24.0572 
G01 Z-0.2500 F100   
G01 X30.1506 Y24.0572 F100   
G01 X30.1506 Y23.5817 
G01 X30.1814 Y23.5073 
G01 X31.1136 Y22.5751 
G01 X31.0842 Y22.5346 
G01 X31.0074 Y22.3838 
G01 X30.9551 Y22.2228 
G01 X30.9286 Y22.0556 
G01 X30.9286 Y21.8864 
G01 X30.9551 Y21.7192 
G01 X31.0074 Y21.5582 
G01 X31.0842 Y21.4074 
G01 X31.1837 Y21.2704 
G01 X31.3034 Y21.1507 
G01 X31.4404 Y21.0512 
G01 X31.5912 Y20.9744 
G01 X31.7522 Y20.9221 
G01 X31.9194 Y20.8956 
G01 X32.0886 Y20.8956 
G01 X32.2558 Y20.9221 
G01 X32.4168 Y20.9744 
G01 X32.5676 Y21.0512 
G01 X32.7046 Y21.1507 
G01 X32.8243 Y21.2704 
G01 X32.9238 Y21.4074 
G01 X33.0006 Y21.5582 
G01 X33.0529 Y21.7192 
G01 X33.0794 Y21.8864 
G01 X33.0794 Y22.0556 
G01 X33.0529 Y22.2228 
G01 X33.0006 Y22.3838 
G01 X32.9238 Y22.5346 
G01 X32.8243 Y22.6716 
G01 X32.7046 Y22.7913 
G01 X32.5676 Y22.8908 
G01 X32.4168 Y22.9676 
G01 X32.2558 Y23.0199 
G01 X32.0886 Y23.0464 
G01 X31.9194 Y23.0464 
G01 X31.7522 Y23.0199 
G01 X31.5912 Y22.9676 
G01 X31.4404 Y22.8908 
G01 X31.3999 Y22.8613 
G01 X30.5554 Y23.7058 
G01 X30.5554 Y24.0572 
G01 X30.7625 Y24.0572 
G01 X30.7902 Y24.0687 
G01 X30.8114 Y24.0899 
G01 X30.8229 Y24.1176 
G01 X30.8229 Y24.4524 
G01 X30.8114 Y24.4801 
G01 X30.7902 Y24.5013 
G01 X30.7625 Y24.5128 
G01 X29.7419 Y24.5128 
G01 X29.7142 Y24.5013 
G01 X29.6930 Y24.4801 
G01 X29.6815 Y24.4524 
G01 X29.6815 Y24.1176 
G01 X29.6930 Y24.0899 
G01 X29.7142 Y24.0687 
G01 X29.7419 Y24.0572 
G00 Z2.0000  
G00 X35.5775 Y24.0572 
G01 Z-0.2500 F100   
G01 X35.9926 Y24.0572 F100   
G01 X35.9926 Y22.6927 
G01 X36.0234 Y22.6183 
G01 X36.3736 Y22.2682 
G01 X36.3736 Y21.1658 
G01 X35.6032 Y20.3954 
G01 X30.7490 Y20.3954 
G01 X30.7240 Y20.3991 
G01 X30.7091 Y20.3954 
G01 X30.6937 Y20.3954 
G01 X30.6704 Y20.3857 
G01 X30.1863 Y20.2647 
G01 X30.1298 Y20.3756 
G01 X30.0303 Y20.5126 
G01 X29.9106 Y20.6323 
G01 X29.7736 Y20.7318 
G01 X29.6228 Y20.8086 
G01 X29.4618 Y20.8609 
G01 X29.2946 Y20.8874 
G01 X29.1254 Y20.8874 
G01 X28.9582 Y20.8609 
G01 X28.7972 Y20.8086 
G01 X28.6464 Y20.7318 
G01 X28.5094 Y20.6323 
G01 X28.3897 Y20.5126 
G01 X28.2902 Y20.3756 
G01 X28.2134 Y20.2248 
G01 X28.1611 Y20.0638 
G01 X28.1346 Y19.8966 
G01 X28.1346 Y19.7274 
G01 X28.1611 Y19.5602 
G01 X28.2134 Y19.3992 
G01 X28.2902 Y19.2484 
G01 X28.3897 Y19.1114 
G01 X28.5094 Y18.9917 
G01 X28.6464 Y18.8922 
G01 X28.7972 Y18.8154 
G01 X28.9582 Y18.7631 
G01 X29.1254 Y18.7366 
G01 X29.2946 Y18.7366 
G01 X29.4618 Y18.7631 
G01 X29.6228 Y18.8154 
G01 X29.7736 Y18.8922 
G01 X29.9106 Y18.9917 
G01 X30.0303 Y19.1114 
G01 X30.1298 Y19.2484 
G01 X30.2066 Y19.3992 
G01 X30.2589 Y19.5602 
G01 X30.2854 Y19.7274 
G01 X30.2854 Y19.8722 
G01 X30.7589 Y19.9906 
G01 X35.7273 Y19.9906 
G01 X35.8017 Y20.0214 
G01 X35.8586 Y20.0783 
G01 X36.7476 Y20.9673 
G01 X36.7784 Y21.0417 
G01 X36.7784 Y22.3923 
G01 X36.7476 Y22.4667 
G01 X36.6907 Y22.5236 
G01 X36.3974 Y22.8168 
G01 X36.3974 Y24.0572 
G01 X36.5981 Y24.0572 
G01 X36.6258 Y24.0687 
G01 X36.6470 Y24.0899 
G01 X36.6585 Y24.1176 
G01 X36.6585 Y24.4524 
G01 X36.6470 Y24.4801 
G01 X36.6258 Y24.5013 
G01 X36.5981 Y24.5128 
G01 X35.5775 Y24.5128 
G01 X35.5498 Y24.5013 
G01 X35.5286 Y24.4801 
G01 X35.5171 Y24.4524 
G01 X35.5171 Y24.1176 
G01 X35.5286 Y24.0899 
G01 X35.5498 Y24.0687 
G01 X35.5775 Y24.0572 
G00 Z2.0000  
G00 X35.5775 Y24.7072 
G01 Z-0.2500 F100   
G01 X36.1120 Y24.7072 F100   
G01 X36.1185 Y24.7046 
G01 X36.1547 Y24.6896 
G01 X36.1961 Y24.6896 
G01 X36.6192 Y24.6896 
G01 X36.8816 Y24.4272 
G01 X36.8816 Y20.9118 
G01 X32.5552 Y16.5854 
G01 X30.9017 Y16.5854 
G01 X30.8939 Y16.6348 
G01 X30.8416 Y16.7958 
G01 X30.7648 Y16.9466 
G01 X30.6653 Y17.0836 
G01 X30.5456 Y17.2033 
G01 X30.4086 Y17.3028 
G01 X30.2578 Y17.3796 
G01 X30.0968 Y17.4319 
G01 X29.9296 Y17.4584 
G01 X29.7604 Y17.4584 
G01 X29.5932 Y17.4319 
G01 X29.4322 Y17.3796 
G01 X29.2814 Y17.3028 
G01 X29.1444 Y17.2033 
G01 X29.0247 Y17.0836 
G01 X28.9252 Y16.9466 
G01 X28.8484 Y16.7958 
G01 X28.7961 Y16.6348 
G01 X28.7696 Y16.4676 
G01 X28.7696 Y16.2984 
G01 X28.7961 Y16.1312 
G01 X28.8484 Y15.9702 
G01 X28.9252 Y15.8194 
G01 X29.0247 Y15.6824 
G01 X29.1444 Y15.5627 
G01 X29.2814 Y15.4632 
G01 X29.4322 Y15.3864 
G01 X29.5932 Y15.3341 
G01 X29.7604 Y15.3076 
G01 X29.9296 Y15.3076 
G01 X30.0968 Y15.3341 
G01 X30.2578 Y15.3864 
G01 X30.4086 Y15.4632 
G01 X30.5456 Y15.5627 
G01 X30.6653 Y15.6824 
G01 X30.7648 Y15.8194 
G01 X30.8416 Y15.9702 
G01 X30.8939 Y16.1312 
G01 X30.9017 Y16.1806 
G01 X32.6793 Y16.1806 
G01 X32.7537 Y16.2114 
G01 X32.8106 Y16.2683 
G01 X37.1986 Y20.6564 
G01 X37.2556 Y20.7133 
G01 X37.2864 Y20.7877 
G01 X37.2864 Y24.5513 
G01 X37.2556 Y24.6257 
G01 X37.1987 Y24.6826 
G01 X36.8177 Y25.0636 
G01 X36.7433 Y25.0944 
G01 X36.6585 Y25.0944 
G01 X36.6585 Y25.1024 
G01 X36.6470 Y25.1301 
G01 X36.6258 Y25.1513 
G01 X36.5981 Y25.1628 
G01 X35.5775 Y25.1628 
G01 X35.5498 Y25.1513 
G01 X35.5286 Y25.1301 
G01 X35.5171 Y25.1024 
G01 X35.5171 Y24.7676 
G01 X35.5286 Y24.7399 
G01 X35.5498 Y24.7187 
G01 X35.5775 Y24.7072 
G00 Z2.0000  
G00 X35.5775 Y25.3572 
G01 Z-0.2500 F100   
G01 X36.5981 Y25.3572 F100   
G01 X36.6258 Y25.3687 
G01 X36.6470 Y25.3899 
G01 X36.6585 Y25.4176 
G01 X36.6585 Y25.7524 
G01 X36.6470 Y25.7801 
G01 X36.6258 Y25.8013 
G01 X36.5981 Y25.8128 
G01 X36.1990 Y25.8128 
G01 X36.1910 Y25.8172 
G01 X36.1827 Y25.8256 
G01 X36.1561 Y25.8366 
G01 X36.1309 Y25.8506 
G01 X36.1192 Y25.8519 
G01 X36.1083 Y25.8564 
G01 X36.0795 Y25.8564 
G01 X36.0509 Y25.8597 
G01 X36.0395 Y25.8564 
G01 X35.5168 Y25.8564 
G01 X31.4444 Y29.9288 
G01 X31.4444 Y42.4583 
G01 X31.4136 Y42.5327 
G01 X29.7456 Y44.2006 
G01 X29.7796 Y44.2826 
G01 X29.8069 Y44.4199 
G01 X29.8069 Y44.5598 
G01 X29.7796 Y44.6971 
G01 X29.7261 Y44.8263 
G01 X29.6483 Y44.9427 
G01 X29.5494 Y45.0416 
G01 X29.4330 Y45.1194 
G01 X29.3037 Y45.1729 
G01 X29.1665 Y45.2002 
G01 X29.0265 Y45.2002 
G01 X28.8893 Y45.1729 
G01 X28.7600 Y45.1194 
G01 X28.6437 Y45.0416 
G01 X28.5447 Y44.9427 
G01 X28.4670 Y44.8263 
G01 X28.4134 Y44.6971 
G01 X28.3861 Y44.5598 
G01 X28.3861 Y44.4199 
G01 X28.4134 Y44.2826 
G01 X28.4670 Y44.1533 
G01 X28.5447 Y44.0370 
G01 X28.6437 Y43.9380 
G01 X28.7600 Y43.8603 
G01 X28.8893 Y43.8067 
G01 X29.0265 Y43.7794 
G01 X29.1665 Y43.7794 
G01 X29.3037 Y43.8067 
G01 X29.4330 Y43.8603 
G01 X29.4812 Y43.8925 
G01 X31.0396 Y42.3342 
G01 X31.0396 Y29.8047 
G01 X31.0704 Y29.7303 
G01 X31.1273 Y29.6734 
G01 X35.3183 Y25.4824 
G01 X35.3927 Y25.4516 
G01 X35.5171 Y25.4516 
G01 X35.5171 Y25.4176 
G01 X35.5286 Y25.3899 
G01 X35.5498 Y25.3687 
G01 X35.5775 Y25.3572 
G00 Z2.0000  
G00 X35.5775 Y26.0072 
G01 Z-0.2500 F100   
G01 X36.5716 Y26.0072 F100   
G01 X37.6436 Y24.9352 
G01 X37.6436 Y19.9544 
G01 X37.5898 Y19.9719 
G01 X37.4226 Y19.9984 
G01 X37.2534 Y19.9984 
G01 X37.0862 Y19.9719 
G01 X36.9252 Y19.9196 
G01 X36.7744 Y19.8428 
G01 X36.6374 Y19.7433 
G01 X36.5177 Y19.6236 
G01 X36.4182 Y19.4866 
G01 X36.3414 Y19.3358 
G01 X36.2891 Y19.1748 
G01 X36.2626 Y19.0076 
G01 X36.2626 Y18.8384 
G01 X36.2891 Y18.6712 
G01 X36.3414 Y18.5102 
G01 X36.4182 Y18.3594 
G01 X36.5177 Y18.2224 
G01 X36.6374 Y18.1027 
G01 X36.7744 Y18.0032 
G01 X36.9252 Y17.9264 
G01 X37.0862 Y17.8741 
G01 X37.2534 Y17.8476 
G01 X37.4226 Y17.8476 
G01 X37.5898 Y17.8741 
G01 X37.7508 Y17.9264 
G01 X37.9016 Y18.0032 
G01 X38.0386 Y18.1027 
G01 X38.1583 Y18.2224 
G01 X38.2578 Y18.3594 
G01 X38.3346 Y18.5102 
G01 X38.3869 Y18.6712 
G01 X38.4134 Y18.8384 
G01 X38.4134 Y19.0076 
G01 X38.3869 Y19.1748 
G01 X38.3346 Y19.3358 
G01 X38.2578 Y19.4866 
G01 X38.1583 Y19.6236 
G01 X38.0484 Y19.7334 
G01 X38.0484 Y25.0593 
G01 X38.0176 Y25.1337 
G01 X37.9607 Y25.1906 
G01 X36.6907 Y26.4606 
G01 X36.6163 Y26.4914 
G01 X36.2275 Y26.4914 
G01 X36.2202 Y26.4938 
G01 X36.1875 Y26.4914 
G01 X36.1547 Y26.4914 
G01 X36.1476 Y26.4884 
G01 X36.1399 Y26.4879 
G01 X36.1106 Y26.4731 
G01 X36.0857 Y26.4628 
G01 X35.5775 Y26.4628 
G01 X35.5498 Y26.4513 
G01 X35.5286 Y26.4301 
G01 X35.5171 Y26.4024 
G01 X35.5171 Y26.0676 
G01 X35.5286 Y26.0399 
G01 X35.5498 Y26.0187 
G01 X35.5775 Y26.0072 
G00 Z2.0000  
G00 X35.5775 Y28.6072 
G01 Z-0.2500 F100   
G01 X36.5981 Y28.6072 F100   
G01 X36.6258 Y28.6187 
G01 X36.6470 Y28.6399 
G01 X36.6585 Y28.6676 
G01 X36.6585 Y29.0024 
G01 X36.6470 Y29.0301 
G01 X36.6258 Y29.0513 
G01 X36.5981 Y29.0628 
G01 X35.5775 Y29.0628 
G01 X35.5498 Y29.0513 
G01 X35.5299 Y29.0314 
G01 X35.5168 Y29.0314 
G01 X33.7304 Y30.8178 
G01 X33.7304 Y34.3763 
G01 X33.7798 Y34.3841 
G01 X33.9408 Y34.4364 
G01 X34.0916 Y34.5132 
G01 X34.2286 Y34.6127 
G01 X34.3483 Y34.7324 
G01 X34.4478 Y34.8694 
G01 X34.5246 Y35.0202 
G01 X34.5769 Y35.1812 
G01 X34.6034 Y35.3484 
G01 X34.6034 Y35.5176 
G01 X34.5769 Y35.6848 
G01 X34.5246 Y35.8458 
G01 X34.4478 Y35.9966 
G01 X34.3483 Y36.1336 
G01 X34.2286 Y36.2533 
G01 X34.0916 Y36.3528 
G01 X33.9408 Y36.4296 
G01 X33.7798 Y36.4819 
G01 X33.6126 Y36.5084 
G01 X33.4434 Y36.5084 
G01 X33.2762 Y36.4819 
G01 X33.1152 Y36.4296 
G01 X32.9644 Y36.3528 
G01 X32.8274 Y36.2533 
G01 X32.7077 Y36.1336 
G01 X32.6082 Y35.9966 
G01 X32.5314 Y35.8458 
G01 X32.4791 Y35.6848 
G01 X32.4526 Y35.5176 
G01 X32.4526 Y35.3484 
G01 X32.4791 Y35.1812 
G01 X32.5314 Y35.0202 
G01 X32.6082 Y34.8694 
G01 X32.7077 Y34.7324 
G01 X32.8274 Y34.6127 
G01 X32.9644 Y34.5132 
G01 X33.1152 Y34.4364 
G01 X33.2762 Y34.3841 
G01 X33.3256 Y34.3763 
G01 X33.3256 Y30.6937 
G01 X33.3564 Y30.6193 
G01 X33.4133 Y30.5624 
G01 X35.3183 Y28.6574 
G01 X35.3927 Y28.6266 
G01 X35.5419 Y28.6266 
G01 X35.5498 Y28.6187 
G01 X35.5775 Y28.6072 
G00 Z2.0000  
G00 X35.5775 Y29.2572 
G01 Z-0.2500 F100   
G01 X36.5981 Y29.2572 F100   
G01 X36.6258 Y29.2687 
G01 X36.6470 Y29.2899 
G01 X36.6585 Y29.3176 
G01 X36.6585 Y29.3886 
G01 X38.2673 Y29.3886 
G01 X38.3417 Y29.4194 
G01 X38.4378 Y29.5156 
G01 X40.3453 Y29.5156 
G01 X40.3531 Y29.4662 
G01 X40.4054 Y29.3052 
G01 X40.4822 Y29.1544 
G01 X40.5817 Y29.0174 
G01 X40.7014 Y28.8977 
G01 X40.8384 Y28.7982 
G01 X40.9892 Y28.7214 
G01 X41.1502 Y28.6691 
G01 X41.3174 Y28.6426 
G01 X41.4866 Y28.6426 
G01 X41.6538 Y28.6691 
G01 X41.8148 Y28.7214 
G01 X41.9656 Y28.7982 
G01 X42.1026 Y28.8977 
G01 X42.2223 Y29.0174 
G01 X42.3218 Y29.1544 
G01 X42.3986 Y29.3052 
G01 X42.4509 Y29.4662 
G01 X42.4774 Y29.6334 
G01 X42.4774 Y29.8026 
G01 X42.4509 Y29.9698 
G01 X42.3986 Y30.1308 
G01 X42.3218 Y30.2816 
G01 X42.2223 Y30.4186 
G01 X42.1026 Y30.5383 
G01 X41.9656 Y30.6378 
G01 X41.8148 Y30.7146 
G01 X41.6538 Y30.7669 
G01 X41.4866 Y30.7934 
G01 X41.3174 Y30.7934 
G01 X41.1502 Y30.7669 
G01 X40.9892 Y30.7146 
G01 X40.8384 Y30.6378 
G01 X40.7014 Y30.5383 
G01 X40.5817 Y30.4186 
G01 X40.4822 Y30.2816 
G01 X40.4054 Y30.1308 
G01 X40.3531 Y29.9698 
G01 X40.3453 Y29.9204 
G01 X38.3137 Y29.9204 
G01 X38.2393 Y29.8896 
G01 X38.1824 Y29.8327 
G01 X38.1432 Y29.7934 
G01 X36.1953 Y29.7934 
G01 X36.1559 Y29.7936 
G01 X36.1178 Y29.7781 
G01 X36.0813 Y29.7632 
G01 X36.0520 Y29.7343 
G01 X36.0303 Y29.7128 
G01 X35.5775 Y29.7128 
G01 X35.5498 Y29.7013 
G01 X35.5286 Y29.6801 
G01 X35.5171 Y29.6524 
G01 X35.5171 Y29.3176 
G01 X35.5286 Y29.2899 
G01 X35.5498 Y29.2687 
G01 X35.5775 Y29.2572 
G00 Z2.0000  
G00 X35.5775 Y29.9072 
G01 Z-0.2500 F100   
G01 X36.5981 Y29.9072 F100   
G01 X36.6258 Y29.9187 
G01 X36.6470 Y29.9399 
G01 X36.6585 Y29.9676 
G01 X36.6585 Y30.0236 
G01 X37.2513 Y30.0236 
G01 X37.3257 Y30.0544 
G01 X39.2307 Y31.9594 
G01 X39.2876 Y32.0163 
G01 X39.3184 Y32.0907 
G01 X39.3184 Y57.8253 
G01 X39.2876 Y57.8997 
G01 X35.3506 Y61.8367 
G01 X35.2936 Y61.8936 
G01 X35.2193 Y61.9244 
G01 X27.4727 Y61.9244 
G01 X27.4649 Y61.9738 
G01 X27.4126 Y62.1348 
G01 X27.3358 Y62.2856 
G01 X27.2363 Y62.4226 
G01 X27.1166 Y62.5423 
G01 X26.9796 Y62.6418 
G01 X26.8288 Y62.7186 
G01 X26.6678 Y62.7709 
G01 X26.5006 Y62.7974 
G01 X26.3314 Y62.7974 
G01 X26.1642 Y62.7709 
G01 X26.0032 Y62.7186 
G01 X25.8524 Y62.6418 
G01 X25.7154 Y62.5423 
G01 X25.5957 Y62.4226 
G01 X25.4962 Y62.2856 
G01 X25.4194 Y62.1348 
G01 X25.3671 Y61.9738 
G01 X25.3406 Y61.8066 
G01 X25.3406 Y61.6374 
G01 X25.3671 Y61.4702 
G01 X25.4194 Y61.3092 
G01 X25.4962 Y61.1584 
G01 X25.5957 Y61.0214 
G01 X25.7154 Y60.9017 
G01 X25.8524 Y60.8022 
G01 X26.0032 Y60.7254 
G01 X26.1642 Y60.6731 
G01 X26.3314 Y60.6466 
G01 X26.5006 Y60.6466 
G01 X26.6678 Y60.6731 
G01 X26.8288 Y60.7254 
G01 X26.9796 Y60.8022 
G01 X27.1166 Y60.9017 
G01 X27.2363 Y61.0214 
G01 X27.3358 Y61.1584 
G01 X27.4126 Y61.3092 
G01 X27.4649 Y61.4702 
G01 X27.4727 Y61.5196 
G01 X35.0952 Y61.5196 
G01 X38.9136 Y57.7012 
G01 X38.9136 Y32.2148 
G01 X37.1272 Y30.4284 
G01 X36.2033 Y30.4284 
G01 X36.1714 Y30.4310 
G01 X36.1633 Y30.4284 
G01 X36.1547 Y30.4284 
G01 X36.1252 Y30.4161 
G01 X36.0947 Y30.4064 
G01 X36.0882 Y30.4008 
G01 X36.0803 Y30.3976 
G01 X36.0577 Y30.3750 
G01 X36.0434 Y30.3628 
G01 X35.5775 Y30.3628 
G01 X35.5498 Y30.3513 
G01 X35.5286 Y30.3301 
G01 X35.5171 Y30.3024 
G01 X35.5171 Y29.9676 
G01 X35.5286 Y29.9399 
G01 X35.5498 Y29.9187 
G01 X35.5775 Y29.9072 
G00 Z2.0000  
G00 X35.5775 Y30.5572 
G01 Z-0.2500 F100   
G01 X36.5981 Y30.5572 F100   
G01 X36.6258 Y30.5687 
G01 X36.6470 Y30.5899 
G01 X36.6585 Y30.6176 
G01 X36.6585 Y30.9524 
G01 X36.6470 Y30.9801 
G01 X36.6258 Y31.0013 
G01 X36.5981 Y31.0128 
G01 X36.2070 Y31.0128 
G01 X36.1928 Y31.0225 
G01 X36.1827 Y31.0326 
G01 X36.1584 Y31.0426 
G01 X36.1357 Y31.0559 
G01 X36.1215 Y31.0579 
G01 X36.1083 Y31.0634 
G01 X36.0820 Y31.0634 
G01 X36.0559 Y31.0670 
G01 X36.0421 Y31.0634 
G01 X35.5168 Y31.0634 
G01 X35.2544 Y31.3258 
G01 X35.2544 Y43.7283 
G01 X35.2236 Y43.8026 
G01 X34.8256 Y44.2006 
G01 X34.8596 Y44.2826 
G01 X34.8869 Y44.4199 
G01 X34.8869 Y44.5598 
G01 X34.8596 Y44.6971 
G01 X34.8061 Y44.8263 
G01 X34.7283 Y44.9427 
G01 X34.6294 Y45.0416 
G01 X34.5130 Y45.1194 
G01 X34.3837 Y45.1729 
G01 X34.2465 Y45.2002 
G01 X34.1065 Y45.2002 
G01 X33.9693 Y45.1729 
G01 X33.8400 Y45.1194 
G01 X33.7237 Y45.0416 
G01 X33.6247 Y44.9427 
G01 X33.5470 Y44.8263 
G01 X33.4934 Y44.6971 
G01 X33.4661 Y44.5598 
G01 X33.4661 Y44.4199 
G01 X33.4934 Y44.2826 
G01 X33.5470 Y44.1533 
G01 X33.6247 Y44.0370 
G01 X33.7237 Y43.9380 
G01 X33.8400 Y43.8603 
G01 X33.9693 Y43.8067 
G01 X34.1065 Y43.7794 
G01 X34.2465 Y43.7794 
G01 X34.3837 Y43.8067 
G01 X34.5130 Y43.8603 
G01 X34.5612 Y43.8925 
G01 X34.8496 Y43.6042 
G01 X34.8496 Y31.2017 
G01 X34.8804 Y31.1273 
G01 X34.9373 Y31.0704 
G01 X35.3183 Y30.6894 
G01 X35.3927 Y30.6586 
G01 X35.5171 Y30.6586 
G01 X35.5171 Y30.6176 
G01 X35.5286 Y30.5899 
G01 X35.5498 Y30.5687 
G01 X35.5775 Y30.5572 
G00 Z2.0000  
G00 X9.8654  Y54.2474 
G01 Z-0.2500 F100   
G01 X9.8654  Y54.9726 F100   
G01 X9.3526  Y55.4854 
G01 X8.6274  Y55.4854 
G01 X8.1146  Y54.9726 
G01 X8.1146  Y54.2474 
G01 X8.6274  Y53.7346 
G01 X9.3526  Y53.7346 
G01 X9.4794  Y53.8614 
G01 X11.3153 Y52.0254 
G01 X11.3897 Y51.9946 
G01 X18.2261 Y51.9946 
G01 X18.2261 Y51.4598 
G01 X18.2376 Y51.4321 
G01 X18.2588 Y51.4109 
G01 X18.2865 Y51.3994 
G01 X19.5865 Y51.3994 
G01 X19.6142 Y51.4109 
G01 X19.6354 Y51.4321 
G01 X19.6469 Y51.4598 
G01 X19.6469 Y52.7598 
G01 X19.6354 Y52.7876 
G01 X19.6142 Y52.8088 
G01 X19.5865 Y52.8202 
G01 X18.2865 Y52.8202 
G01 X18.2588 Y52.8088 
G01 X18.2376 Y52.7876 
G01 X18.2261 Y52.7598 
G01 X18.2261 Y52.3994 
G01 X11.5138 Y52.3994 
G01 X9.7656  Y54.1476 
G01 X9.8654  Y54.2474 
G00 Z2.0000  
G00 X26.5848 Y10.3298 
G01 Z-0.2500 F100   
G01 X26.5848 Y8.2502  F100   
G01 X26.6238 Y8.0541  
G01 X26.7003 Y7.8693  
G01 X26.8114 Y7.7030  
G01 X26.9528 Y7.5616  
G01 X27.1191 Y7.4505  
G01 X27.3039 Y7.3740  
G01 X27.5000 Y7.3350  
G01 X27.7000 Y7.3350  
G01 X27.8961 Y7.3740  
G01 X28.0809 Y7.4505  
G01 X28.2472 Y7.5616  
G01 X28.3886 Y7.7030  
G01 X28.4997 Y7.8693  
G01 X28.5762 Y8.0541  
G01 X28.6152 Y8.2502  
G01 X28.6152 Y10.3298 
G01 X28.5762 Y10.5259 
G01 X28.4997 Y10.7107 
G01 X28.3886 Y10.8770 
G01 X28.2472 Y11.0184 
G01 X28.0809 Y11.1295 
G01 X27.8961 Y11.2060 
G01 X27.8884 Y11.2075 
G01 X27.8884 Y25.4432 
G01 X29.6748 Y27.2296 
G01 X30.2007 Y27.2296 
G01 X30.2151 Y27.2259 
G01 X30.2406 Y27.2296 
G01 X30.2663 Y27.2296 
G01 X30.2800 Y27.2353 
G01 X30.2948 Y27.2374 
G01 X30.3169 Y27.2506 
G01 X30.3407 Y27.2604 
G01 X30.3512 Y27.2710 
G01 X30.3640 Y27.2786 
G01 X30.3794 Y27.2992 
G01 X30.3874 Y27.3072 
G01 X30.7625 Y27.3072 
G01 X30.7902 Y27.3187 
G01 X30.8114 Y27.3399 
G01 X30.8229 Y27.3676 
G01 X30.8229 Y27.7024 
G01 X30.8114 Y27.7301 
G01 X30.7902 Y27.7513 
G01 X30.7625 Y27.7628 
G01 X29.7419 Y27.7628 
G01 X29.7142 Y27.7513 
G01 X29.6930 Y27.7301 
G01 X29.6815 Y27.7024 
G01 X29.6815 Y27.6344 
G01 X29.5507 Y27.6344 
G01 X29.4763 Y27.6036 
G01 X27.5713 Y25.6986 
G01 X27.5144 Y25.6417 
G01 X27.4836 Y25.5673 
G01 X27.4836 Y11.2417 
G01 X27.3039 Y11.2060 
G01 X27.1191 Y11.1295 
G01 X26.9528 Y11.0184 
G01 X26.8114 Y10.8770 
G01 X26.7003 Y10.7107 
G01 X26.6238 Y10.5259 
G01 X26.5848 Y10.3298 
G00 Z2.0000  
G00 X29.1248 Y10.3298 
G01 Z-0.2500 F100   
G01 X29.1248 Y8.2502  F100   
G01 X29.1638 Y8.0541  
G01 X29.2403 Y7.8693  
G01 X29.3514 Y7.7030  
G01 X29.4928 Y7.5616  
G01 X29.6591 Y7.4505  
G01 X29.8439 Y7.3740  
G01 X30.0400 Y7.3350  
G01 X30.2400 Y7.3350  
G01 X30.4361 Y7.3740  
G01 X30.6209 Y7.4505  
G01 X30.7872 Y7.5616  
G01 X30.9286 Y7.7030  
G01 X31.0397 Y7.8693  
G01 X31.1162 Y8.0541  
G01 X31.1552 Y8.2502  
G01 X31.1552 Y10.2950 
G01 X39.0336 Y18.1733 
G01 X39.0644 Y18.2477 
G01 X39.0644 Y25.4403 
G01 X39.0336 Y25.5146 
G01 X38.9766 Y25.5716 
G01 X36.9447 Y27.6036 
G01 X36.8703 Y27.6344 
G01 X36.6585 Y27.6344 
G01 X36.6585 Y27.7024 
G01 X36.6470 Y27.7301 
G01 X36.6258 Y27.7513 
G01 X36.5981 Y27.7628 
G01 X35.5775 Y27.7628 
G01 X35.5498 Y27.7513 
G01 X35.5286 Y27.7301 
G01 X35.5171 Y27.7024 
G01 X35.5171 Y27.3676 
G01 X35.5286 Y27.3399 
G01 X35.5498 Y27.3187 
G01 X35.5775 Y27.3072 
G01 X36.0328 Y27.3072 
G01 X36.0533 Y27.2875 
G01 X36.0803 Y27.2604 
G01 X36.0838 Y27.2582 
G01 X36.1194 Y27.2442 
G01 X36.1547 Y27.2296 
G01 X36.1588 Y27.2288 
G01 X36.1970 Y27.2296 
G01 X36.7462 Y27.2296 
G01 X38.6596 Y25.3162 
G01 X38.6596 Y18.3718 
G01 X31.0231 Y10.7354 
G01 X30.9286 Y10.8770 
G01 X30.7872 Y11.0184 
G01 X30.6209 Y11.1295 
G01 X30.4361 Y11.2060 
G01 X30.2400 Y11.2450 
G01 X30.0400 Y11.2450 
G01 X29.8439 Y11.2060 
G01 X29.6591 Y11.1295 
G01 X29.4928 Y11.0184 
G01 X29.3514 Y10.8770 
G01 X29.2403 Y10.7107 
G01 X29.1638 Y10.5259 
G01 X29.1248 Y10.3298 
G00 Z2.0000  
G00 X31.6648 Y10.3298 
G01 Z-0.2500 F100   
G01 X31.6648 Y8.2502  F100   
G01 X31.7038 Y8.0541  
G01 X31.7803 Y7.8693  
G01 X31.8914 Y7.7030  
G01 X32.0328 Y7.5616  
G01 X32.1991 Y7.4505  
G01 X32.3839 Y7.3740  
G01 X32.5800 Y7.3350  
G01 X32.7800 Y7.3350  
G01 X32.9761 Y7.3740  
G01 X33.1609 Y7.4505  
G01 X33.3272 Y7.5616  
G01 X33.4686 Y7.7030  
G01 X33.5797 Y7.8693  
G01 X33.6562 Y8.0541  
G01 X33.6952 Y8.2502  
G01 X33.6952 Y10.2950 
G01 X35.9719 Y12.5716 
G01 X36.0124 Y12.5422 
G01 X36.1632 Y12.4654 
G01 X36.3242 Y12.4131 
G01 X36.4914 Y12.3866 
G01 X36.6606 Y12.3866 
G01 X36.8278 Y12.4131 
G01 X36.9888 Y12.4654 
G01 X37.1396 Y12.5422 
G01 X37.2766 Y12.6417 
G01 X37.3963 Y12.7614 
G01 X37.4958 Y12.8984 
G01 X37.5726 Y13.0492 
G01 X37.6249 Y13.2102 
G01 X37.6514 Y13.3774 
G01 X37.6514 Y13.5466 
G01 X37.6249 Y13.7138 
G01 X37.5726 Y13.8748 
G01 X37.4958 Y14.0256 
G01 X37.3963 Y14.1626 
G01 X37.2766 Y14.2823 
G01 X37.1396 Y14.3818 
G01 X36.9888 Y14.4586 
G01 X36.8278 Y14.5109 
G01 X36.6606 Y14.5374 
G01 X36.4914 Y14.5374 
G01 X36.3242 Y14.5109 
G01 X36.1632 Y14.4586 
G01 X36.0124 Y14.3818 
G01 X35.8754 Y14.2823 
G01 X35.7557 Y14.1626 
G01 X35.6562 Y14.0256 
G01 X35.5794 Y13.8748 
G01 X35.5271 Y13.7138 
G01 X35.5006 Y13.5466 
G01 X35.5006 Y13.3774 
G01 X35.5271 Y13.2102 
G01 X35.5794 Y13.0492 
G01 X35.6562 Y12.8984 
G01 X35.6857 Y12.8579 
G01 X33.5631 Y10.7354 
G01 X33.4686 Y10.8770 
G01 X33.3272 Y11.0184 
G01 X33.1609 Y11.1295 
G01 X32.9761 Y11.2060 
G01 X32.7800 Y11.2450 
G01 X32.5800 Y11.2450 
G01 X32.3839 Y11.2060 
G01 X32.1991 Y11.1295 
G01 X32.0328 Y11.0184 
G01 X31.8914 Y10.8770 
G01 X31.7803 Y10.7107 
G01 X31.7038 Y10.5259 
G01 X31.6648 Y10.3298 
G00 Z2.0000  
G00 X34.2048 Y10.3298 
G01 Z-0.2500 F100   
G01 X34.2048 Y8.2502  F100   
G01 X34.2438 Y8.0541  
G01 X34.3203 Y7.8693  
G01 X34.4314 Y7.7030  
G01 X34.5728 Y7.5616  
G01 X34.7391 Y7.4505  
G01 X34.9239 Y7.3740  
G01 X35.1200 Y7.3350  
G01 X35.3200 Y7.3350  
G01 X35.5161 Y7.3740  
G01 X35.7009 Y7.4505  
G01 X35.8672 Y7.5616  
G01 X36.0086 Y7.7030  
G01 X36.1197 Y7.8693  
G01 X36.1962 Y8.0541  
G01 X36.2352 Y8.2502  
G01 X36.2352 Y10.3298 
G01 X36.1962 Y10.5259 
G01 X36.1197 Y10.7107 
G01 X36.0086 Y10.8770 
G01 X35.8672 Y11.0184 
G01 X35.7009 Y11.1295 
G01 X35.5161 Y11.2060 
G01 X35.3200 Y11.2450 
G01 X35.1200 Y11.2450 
G01 X34.9239 Y11.2060 
G01 X34.7391 Y11.1295 
G01 X34.5728 Y11.0184 
G01 X34.4314 Y10.8770 
G01 X34.3203 Y10.7107 
G01 X34.2438 Y10.5259 
G01 X34.2048 Y10.3298 
G00 Z2.0000  
G00 X36.7448 Y10.3298 
G01 Z-0.2500 F100   
G01 X36.7448 Y8.2502  F100   
G01 X36.7838 Y8.0541  
G01 X36.8603 Y7.8693  
G01 X36.9714 Y7.7030  
G01 X37.1128 Y7.5616  
G01 X37.2791 Y7.4505  
G01 X37.4639 Y7.3740  
G01 X37.6600 Y7.3350  
G01 X37.8600 Y7.3350  
G01 X38.0561 Y7.3740  
G01 X38.2409 Y7.4505  
G01 X38.4072 Y7.5616  
G01 X38.5486 Y7.7030  
G01 X38.6597 Y7.8693  
G01 X38.7362 Y8.0541  
G01 X38.7752 Y8.2502  
G01 X38.7752 Y10.3298 
G01 X38.7362 Y10.5259 
G01 X38.6597 Y10.7107 
G01 X38.5486 Y10.8770 
G01 X38.4072 Y11.0184 
G01 X38.2409 Y11.1295 
G01 X38.0561 Y11.2060 
G01 X37.8600 Y11.2450 
G01 X37.6600 Y11.2450 
G01 X37.4639 Y11.2060 
G01 X37.2791 Y11.1295 
G01 X37.1128 Y11.0184 
G01 X36.9714 Y10.8770 
G01 X36.8603 Y10.7107 
G01 X36.7838 Y10.5259 
G01 X36.7448 Y10.3298 
G00 Z2.0000  
G00 X12.2348 Y10.3298 
G01 Z-0.2500 F100   
G01 X12.2348 Y8.2502  F100   
G01 X12.2738 Y8.0541  
G01 X12.3503 Y7.8693  
G01 X12.4614 Y7.7030  
G01 X12.6028 Y7.5616  
G01 X12.7691 Y7.4505  
G01 X12.9539 Y7.3740  
G01 X13.1500 Y7.3350  
G01 X13.3500 Y7.3350  
G01 X13.5461 Y7.3740  
G01 X13.7309 Y7.4505  
G01 X13.8971 Y7.5616  
G01 X14.0386 Y7.7030  
G01 X14.1497 Y7.8693  
G01 X14.2262 Y8.0541  
G01 X14.2652 Y8.2502  
G01 X14.2652 Y10.3298 
G01 X14.2262 Y10.5259 
G01 X14.1497 Y10.7107 
G01 X14.0386 Y10.8770 
G01 X13.8971 Y11.0184 
G01 X13.7309 Y11.1295 
G01 X13.5461 Y11.2060 
G01 X13.3500 Y11.2450 
G01 X13.1500 Y11.2450 
G01 X12.9539 Y11.2060 
G01 X12.7691 Y11.1295 
G01 X12.6028 Y11.0184 
G01 X12.4614 Y10.8770 
G01 X12.3503 Y10.7107 
G01 X12.2738 Y10.5259 
G01 X12.2348 Y10.3298 
G00 Z2.0000  
G00 X37.4269 Y52.0399 
G01 Z-0.2500 F100   
G01 X37.4269 Y52.1798 F100   
G01 X37.3996 Y52.3171 
G01 X37.3461 Y52.4463 
G01 X37.2683 Y52.5627 
G01 X37.1694 Y52.6616 
G01 X37.0530 Y52.7394 
G01 X36.9237 Y52.7929 
G01 X36.7865 Y52.8202 
G01 X36.6465 Y52.8202 
G01 X36.5093 Y52.7929 
G01 X36.3800 Y52.7394 
G01 X36.2637 Y52.6616 
G01 X36.1647 Y52.5627 
G01 X36.0870 Y52.4463 
G01 X36.0334 Y52.3171 
G01 X36.0061 Y52.1798 
G01 X36.0061 Y52.0399 
G01 X36.0334 Y51.9026 
G01 X36.0870 Y51.7733 
G01 X36.1647 Y51.6570 
G01 X36.2637 Y51.5580 
G01 X36.3800 Y51.4803 
G01 X36.5093 Y51.4267 
G01 X36.6465 Y51.3994 
G01 X36.7865 Y51.3994 
G01 X36.9237 Y51.4267 
G01 X37.0530 Y51.4803 
G01 X37.1694 Y51.5580 
G01 X37.2683 Y51.6570 
G01 X37.3461 Y51.7733 
G01 X37.3996 Y51.9026 
G01 X37.4269 Y52.0399 
G00 Z2.0000  
G00 X27.2669 Y44.4199 
G01 Z-0.2500 F100   
G01 X27.2669 Y44.5598 F100   
G01 X27.2396 Y44.6971 
G01 X27.1861 Y44.8263 
G01 X27.1083 Y44.9427 
G01 X27.0094 Y45.0416 
G01 X26.8930 Y45.1194 
G01 X26.7637 Y45.1729 
G01 X26.6265 Y45.2002 
G01 X26.4865 Y45.2002 
G01 X26.3493 Y45.1729 
G01 X26.2200 Y45.1194 
G01 X26.1037 Y45.0416 
G01 X26.0047 Y44.9427 
G01 X25.9270 Y44.8263 
G01 X25.8734 Y44.6971 
G01 X25.8461 Y44.5598 
G01 X25.8461 Y44.4199 
G01 X25.8734 Y44.2826 
G01 X25.9270 Y44.1533 
G01 X26.0047 Y44.0370 
G01 X26.1037 Y43.9380 
G01 X26.2200 Y43.8603 
G01 X26.3493 Y43.8067 
G01 X26.4865 Y43.7794 
G01 X26.6265 Y43.7794 
G01 X26.7637 Y43.8067 
G01 X26.8930 Y43.8603 
G01 X27.0094 Y43.9380 
G01 X27.1083 Y44.0370 
G01 X27.1861 Y44.1533 
G01 X27.2396 Y44.2826 
G01 X27.2669 Y44.4199 
G00 Z2.0000  
G00 X22.1869 Y44.4199 
G01 Z-0.2500 F100   
G01 X22.1869 Y44.5598 F100   
G01 X22.1596 Y44.6971 
G01 X22.1061 Y44.8263 
G01 X22.0283 Y44.9427 
G01 X21.9294 Y45.0416 
G01 X21.8130 Y45.1194 
G01 X21.6837 Y45.1729 
G01 X21.5465 Y45.2002 
G01 X21.4065 Y45.2002 
G01 X21.2693 Y45.1729 
G01 X21.1400 Y45.1194 
G01 X21.0237 Y45.0416 
G01 X20.9247 Y44.9427 
G01 X20.8470 Y44.8263 
G01 X20.7934 Y44.6971 
G01 X20.7661 Y44.5598 
G01 X20.7661 Y44.4199 
G01 X20.7934 Y44.2826 
G01 X20.8470 Y44.1533 
G01 X20.9247 Y44.0370 
G01 X21.0237 Y43.9380 
G01 X21.1400 Y43.8603 
G01 X21.2693 Y43.8067 
G01 X21.4065 Y43.7794 
G01 X21.5465 Y43.7794 
G01 X21.6837 Y43.8067 
G01 X21.8130 Y43.8603 
G01 X21.9294 Y43.9380 
G01 X22.0283 Y44.0370 
G01 X22.1061 Y44.1533 
G01 X22.1596 Y44.2826 
G01 X22.1869 Y44.4199 
G00 Z2.0000  
G00 X19.6469 Y46.9599 
G01 Z-0.2500 F100   
G01 X19.6469 Y47.0998 F100   
G01 X19.6196 Y47.2371 
G01 X19.5661 Y47.3663 
G01 X19.4883 Y47.4827 
G01 X19.3894 Y47.5816 
G01 X19.2730 Y47.6594 
G01 X19.1437 Y47.7129 
G01 X19.0065 Y47.7402 
G01 X18.8665 Y47.7402 
G01 X18.7293 Y47.7129 
G01 X18.6000 Y47.6594 
G01 X18.4837 Y47.5816 
G01 X18.3847 Y47.4827 
G01 X18.3070 Y47.3663 
G01 X18.2534 Y47.2371 
G01 X18.2261 Y47.0998 
G01 X18.2261 Y46.9599 
G01 X18.2534 Y46.8226 
G01 X18.3070 Y46.6933 
G01 X18.3847 Y46.5770 
G01 X18.4837 Y46.4780 
G01 X18.6000 Y46.4003 
G01 X18.7293 Y46.3467 
G01 X18.8665 Y46.3194 
G01 X19.0065 Y46.3194 
G01 X19.1437 Y46.3467 
G01 X19.2730 Y46.4003 
G01 X19.3894 Y46.4780 
G01 X19.4883 Y46.5770 
G01 X19.5661 Y46.6933 
G01 X19.6196 Y46.8226 
G01 X19.6469 Y46.9599 
G00 Z2.0000  
G00 X19.6469 Y49.4999 
G01 Z-0.2500 F100   
G01 X19.6469 Y49.6398 F100   
G01 X19.6196 Y49.7771 
G01 X19.5661 Y49.9063 
G01 X19.4883 Y50.0227 
G01 X19.3894 Y50.1216 
G01 X19.2730 Y50.1994 
G01 X19.1437 Y50.2529 
G01 X19.0065 Y50.2802 
G01 X18.8665 Y50.2802 
G01 X18.7293 Y50.2529 
G01 X18.6000 Y50.1994 
G01 X18.4837 Y50.1216 
G01 X18.3847 Y50.0227 
G01 X18.3070 Y49.9063 
G01 X18.2534 Y49.7771 
G01 X18.2261 Y49.6398 
G01 X18.2261 Y49.4999 
G01 X18.2534 Y49.3626 
G01 X18.3070 Y49.2333 
G01 X18.3847 Y49.1170 
G01 X18.4837 Y49.0180 
G01 X18.6000 Y48.9403 
G01 X18.7293 Y48.8867 
G01 X18.8665 Y48.8594 
G01 X19.0065 Y48.8594 
G01 X19.1437 Y48.8867 
G01 X19.2730 Y48.9403 
G01 X19.3894 Y49.0180 
G01 X19.4883 Y49.1170 
G01 X19.5661 Y49.2333 
G01 X19.6196 Y49.3626 
G01 X19.6469 Y49.4999 
G00 Z2.0000  
G00 X19.5661 Y54.9863 
G01 Z-0.2500 F100   
G01 X19.4883 Y55.1027 F100   
G01 X19.3894 Y55.2016 
G01 X19.2730 Y55.2794 
G01 X19.1437 Y55.3329 
G01 X19.0065 Y55.3602 
G01 X18.8665 Y55.3602 
G01 X18.7293 Y55.3329 
G01 X18.6000 Y55.2794 
G01 X18.4837 Y55.2016 
G01 X18.3847 Y55.1027 
G01 X18.3070 Y54.9863 
G01 X18.2534 Y54.8571 
G01 X18.2261 Y54.7198 
G01 X18.2261 Y54.5799 
G01 X18.2534 Y54.4426 
G01 X18.3070 Y54.3133 
G01 X18.3847 Y54.1970 
G01 X18.4837 Y54.0980 
G01 X18.6000 Y54.0203 
G01 X18.7293 Y53.9667 
G01 X18.8665 Y53.9394 
G01 X19.0065 Y53.9394 
G01 X19.1437 Y53.9667 
G01 X19.2730 Y54.0203 
G01 X19.3894 Y54.0980 
G01 X19.4883 Y54.1970 
G01 X19.5661 Y54.3133 
G01 X19.6196 Y54.4426 
G01 X19.6379 Y54.5346 
G01 X21.6303 Y54.5346 
G01 X21.7047 Y54.5654 
G01 X27.7698 Y60.6306 
G01 X35.2222 Y60.6306 
G01 X38.1516 Y57.7012 
G01 X38.1516 Y33.1038 
G01 X36.7462 Y31.6984 
G01 X36.2223 Y31.6984 
G01 X36.2098 Y31.7018 
G01 X36.1824 Y31.6984 
G01 X36.1547 Y31.6984 
G01 X36.1428 Y31.6934 
G01 X36.1299 Y31.6918 
G01 X36.1059 Y31.6782 
G01 X36.0803 Y31.6676 
G01 X36.0756 Y31.6628 
G01 X35.5775 Y31.6628 
G01 X35.5498 Y31.6513 
G01 X35.5286 Y31.6301 
G01 X35.5171 Y31.6024 
G01 X35.5171 Y31.2676 
G01 X35.5286 Y31.2399 
G01 X35.5498 Y31.2187 
G01 X35.5775 Y31.2072 
G01 X36.5981 Y31.2072 
G01 X36.6258 Y31.2187 
G01 X36.6470 Y31.2399 
G01 X36.6585 Y31.2676 
G01 X36.6585 Y31.2936 
G01 X36.8703 Y31.2936 
G01 X36.9447 Y31.3244 
G01 X38.4687 Y32.8484 
G01 X38.5256 Y32.9053 
G01 X38.5564 Y32.9797 
G01 X38.5564 Y57.8253 
G01 X38.5256 Y57.8997 
G01 X35.4776 Y60.9477 
G01 X35.4207 Y61.0046 
G01 X35.3463 Y61.0354 
G01 X27.6457 Y61.0354 
G01 X27.5713 Y61.0046 
G01 X21.5062 Y54.9394 
G01 X19.5855 Y54.9394 
G01 X19.5661 Y54.9863 
G00 Z2.0000  
G00 X19.6469 Y57.1199 
G01 Z-0.2500 F100   
G01 X19.6469 Y57.2598 F100   
G01 X19.6196 Y57.3971 
G01 X19.5661 Y57.5263 
G01 X19.4883 Y57.6427 
G01 X19.3894 Y57.7416 
G01 X19.2730 Y57.8194 
G01 X19.1437 Y57.8729 
G01 X19.0065 Y57.9002 
G01 X18.8665 Y57.9002 
G01 X18.7293 Y57.8729 
G01 X18.6000 Y57.8194 
G01 X18.4837 Y57.7416 
G01 X18.3847 Y57.6427 
G01 X18.3070 Y57.5263 
G01 X18.2534 Y57.3971 
G01 X18.2261 Y57.2598 
G01 X18.2261 Y57.1199 
G01 X18.2534 Y56.9826 
G01 X18.3070 Y56.8533 
G01 X18.3202 Y56.8335 
G01 X17.7354 Y56.2487 
G01 X17.7046 Y56.1743 
G01 X17.7046 Y54.1887 
G01 X17.7354 Y54.1143 
G01 X17.7923 Y54.0574 
G01 X18.4273 Y53.4224 
G01 X18.5017 Y53.3916 
G01 X19.2202 Y53.3916 
G01 X19.9906 Y52.6212 
G01 X19.9906 Y41.4887 
G01 X20.0214 Y41.4143 
G01 X20.0783 Y41.3574 
G01 X29.4763 Y31.9594 
G01 X29.5507 Y31.9286 
G01 X29.6815 Y31.9286 
G01 X29.6815 Y31.9176 
G01 X29.6930 Y31.8899 
G01 X29.7142 Y31.8687 
G01 X29.7419 Y31.8572 
G01 X30.7625 Y31.8572 
G01 X30.7902 Y31.8687 
G01 X30.8114 Y31.8899 
G01 X30.8229 Y31.9176 
G01 X30.8229 Y32.2524 
G01 X30.8114 Y32.2801 
G01 X30.7902 Y32.3013 
G01 X30.7625 Y32.3128 
G01 X30.3219 Y32.3128 
G01 X30.3184 Y32.3155 
G01 X30.2917 Y32.3228 
G01 X30.2663 Y32.3334 
G01 X30.2533 Y32.3334 
G01 X30.2407 Y32.3368 
G01 X30.2133 Y32.3334 
G01 X29.6748 Y32.3334 
G01 X20.3954 Y41.6128 
G01 X20.3954 Y52.7453 
G01 X20.3646 Y52.8197 
G01 X19.4756 Y53.7087 
G01 X19.4186 Y53.7656 
G01 X19.3443 Y53.7964 
G01 X18.6258 Y53.7964 
G01 X18.1094 Y54.3128 
G01 X18.1094 Y56.0502 
G01 X18.6138 Y56.5546 
G01 X18.7293 Y56.5067 
G01 X18.8665 Y56.4794 
G01 X19.0065 Y56.4794 
G01 X19.1437 Y56.5067 
G01 X19.2730 Y56.5603 
G01 X19.3894 Y56.6380 
G01 X19.4883 Y56.7370 
G01 X19.5661 Y56.8533 
G01 X19.6196 Y56.9826 
G01 X19.6469 Y57.1199 
G00 Z2.0000  
G00 X22.1869 Y59.6599 
G01 Z-0.2500 F100   
G01 X22.1869 Y59.7998 F100   
G01 X22.1596 Y59.9371 
G01 X22.1061 Y60.0663 
G01 X22.0283 Y60.1827 
G01 X21.9294 Y60.2816 
G01 X21.8130 Y60.3594 
G01 X21.6837 Y60.4129 
G01 X21.5465 Y60.4402 
G01 X21.4065 Y60.4402 
G01 X21.2693 Y60.4129 
G01 X21.1400 Y60.3594 
G01 X21.0237 Y60.2816 
G01 X20.9247 Y60.1827 
G01 X20.8470 Y60.0663 
G01 X20.7934 Y59.9371 
G01 X20.7845 Y59.8924 
G01 X9.8027  Y59.8924 
G01 X9.7865  Y59.8962 
G01 X9.7628  Y59.8924 
G01 X9.7387  Y59.8924 
G01 X9.7234  Y59.8860 
G01 X9.7070  Y59.8834 
G01 X9.6866  Y59.8708 
G01 X9.6643  Y59.8616 
G01 X9.6526  Y59.8498 
G01 X9.6385  Y59.8411 
G01 X9.6244  Y59.8217 
G01 X9.6074  Y59.8047 
G01 X9.6011  Y59.7893 
G01 X6.3224  Y55.2497 
G01 X6.3054  Y55.2326 
G01 X6.2991  Y55.2173 
G01 X6.2893  Y55.2039 
G01 X6.2838  Y55.1805 
G01 X6.2746  Y55.1583 
G01 X6.2746  Y55.1417 
G01 X6.2708  Y55.1255 
G01 X6.2746  Y55.1018 
G01 X6.2746  Y54.0617 
G01 X6.3054  Y53.9873 
G01 X6.3623  Y53.9304 
G01 X16.9033 Y43.3894 
G01 X16.9777 Y43.3586 
G01 X19.4826 Y43.3586 
G01 X19.4826 Y41.2347 
G01 X19.5134 Y41.1603 
G01 X19.5703 Y41.1034 
G01 X29.3493 Y31.3244 
G01 X29.4237 Y31.2936 
G01 X29.6815 Y31.2936 
G01 X29.6815 Y31.2676 
G01 X29.6930 Y31.2399 
G01 X29.7142 Y31.2187 
G01 X29.7419 Y31.2072 
G01 X30.7625 Y31.2072 
G01 X30.7902 Y31.2187 
G01 X30.8114 Y31.2399 
G01 X30.8229 Y31.2676 
G01 X30.8229 Y31.6024 
G01 X30.8114 Y31.6301 
G01 X30.7902 Y31.6513 
G01 X30.7625 Y31.6628 
G01 X30.3454 Y31.6628 
G01 X30.3407 Y31.6676 
G01 X30.3022 Y31.6835 
G01 X30.2663 Y31.6984 
G01 X30.2636 Y31.6989 
G01 X30.2247 Y31.6984 
G01 X29.5478 Y31.6984 
G01 X19.8874 Y41.3588 
G01 X19.8874 Y43.6013 
G01 X19.8566 Y43.6757 
G01 X19.7996 Y43.7326 
G01 X19.7253 Y43.7634 
G01 X17.1018 Y43.7634 
G01 X6.6794  Y54.1858 
G01 X6.6794  Y55.0526 
G01 X9.8825  Y59.4876 
G01 X20.8079 Y59.4876 
G01 X20.8470 Y59.3933 
G01 X20.9247 Y59.2770 
G01 X21.0237 Y59.1780 
G01 X21.1400 Y59.1003 
G01 X21.2693 Y59.0467 
G01 X21.4065 Y59.0194 
G01 X21.5465 Y59.0194 
G01 X21.6837 Y59.0467 
G01 X21.8130 Y59.1003 
G01 X21.9294 Y59.1780 
G01 X22.0283 Y59.2770 
G01 X22.1061 Y59.3933 
G01 X22.1596 Y59.5226 
G01 X22.1869 Y59.6599 
G00 Z2.0000  
G00 X24.7269 Y59.6599 
G01 Z-0.2500 F100   
G01 X24.7269 Y59.7998 F100   
G01 X24.6996 Y59.9371 
G01 X24.6461 Y60.0663 
G01 X24.5683 Y60.1827 
G01 X24.4694 Y60.2816 
G01 X24.3530 Y60.3594 
G01 X24.2237 Y60.4129 
G01 X24.0865 Y60.4402 
G01 X23.9465 Y60.4402 
G01 X23.8093 Y60.4129 
G01 X23.6800 Y60.3594 
G01 X23.5637 Y60.2816 
G01 X23.4647 Y60.1827 
G01 X23.3870 Y60.0663 
G01 X23.3334 Y59.9371 
G01 X23.3061 Y59.7998 
G01 X23.3061 Y59.6599 
G01 X23.3334 Y59.5226 
G01 X23.3870 Y59.3933 
G01 X23.4647 Y59.2770 
G01 X23.5637 Y59.1780 
G01 X23.6800 Y59.1003 
G01 X23.8093 Y59.0467 
G01 X23.9465 Y59.0194 
G01 X24.0865 Y59.0194 
G01 X24.2237 Y59.0467 
G01 X24.3530 Y59.1003 
G01 X24.4694 Y59.1780 
G01 X24.5683 Y59.2770 
G01 X24.6461 Y59.3933 
G01 X24.6996 Y59.5226 
G01 X24.7269 Y59.6599 
G00 Z2.0000  
G00 X37.4269 Y57.1199 
G01 Z-0.2500 F100   
G01 X37.4269 Y57.2598 F100   
G01 X37.3996 Y57.3971 
G01 X37.3461 Y57.5263 
G01 X37.2683 Y57.6427 
G01 X37.1694 Y57.7416 
G01 X37.0530 Y57.8194 
G01 X36.9237 Y57.8729 
G01 X36.7865 Y57.9002 
G01 X36.6465 Y57.9002 
G01 X36.5093 Y57.8729 
G01 X36.3800 Y57.8194 
G01 X36.2637 Y57.7416 
G01 X36.1647 Y57.6427 
G01 X36.0870 Y57.5263 
G01 X36.0334 Y57.3971 
G01 X36.0061 Y57.2598 
G01 X36.0061 Y57.1199 
G01 X36.0334 Y56.9826 
G01 X36.0870 Y56.8533 
G01 X36.1647 Y56.7370 
G01 X36.2637 Y56.6380 
G01 X36.3800 Y56.5603 
G01 X36.5093 Y56.5067 
G01 X36.6465 Y56.4794 
G01 X36.7865 Y56.4794 
G01 X36.9237 Y56.5067 
G01 X37.0530 Y56.5603 
G01 X37.1694 Y56.6380 
G01 X37.2683 Y56.7370 
G01 X37.3461 Y56.8533 
G01 X37.3996 Y56.9826 
G01 X37.4269 Y57.1199 
G00 Z2.0000  
G00 X32.3469 Y44.4199 
G01 Z-0.2500 F100   
G01 X32.3469 Y44.5598 F100   
G01 X32.3196 Y44.6971 
G01 X32.2661 Y44.8263 
G01 X32.1883 Y44.9427 
G01 X32.0894 Y45.0416 
G01 X31.9730 Y45.1194 
G01 X31.8437 Y45.1729 
G01 X31.7065 Y45.2002 
G01 X31.5665 Y45.2002 
G01 X31.4293 Y45.1729 
G01 X31.3000 Y45.1194 
G01 X31.1837 Y45.0416 
G01 X31.0847 Y44.9427 
G01 X31.0070 Y44.8263 
G01 X30.9534 Y44.6971 
G01 X30.9261 Y44.5598 
G01 X30.9261 Y44.4199 
G01 X30.9534 Y44.2826 
G01 X31.0070 Y44.1533 
G01 X31.0847 Y44.0370 
G01 X31.1837 Y43.9380 
G01 X31.3000 Y43.8603 
G01 X31.4293 Y43.8067 
G01 X31.5476 Y43.7832 
G01 X31.5476 Y30.5667 
G01 X31.5784 Y30.4923 
G01 X31.6353 Y30.4354 
G01 X35.4453 Y26.6254 
G01 X35.5197 Y26.5946 
G01 X36.0455 Y26.5946 
G01 X36.0628 Y26.5907 
G01 X36.0854 Y26.5946 
G01 X36.1083 Y26.5946 
G01 X36.1247 Y26.6014 
G01 X36.1422 Y26.6044 
G01 X36.1615 Y26.6167 
G01 X36.1827 Y26.6254 
G01 X36.1952 Y26.6380 
G01 X36.2102 Y26.6475 
G01 X36.2171 Y26.6572 
G01 X36.5981 Y26.6572 
G01 X36.6258 Y26.6687 
G01 X36.6470 Y26.6899 
G01 X36.6585 Y26.7176 
G01 X36.6585 Y27.0524 
G01 X36.6470 Y27.0801 
G01 X36.6258 Y27.1013 
G01 X36.5981 Y27.1128 
G01 X35.5775 Y27.1128 
G01 X35.5498 Y27.1013 
G01 X35.5459 Y27.0974 
G01 X31.9524 Y30.6908 
G01 X31.9524 Y43.8518 
G01 X31.9730 Y43.8603 
G01 X32.0894 Y43.9380 
G01 X32.1883 Y44.0370 
G01 X32.2661 Y44.1533 
G01 X32.3196 Y44.2826 
G01 X32.3469 Y44.4199 
G00 Z2.0000  
G00 X37.4269 Y46.9599 
G01 Z-0.2500 F100   
G01 X37.4269 Y47.0998 F100   
G01 X37.3996 Y47.2371 
G01 X37.3461 Y47.3663 
G01 X37.2683 Y47.4827 
G01 X37.1694 Y47.5816 
G01 X37.0530 Y47.6594 
G01 X36.9237 Y47.7129 
G01 X36.7865 Y47.7402 
G01 X36.6465 Y47.7402 
G01 X36.5093 Y47.7129 
G01 X36.3800 Y47.6594 
G01 X36.2637 Y47.5816 
G01 X36.1647 Y47.4827 
G01 X36.0870 Y47.3663 
G01 X36.0334 Y47.2371 
G01 X36.0061 Y47.0998 
G01 X36.0061 Y46.9599 
G01 X36.0334 Y46.8226 
G01 X36.0870 Y46.6933 
G01 X36.1647 Y46.5770 
G01 X36.2637 Y46.4780 
G01 X36.3800 Y46.4003 
G01 X36.5093 Y46.3467 
G01 X36.6465 Y46.3194 
G01 X36.7865 Y46.3194 
G01 X36.9237 Y46.3467 
G01 X37.0530 Y46.4003 
G01 X37.1694 Y46.4780 
G01 X37.2683 Y46.5770 
G01 X37.3461 Y46.6933 
G01 X37.3996 Y46.8226 
G01 X37.4269 Y46.9599 
G00 Z2.0000  
G00 X37.4269 Y54.5799 
G01 Z-0.2500 F100   
G01 X37.4269 Y54.7198 F100   
G01 X37.3996 Y54.8571 
G01 X37.3461 Y54.9863 
G01 X37.2683 Y55.1027 
G01 X37.1694 Y55.2016 
G01 X37.0530 Y55.2794 
G01 X36.9237 Y55.3329 
G01 X36.7865 Y55.3602 
G01 X36.6465 Y55.3602 
G01 X36.5093 Y55.3329 
G01 X36.3800 Y55.2794 
G01 X36.2637 Y55.2016 
G01 X36.1647 Y55.1027 
G01 X36.0870 Y54.9863 
G01 X36.0334 Y54.8571 
G01 X36.0061 Y54.7198 
G01 X36.0061 Y54.5799 
G01 X36.0334 Y54.4426 
G01 X36.0870 Y54.3133 
G01 X36.1002 Y54.2935 
G01 X35.5154 Y53.7087 
G01 X35.4846 Y53.6343 
G01 X35.4846 Y46.5687 
G01 X35.5154 Y46.4943 
G01 X35.5723 Y46.4374 
G01 X35.8656 Y46.1442 
G01 X35.8656 Y32.9628 
G01 X35.5775 Y32.9628 
G01 X35.5498 Y32.9513 
G01 X35.5286 Y32.9301 
G01 X35.5171 Y32.9024 
G01 X35.5171 Y32.5676 
G01 X35.5286 Y32.5399 
G01 X35.5498 Y32.5187 
G01 X35.5775 Y32.5072 
G01 X36.5981 Y32.5072 
G01 X36.6258 Y32.5187 
G01 X36.6470 Y32.5399 
G01 X36.6585 Y32.5676 
G01 X36.6585 Y32.9024 
G01 X36.6470 Y32.9301 
G01 X36.6258 Y32.9513 
G01 X36.5981 Y32.9628 
G01 X36.2704 Y32.9628 
G01 X36.2704 Y46.2683 
G01 X36.2396 Y46.3426 
G01 X35.8894 Y46.6928 
G01 X35.8894 Y53.5102 
G01 X36.3938 Y54.0146 
G01 X36.5093 Y53.9667 
G01 X36.6465 Y53.9394 
G01 X36.7865 Y53.9394 
G01 X36.9237 Y53.9667 
G01 X37.0530 Y54.0203 
G01 X37.1694 Y54.0980 
G01 X37.2683 Y54.1970 
G01 X37.3461 Y54.3133 
G01 X37.3996 Y54.4426 
G01 X37.4269 Y54.5799 
G00 Z2.0000  
G00 X34.8596 Y59.9371 
G01 Z-0.2500 F100   
G01 X34.8061 Y60.0663 F100   
G01 X34.7283 Y60.1827 
G01 X34.6294 Y60.2816 
G01 X34.5130 Y60.3594 
G01 X34.3837 Y60.4129 
G01 X34.2465 Y60.4402 
G01 X34.1065 Y60.4402 
G01 X33.9693 Y60.4129 
G01 X33.8400 Y60.3594 
G01 X33.7237 Y60.2816 
G01 X33.6247 Y60.1827 
G01 X33.5470 Y60.0663 
G01 X33.4934 Y59.9371 
G01 X33.4661 Y59.7998 
G01 X33.4661 Y59.6599 
G01 X33.4934 Y59.5226 
G01 X33.5470 Y59.3933 
G01 X33.6247 Y59.2770 
G01 X33.7237 Y59.1780 
G01 X33.8400 Y59.1003 
G01 X33.9693 Y59.0467 
G01 X34.1065 Y59.0194 
G01 X34.2465 Y59.0194 
G01 X34.3837 Y59.0467 
G01 X34.5130 Y59.1003 
G01 X34.6294 Y59.1780 
G01 X34.7283 Y59.2770 
G01 X34.8061 Y59.3933 
G01 X34.8451 Y59.4876 
G01 X35.6032 Y59.4876 
G01 X37.6436 Y57.4472 
G01 X37.6436 Y34.5895 
G01 X36.5749 Y32.3334 
G01 X36.2339 Y32.3334 
G01 X36.1937 Y32.3334 
G01 X36.1547 Y32.3334 
G01 X36.1522 Y32.3329 
G01 X36.1163 Y32.3175 
G01 X36.1050 Y32.3128 
G01 X35.5775 Y32.3128 
G01 X35.5498 Y32.3013 
G01 X35.5286 Y32.2801 
G01 X35.5171 Y32.2524 
G01 X35.5171 Y31.9176 
G01 X35.5286 Y31.8899 
G01 X35.5498 Y31.8687 
G01 X35.5775 Y31.8572 
G01 X36.5981 Y31.8572 
G01 X36.6258 Y31.8687 
G01 X36.6470 Y31.8899 
G01 X36.6585 Y31.9176 
G01 X36.6585 Y31.9286 
G01 X36.6980 Y31.9286 
G01 X36.7332 Y31.9269 
G01 X36.7381 Y31.9286 
G01 X36.7433 Y31.9286 
G01 X36.7758 Y31.9421 
G01 X36.8090 Y31.9539 
G01 X36.8128 Y31.9574 
G01 X36.8177 Y31.9594 
G01 X36.8426 Y31.9843 
G01 X36.8687 Y32.0080 
G01 X36.8709 Y32.0127 
G01 X36.8746 Y32.0163 
G01 X36.8881 Y32.0489 
G01 X38.0139 Y34.4257 
G01 X38.0176 Y34.4293 
G01 X38.0311 Y34.4619 
G01 X38.0461 Y34.4937 
G01 X38.0464 Y34.4989 
G01 X38.0484 Y34.5037 
G01 X38.0484 Y34.5390 
G01 X38.0501 Y34.5742 
G01 X38.0484 Y34.5791 
G01 X38.0484 Y57.5713 
G01 X38.0176 Y57.6457 
G01 X35.8586 Y59.8047 
G01 X35.8017 Y59.8616 
G01 X35.7273 Y59.8924 
G01 X34.8685 Y59.8924 
G01 X34.8596 Y59.9371 
G00 Z2.0000  
G00 X24.7269 Y44.4199 
G01 Z-0.2500 F100   
G01 X24.7269 Y44.5598 F100   
G01 X24.6996 Y44.6971 
G01 X24.6461 Y44.8263 
G01 X24.5683 Y44.9427 
G01 X24.4694 Y45.0416 
G01 X24.3530 Y45.1194 
G01 X24.2237 Y45.1729 
G01 X24.0865 Y45.2002 
G01 X23.9465 Y45.2002 
G01 X23.8093 Y45.1729 
G01 X23.6800 Y45.1194 
G01 X23.5637 Y45.0416 
G01 X23.4647 Y44.9427 
G01 X23.3870 Y44.8263 
G01 X23.3334 Y44.6971 
G01 X23.3061 Y44.5598 
G01 X23.3061 Y44.4199 
G01 X23.3334 Y44.2826 
G01 X23.3870 Y44.1533 
G01 X23.4647 Y44.0370 
G01 X23.5637 Y43.9380 
G01 X23.6800 Y43.8603 
G01 X23.8093 Y43.8067 
G01 X23.9465 Y43.7794 
G01 X24.0865 Y43.7794 
G01 X24.2237 Y43.8067 
G01 X24.3530 Y43.8603 
G01 X24.4694 Y43.9380 
G01 X24.5683 Y44.0370 
G01 X24.6461 Y44.1533 
G01 X24.6996 Y44.2826 
G01 X24.7269 Y44.4199 
G00 Z2.0000  
G00 X25.5409 Y7.4505  
G01 Z-0.2500 F100   
G01 X25.7072 Y7.5616  F100   
G01 X25.8486 Y7.7030  
G01 X25.9279 Y7.8218  
G01 X26.0036 Y7.7462  
G01 X25.9131 Y7.6216  
G01 X25.7886 Y7.4971  
G01 X25.6462 Y7.3937  
G01 X25.4893 Y7.3137  
G01 X25.3894 Y7.2813  
G01 X25.3894 Y7.3878  
G01 X25.5409 Y7.4505  
G00 Z2.0000  
G00 X24.1035 Y7.7640  
G01 Z-0.2500 F100   
G01 X24.0235 Y7.9209  F100   
G01 X23.9691 Y8.0883  
G01 X23.9416 Y8.2622  
G01 X23.9416 Y8.9606  
G01 X24.0448 Y8.9606  
G01 X24.0448 Y8.2502  
G01 X24.0838 Y8.0541  
G01 X24.1603 Y7.8693  
G01 X24.2714 Y7.7030  
G01 X24.4128 Y7.5616  
G01 X24.5791 Y7.4505  
G01 X24.7306 Y7.3878  
G01 X24.7306 Y7.2813  
G01 X24.6307 Y7.3137  
G01 X24.4738 Y7.3937  
G01 X24.3314 Y7.4971  
G01 X24.2069 Y7.6216  
G01 X24.1035 Y7.7640  
G00 Z2.0000  
G00 X1.1535  Y74.0086 
G01 Z-0.2500 F100   
G01 X1.0791  Y73.9778 F100   
G01 X1.0222  Y73.9209 
G01 X0.9914  Y73.8465 
G01 X0.9914  Y1.1535  
G01 X1.0222  Y1.0791  
G01 X1.0791  Y1.0222  
G01 X1.1535  Y0.9914  
G01 X48.8465 Y0.9914  
G01 X48.9209 Y1.0222  
G01 X48.9778 Y1.0791  
G01 X49.0086 Y1.1535  
G01 X49.0086 Y73.8465 
G01 X48.9778 Y73.9209 
G01 X48.9209 Y73.9778 
G01 X48.8465 Y74.0086 
G01 X48.7659 Y74.0086 
G01 X1.1535  Y74.0086 
G00 Z2.0000  
G00 X7.7474  Y24.1766 
G01 Z-0.2500 F100   
G01 X11.4326 Y24.1766 F100   
G01 X11.5519 Y24.1272 
G01 X11.6432 Y24.0359 
G01 X11.6926 Y23.9166 
G01 X11.6926 Y22.2634 
G01 X11.6432 Y22.1441 
G01 X11.5519 Y22.0528 
G01 X11.4326 Y22.0034 
G01 X7.7474  Y22.0034 
G01 X7.6281  Y22.0528 
G01 X7.5368  Y22.1441 
G01 X7.4874  Y22.2634 
G01 X7.4874  Y23.9166 
G01 X7.5368  Y24.0359 
G01 X7.6281  Y24.1272 
G01 X7.7474  Y24.1766 
G00 Z2.0000  
G00 X9.4098  Y22.7438 
G01 Z-0.2500 F100   
G01 X9.4098  Y23.4362 F100   
G01 X8.9202  Y23.9258 
G01 X8.2278  Y23.9258 
G01 X7.7382  Y23.4362 
G01 X7.7382  Y22.7438 
G01 X8.2278  Y22.2542 
G01 X8.9202  Y22.2542 
G01 X9.4098  Y22.7438 
G00 Z2.0000  
G00 X11.4418 Y23.0077 
G01 Z-0.2500 F100   
G01 X11.4418 Y23.1723 F100   
G01 X11.4097 Y23.3338 
G01 X11.3467 Y23.4859 
G01 X11.2552 Y23.6228 
G01 X11.1388 Y23.7392 
G01 X11.0019 Y23.8307 
G01 X10.8498 Y23.8937 
G01 X10.6883 Y23.9258 
G01 X10.5237 Y23.9258 
G01 X10.3622 Y23.8937 
G01 X10.2101 Y23.8307 
G01 X10.0732 Y23.7392 
G01 X9.9568  Y23.6228 
G01 X9.8653  Y23.4859 
G01 X9.8023  Y23.3338 
G01 X9.7702  Y23.1723 
G01 X9.7702  Y23.0077 
G01 X9.8023  Y22.8462 
G01 X9.8653  Y22.6941 
G01 X9.9568  Y22.5572 
G01 X10.0732 Y22.4408 
G01 X10.2101 Y22.3493 
G01 X10.3622 Y22.2863 
G01 X10.5237 Y22.2542 
G01 X10.6883 Y22.2542 
G01 X10.8498 Y22.2863 
G01 X11.0019 Y22.3493 
G01 X11.1388 Y22.4408 
G01 X11.2552 Y22.5572 
G01 X11.3467 Y22.6941 
G01 X11.4097 Y22.8462 
G01 X11.4418 Y23.0077 
G00 Z2.0000  
G00 X37.0378 Y32.1315 
G01 Z-0.2500 F100   
G01 X38.0516 Y34.2717 F100   
G01 X38.0516 Y33.1453 
G01 X37.0378 Y32.1315 
G00 Z2.0000  
G00 X38.8136 Y32.2563 
G01 Z-0.2500 F100   
G01 X37.0857 Y30.5284 F100   
G01 X36.7269 Y30.5284 
G01 X36.7318 Y30.5332 
G01 X36.7585 Y30.5977 
G01 X36.7585 Y30.9723 
G01 X36.7318 Y31.0368 
G01 X36.6825 Y31.0861 
G01 X36.6247 Y31.1100 
G01 X36.6825 Y31.1339 
G01 X36.7318 Y31.1832 
G01 X36.7361 Y31.1936 
G01 X36.8698 Y31.1936 
G01 X36.9467 Y31.2142 
G01 X37.0157 Y31.2540 
G01 X38.5397 Y32.7780 
G01 X38.5960 Y32.8343 
G01 X38.6358 Y32.9033 
G01 X38.6564 Y32.9802 
G01 X38.6564 Y57.8169 
G01 X38.8136 Y57.6597 
G01 X38.8136 Y32.2563 
G00 Z2.0000  
G00 X34.8947 Y60.1137 
G01 Z-0.2500 F100   
G01 X34.8060 Y60.2464 F100   
G01 X34.6931 Y60.3593 
G01 X34.5604 Y60.4480 
G01 X34.4129 Y60.5091 
G01 X34.3048 Y60.5306 
G01 X35.1807 Y60.5306 
G01 X35.7189 Y59.9924 
G01 X34.9449 Y59.9924 
G01 X34.8947 Y60.1137 
G00 Z2.0000  
G00 X36.6969 Y31.7984 
G01 Z-0.2500 F100   
G01 X36.7271 Y31.8286 F100   
G01 X36.7349 Y31.8286 
G01 X36.7047 Y31.7984 
G01 X36.6969 Y31.7984 
G00 Z2.0000  
G00 X36.7318 Y27.7868 
G01 Z-0.2500 F100   
G01 X36.6825 Y27.8361 F100   
G01 X36.6247 Y27.8600 
G01 X36.6825 Y27.8839 
G01 X36.6901 Y27.8916 
G01 X36.7047 Y27.8916 
G01 X36.8619 Y27.7344 
G01 X36.7535 Y27.7344 
G01 X36.7318 Y27.7868 
G00 Z2.0000  
G00 X27.3389 Y11.3175 
G01 Z-0.2500 F100   
G01 X27.1719 Y11.2633 F100   
G01 X27.0155 Y11.1836 
G01 X26.8735 Y11.0804 
G01 X26.7494 Y10.9563 
G01 X26.6462 Y10.8143 
G01 X26.5665 Y10.6579 
G01 X26.5123 Y10.4909 
G01 X26.4848 Y10.3176 
G01 X26.4848 Y8.2624  
G01 X26.5123 Y8.0891  
G01 X26.5665 Y7.9221  
G01 X26.5924 Y7.8712  
G01 X26.1752 Y8.2885  
G01 X26.1752 Y10.3176 
G01 X26.1477 Y10.4909 
G01 X26.1026 Y10.6298 
G01 X26.1114 Y10.6261 
G01 X26.1231 Y10.6246 
G01 X26.1345 Y10.6209 
G01 X26.1625 Y10.6194 
G01 X26.1903 Y10.6157 
G01 X26.2021 Y10.6173 
G01 X26.2140 Y10.6167 
G01 X26.2414 Y10.6225 
G01 X26.2693 Y10.6261 
G01 X26.2802 Y10.6307 
G01 X26.2919 Y10.6331 
G01 X26.3169 Y10.6459 
G01 X26.3428 Y10.6566 
G01 X26.3522 Y10.6638 
G01 X26.3628 Y10.6692 
G01 X26.3837 Y10.6880 
G01 X26.4060 Y10.7051 
G01 X26.4132 Y10.7145 
G01 X26.4221 Y10.7225 
G01 X26.4374 Y10.7460 
G01 X26.4545 Y10.7682 
G01 X26.4590 Y10.7792 
G01 X26.4655 Y10.7892 
G01 X26.4742 Y10.8159 
G01 X26.5281 Y10.9460 
G01 X26.8838 Y11.3017 
G01 X27.0294 Y11.3620 
G01 X27.0487 Y11.3672 
G01 X27.0660 Y11.3772 
G01 X27.0845 Y11.3848 
G01 X27.1004 Y11.3970 
G01 X27.1177 Y11.4070 
G01 X27.1318 Y11.4211 
G01 X27.1477 Y11.4333 
G01 X27.1598 Y11.4492 
G01 X27.1740 Y11.4633 
G01 X27.1840 Y11.4806 
G01 X27.1961 Y11.4965 
G01 X27.2038 Y11.5150 
G01 X27.2138 Y11.5323 
G01 X27.2190 Y11.5516 
G01 X27.2266 Y11.5700 
G01 X27.2292 Y11.5899 
G01 X27.2344 Y11.6092 
G01 X27.2344 Y11.6292 
G01 X27.2370 Y11.6490 
G01 X27.2344 Y11.6688 
G01 X27.2344 Y25.6168 
G01 X27.3032 Y25.7828 
G01 X27.4653 Y25.9449 
G01 X28.7184 Y27.1980 
G01 X28.7539 Y27.2336 
G01 X28.7747 Y27.2543 
G01 X28.8145 Y27.3233 
G01 X28.8351 Y27.4002 
G01 X28.8351 Y27.4798 
G01 X28.8309 Y27.4954 
G01 X28.8145 Y27.5567 
G01 X28.7747 Y27.6257 
G01 X28.7184 Y27.6820 
G01 X28.6494 Y27.7218 
G01 X28.5725 Y27.7424 
G01 X25.2851 Y27.7424 
G01 X25.2646 Y27.7450 
G01 X25.2454 Y27.7424 
G01 X25.2261 Y27.7424 
G01 X25.2061 Y27.7370 
G01 X25.1857 Y27.7343 
G01 X25.1678 Y27.7268 
G01 X25.1492 Y27.7218 
G01 X25.1313 Y27.7115 
G01 X25.1122 Y27.7035 
G01 X25.0970 Y27.6916 
G01 X25.0802 Y27.6820 
G01 X25.0656 Y27.6674 
G01 X25.0493 Y27.6547 
G01 X25.0376 Y27.6393 
G01 X25.0239 Y27.6257 
G01 X25.0136 Y27.6078 
G01 X13.1443 Y11.9959 
G01 X13.1307 Y11.9823 
G01 X13.1203 Y11.9644 
G01 X13.1078 Y11.9479 
G01 X13.1005 Y11.9300 
G01 X13.0909 Y11.9133 
G01 X13.0855 Y11.8934 
G01 X13.0777 Y11.8742 
G01 X13.0752 Y11.8551 
G01 X13.0702 Y11.8364 
G01 X13.0702 Y11.8157 
G01 X13.0676 Y11.7952 
G01 X13.0702 Y11.7761 
G01 X13.0702 Y11.7568 
G01 X13.0756 Y11.7368 
G01 X13.0784 Y11.7163 
G01 X13.0859 Y11.6985 
G01 X13.0909 Y11.6799 
G01 X13.1012 Y11.6620 
G01 X13.1092 Y11.6429 
G01 X13.1210 Y11.6276 
G01 X13.1307 Y11.6109 
G01 X13.1453 Y11.5963 
G01 X13.1579 Y11.5800 
G01 X13.1733 Y11.5683 
G01 X13.1870 Y11.5546 
G01 X13.2049 Y11.5443 
G01 X13.2213 Y11.5318 
G01 X13.2392 Y11.5245 
G01 X13.2559 Y11.5148 
G01 X13.2759 Y11.5095 
G01 X13.2950 Y11.5016 
G01 X13.3142 Y11.4992 
G01 X13.3328 Y11.4942 
G01 X13.3535 Y11.4942 
G01 X13.3740 Y11.4916 
G01 X13.3931 Y11.4942 
G01 X13.5015 Y11.4942 
G01 X13.9662 Y11.3017 
G01 X14.3219 Y10.9460 
G01 X14.5144 Y10.4813 
G01 X14.5144 Y8.0987  
G01 X14.3219 Y7.6340  
G01 X13.9753 Y7.2874  
G01 X13.5879 Y7.2874  
G01 X13.6781 Y7.3167  
G01 X13.8345 Y7.3964  
G01 X13.9765 Y7.4996  
G01 X14.1006 Y7.6237  
G01 X14.2038 Y7.7657  
G01 X14.2835 Y7.9221  
G01 X14.3377 Y8.0891  
G01 X14.3652 Y8.2624  
G01 X14.3652 Y10.3176 
G01 X14.3377 Y10.4909 
G01 X14.2835 Y10.6579 
G01 X14.2038 Y10.8143 
G01 X14.1006 Y10.9563 
G01 X13.9765 Y11.0804 
G01 X13.8345 Y11.1836 
G01 X13.6781 Y11.2633 
G01 X13.5111 Y11.3175 
G01 X13.3378 Y11.3450 
G01 X13.1622 Y11.3450 
G01 X12.9889 Y11.3175 
G01 X12.8219 Y11.2633 
G01 X12.6655 Y11.1836 
G01 X12.5235 Y11.0804 
G01 X12.3994 Y10.9563 
G01 X12.2962 Y10.8143 
G01 X12.2165 Y10.6579 
G01 X12.1623 Y10.4909 
G01 X12.1348 Y10.3176 
G01 X12.1348 Y8.2624  
G01 X12.1623 Y8.0891  
G01 X12.2165 Y7.9221  
G01 X12.2962 Y7.7657  
G01 X12.3994 Y7.6237  
G01 X12.5235 Y7.4996  
G01 X12.6655 Y7.3964  
G01 X12.8219 Y7.3167  
G01 X12.9121 Y7.2874  
G01 X12.5247 Y7.2874  
G01 X12.2220 Y7.5901  
G01 X12.1665 Y7.6455  
