(.../pcb-gcode-3.6.0.4/pcb-gcode.ulp)
(Copyright 2005 - 2012 by John Johnson)
(See readme.txt for licensing terms.)
(This file generated from the board:)
(.../Tube Prototypes/IV-18_test.brd)
(Current profile is .../pcb-gcode-3.6.0.4/profiles/mach.pp  )
(This file generated 19/08/2013 6:14:33 PM)
(Settings from pcb-machine.h)
(  Tool Size)
(0.1500  )
(Z Axis Settings)
(  High     Up        Down     Drill)
(15.0000 	2.0000  	-0.1000 	-1.5000 )
(spindle on time = 1.0000)
(milling depth = -0.3000)
(text depth = -0.1500)
(tool change at 0.0000  0.0000  20.0000 )
(feed rate xy = F250   )
(feed rate z  = F100   )
(Settings from pcb-defaults.h)
(isolate min = 0.0254)
(isolate max = 0.1000)
(isolate step = 0.1000)
(Generated top outlines, bottom outlines, bottom drill, )
(Unit of measure: mm)
(Metric Mode)
G21
(Absolute Coordinates)
G90
G00 X0.0000  Y0.0000  
M03
G04 P1.000000
G00 Z2.0000  
G00 X21.8428 Y66.3995 
G01 Z-0.1000 F100   
G01 X22.2532 Y66.3995 F250   
G01 X22.3625 Y66.2901 
G01 X22.3625 Y65.9891 
G01 X22.2532 Y65.8798 
G01 X21.8428 Y65.8798 
G01 X21.8428 Y66.3995 
G00 Z2.0000  
G00 X13.3802 Y65.8693 
G01 Z-0.1000 F100   
G01 X13.3776 Y65.8892 F250   
G01 X13.3776 Y65.9093 
G01 X13.3724 Y65.9286 
G01 X13.3698 Y65.9485 
G01 X13.3621 Y65.9671 
G01 X13.3569 Y65.9865 
G01 X13.3468 Y66.0038 
G01 X13.3392 Y66.0224 
G01 X13.3269 Y66.0383 
G01 X13.3169 Y66.0557 
G01 X13.3027 Y66.0699 
G01 X13.2905 Y66.0858 
G01 X13.2746 Y66.0980 
G01 X13.2604 Y66.1122 
G01 X13.2430 Y66.1223 
G01 X13.2271 Y66.1345 
G01 X13.2085 Y66.1422 
G01 X13.1912 Y66.1522 
G01 X13.1718 Y66.1574 
G01 X13.1114 Y66.1824 
G01 X12.9597 Y66.3341 
G01 X12.8776 Y66.5323 
G01 X12.8776 Y66.7469 
G01 X12.9597 Y66.9451 
G01 X13.1114 Y67.0968 
G01 X13.3096 Y67.1789 
G01 X14.5241 Y67.1789 
G01 X14.5823 Y67.1548 
G01 X14.6520 Y67.1259 
G01 X14.6562 Y67.1242 
G01 X14.7354 Y67.1137 
G01 X14.7439 Y67.1148 
G01 X14.8147 Y67.1242 
G01 X14.8886 Y67.1548 
G01 X14.9468 Y67.1789 
G01 X16.1613 Y67.1789 
G01 X16.3506 Y67.1005 
G01 X16.4183 Y67.0724 
G01 X16.4976 Y67.0620 
G01 X16.5193 Y67.0648 
G01 X16.5768 Y67.0724 
G01 X16.5925 Y67.0789 
G01 X16.6573 Y67.1057 
G01 X16.6663 Y67.1095 
G01 X16.8339 Y67.1789 
G01 X17.5485 Y67.1789 
G01 X17.7317 Y67.1030 
G01 X17.7605 Y67.0910 
G01 X17.8055 Y67.0724 
G01 X17.8848 Y67.0620 
G01 X17.8943 Y67.0632 
G01 X17.9640 Y67.0724 
G01 X18.0379 Y67.1030 
G01 X18.2211 Y67.1789 
G01 X19.4356 Y67.1789 
G01 X19.4938 Y67.1548 
G01 X19.5635 Y67.1259 
G01 X19.5677 Y67.1242 
G01 X19.6469 Y67.1137 
G01 X19.6554 Y67.1148 
G01 X19.7262 Y67.1242 
G01 X19.8000 Y67.1548 
G01 X19.8583 Y67.1789 
G01 X21.0727 Y67.1789 
G01 X21.1310 Y67.1548 
G01 X21.2006 Y67.1259 
G01 X21.2048 Y67.1242 
G01 X21.2841 Y67.1137 
G01 X21.2925 Y67.1148 
G01 X21.3633 Y67.1242 
G01 X21.4372 Y67.1548 
G01 X21.4954 Y67.1789 
G01 X22.4599 Y67.1789 
G01 X22.6275 Y67.1095 
G01 X22.6410 Y67.1039 
G01 X22.6581 Y67.0968 
G01 X22.7520 Y67.0029 
G01 X22.7724 Y66.9825 
G01 X22.8086 Y66.9463 
G01 X22.8243 Y66.9306 
G01 X22.9094 Y66.8455 
G01 X22.9432 Y66.8117 
G01 X22.9659 Y66.7890 
G01 X23.0598 Y66.6951 
G01 X23.1419 Y66.4969 
G01 X23.1419 Y65.7824 
G01 X23.0945 Y65.6678 
G01 X23.0639 Y65.5939 
G01 X23.0543 Y65.5214 
G01 X23.0534 Y65.5147 
G01 X23.0639 Y65.4354 
G01 X23.0945 Y65.3616 
G01 X23.1419 Y65.2470 
G01 X23.1419 Y65.0324 
G01 X23.0598 Y64.8342 
G01 X22.9081 Y64.6825 
G01 X22.7099 Y64.6004 
G01 X22.4953 Y64.6004 
G01 X22.2971 Y64.6825 
G01 X22.2891 Y64.6906 
G01 X22.2407 Y64.7185 
G01 X22.2198 Y64.7305 
G01 X22.1728 Y64.7431 
G01 X22.1426 Y64.7512 
G01 X22.1031 Y64.7512 
G01 X22.0627 Y64.7512 
G01 X22.0100 Y64.7371 
G01 X21.9855 Y64.7305 
G01 X21.9352 Y64.7015 
G01 X21.9162 Y64.6906 
G01 X21.9082 Y64.6825 
G01 X21.7100 Y64.6004 
G01 X21.4954 Y64.6004 
G01 X21.4372 Y64.6245 
G01 X21.3633 Y64.6551 
G01 X21.2941 Y64.6642 
G01 X21.2841 Y64.6655 
G01 X21.2115 Y64.6560 
G01 X21.2048 Y64.6551 
G01 X21.1310 Y64.6245 
G01 X21.0727 Y64.6004 
G01 X19.8583 Y64.6004 
G01 X19.6601 Y64.6825 
G01 X19.6399 Y64.7027 
G01 X19.5857 Y64.7569 
G01 X19.5468 Y64.7803 
G01 X19.5141 Y64.7992 
G01 X19.4999 Y64.8030 
G01 X19.4369 Y64.8199 
G01 X19.3570 Y64.8199 
G01 X19.2958 Y64.8035 
G01 X19.2798 Y64.7992 
G01 X19.2482 Y64.7809 
G01 X19.2105 Y64.7592 
G01 X19.1540 Y64.7027 
G01 X19.1338 Y64.6825 
G01 X18.9356 Y64.6004 
G01 X18.7211 Y64.6004 
G01 X18.5229 Y64.6825 
G01 X18.3777 Y64.8277 
G01 X18.3212 Y64.8842 
G01 X18.2519 Y64.9242 
G01 X18.1963 Y64.9391 
G01 X18.1747 Y64.9448 
G01 X18.0948 Y64.9448 
G01 X18.0176 Y64.9242 
G01 X17.9483 Y64.8842 
G01 X17.7467 Y64.6825 
G01 X17.5484 Y64.6004 
G01 X16.8339 Y64.6004 
G01 X16.6507 Y64.6763 
G01 X16.6369 Y64.6820 
G01 X16.5769 Y64.7069 
G01 X16.4976 Y64.7173 
G01 X16.4909 Y64.7164 
G01 X16.4183 Y64.7069 
G01 X16.3617 Y64.6834 
G01 X16.3445 Y64.6763 
G01 X16.1613 Y64.6004 
G01 X14.9468 Y64.6004 
G01 X14.7486 Y64.6825 
G01 X14.7284 Y64.7027 
G01 X14.6742 Y64.7569 
G01 X14.6353 Y64.7803 
G01 X14.6027 Y64.7992 
G01 X14.5884 Y64.8030 
G01 X14.5255 Y64.8199 
G01 X14.4455 Y64.8199 
G01 X14.3843 Y64.8035 
G01 X14.3683 Y64.7992 
G01 X14.3367 Y64.7809 
G01 X14.2991 Y64.7592 
G01 X14.2425 Y64.7027 
G01 X14.2224 Y64.6825 
G01 X14.0242 Y64.6004 
G01 X13.8096 Y64.6004 
G01 X13.6114 Y64.6825 
G01 X13.4597 Y64.8342 
G01 X13.3776 Y65.0324 
G01 X13.3776 Y65.8494 
G01 X13.3802 Y65.8693 
G00 Z2.0000  
G00 X21.0132 Y66.3995 
G01 Z-0.1000 F100   
G01 X21.1015 Y66.4360 F250   
G01 X21.1690 Y66.5036 
G01 X21.2056 Y66.5918 
G01 X21.2056 Y66.6873 
G01 X21.1690 Y66.7756 
G01 X21.1015 Y66.8431 
G01 X21.0132 Y66.8797 
G01 X19.9178 Y66.8797 
G01 X19.8295 Y66.8431 
G01 X19.7620 Y66.7756 
G01 X19.7254 Y66.6873 
G01 X19.7254 Y65.0919 
G01 X19.7620 Y65.0037 
G01 X19.8295 Y64.9362 
G01 X19.9178 Y64.8996 
G01 X21.0132 Y64.8996 
G01 X21.1015 Y64.9362 
G01 X21.1690 Y65.0037 
G01 X21.2056 Y65.0919 
G01 X21.2056 Y65.1875 
G01 X21.1690 Y65.2757 
G01 X21.1015 Y65.3432 
G01 X21.0132 Y65.3798 
G01 X20.2056 Y65.3798 
G01 X20.2056 Y65.6495 
G01 X20.5133 Y65.6495 
G01 X20.6015 Y65.6861 
G01 X20.6690 Y65.7536 
G01 X20.7056 Y65.8419 
G01 X20.7056 Y65.9374 
G01 X20.6690 Y66.0256 
G01 X20.6015 Y66.0932 
G01 X20.5133 Y66.1297 
G01 X20.2056 Y66.1297 
G01 X20.2056 Y66.3995 
G01 X21.0132 Y66.3995 
G00 Z2.0000  
G00 X16.1018 Y66.3995 
G01 Z-0.1000 F100   
G01 X16.1900 Y66.4360 F250   
G01 X16.2575 Y66.5036 
G01 X16.2941 Y66.5918 
G01 X16.2941 Y66.6873 
G01 X16.2575 Y66.7756 
G01 X16.1900 Y66.8431 
G01 X16.1018 Y66.8797 
G01 X15.0063 Y66.8797 
G01 X14.9181 Y66.8431 
G01 X14.8505 Y66.7756 
G01 X14.8140 Y66.6873 
G01 X14.8140 Y65.0919 
G01 X14.8505 Y65.0037 
G01 X14.9181 Y64.9362 
G01 X15.0063 Y64.8996 
G01 X16.1018 Y64.8996 
G01 X16.1900 Y64.9362 
G01 X16.2575 Y65.0037 
G01 X16.2941 Y65.0919 
G01 X16.2941 Y65.1875 
G01 X16.2575 Y65.2757 
G01 X16.1900 Y65.3432 
G01 X16.1018 Y65.3798 
G01 X15.2942 Y65.3798 
G01 X15.2942 Y65.6495 
G01 X15.6018 Y65.6495 
G01 X15.6900 Y65.6861 
G01 X15.7576 Y65.7536 
G01 X15.7941 Y65.8419 
G01 X15.7941 Y65.9374 
G01 X15.7576 Y66.0256 
G01 X15.6900 Y66.0932 
G01 X15.6018 Y66.1297 
G01 X15.2942 Y66.1297 
G01 X15.2942 Y66.3995 
G01 X16.1018 Y66.3995 
G00 Z2.0000  
G00 X13.6768 Y65.0919 
G01 Z-0.1000 F100   
G01 X13.7133 Y65.0037 F250   
G01 X13.7809 Y64.9362 
G01 X13.8691 Y64.8996 
G01 X13.9646 Y64.8996 
G01 X14.0529 Y64.9362 
G01 X14.1204 Y65.0037 
G01 X14.1570 Y65.0919 
G01 X14.1570 Y66.3995 
G01 X14.4646 Y66.3995 
G01 X14.5528 Y66.4360 
G01 X14.6204 Y66.5036 
G01 X14.6569 Y66.5918 
G01 X14.6569 Y66.6873 
G01 X14.6204 Y66.7756 
G01 X14.5528 Y66.8431 
G01 X14.4646 Y66.8797 
G01 X13.3692 Y66.8797 
G01 X13.2809 Y66.8431 
G01 X13.2134 Y66.7756 
G01 X13.1768 Y66.6873 
G01 X13.1768 Y66.5918 
G01 X13.2134 Y66.5036 
G01 X13.2809 Y66.4360 
G01 X13.3692 Y66.3995 
G01 X13.6768 Y66.3995 
G01 X13.6768 Y65.0919 
G00 Z2.0000  
G00 X17.5551 Y66.1861 
G01 Z-0.1000 F100   
G01 X17.6434 Y66.1495 F250   
G01 X17.7389 Y66.1495 
G01 X17.8272 Y66.1861 
G01 X17.8947 Y66.2536 
G01 X17.9312 Y66.3418 
G01 X17.9312 Y66.4374 
G01 X17.8947 Y66.5256 
G01 X17.5772 Y66.8431 
G01 X17.4914 Y66.8786 
G01 X16.8934 Y66.8797 
G01 X16.8052 Y66.8431 
G01 X16.4901 Y66.5281 
G01 X16.4511 Y66.4374 
G01 X16.4511 Y66.0919 
G01 X16.4877 Y66.0036 
G01 X16.8052 Y65.6861 
G01 X16.8934 Y65.6495 
G01 X17.3417 Y65.6495 
G01 X17.4511 Y65.5402 
G01 X17.4511 Y65.4891 
G01 X17.3417 Y65.3798 
G01 X17.0407 Y65.3798 
G01 X16.8272 Y65.5932 
G01 X16.7390 Y65.6298 
G01 X16.6435 Y65.6298 
G01 X16.5552 Y65.5932 
G01 X16.4877 Y65.5257 
G01 X16.4511 Y65.4374 
G01 X16.4511 Y65.3419 
G01 X16.4877 Y65.2537 
G01 X16.8052 Y64.9362 
G01 X16.8934 Y64.8996 
G01 X17.4889 Y64.8996 
G01 X17.5772 Y64.9362 
G01 X17.6447 Y65.0037 
G01 X17.8947 Y65.2537 
G01 X17.9312 Y65.3419 
G01 X17.9312 Y65.6874 
G01 X17.8947 Y65.7757 
G01 X17.5772 Y66.0932 
G01 X17.4889 Y66.1297 
G01 X17.0407 Y66.1297 
G01 X16.9313 Y66.2391 
G01 X16.9313 Y66.2901 
G01 X17.0407 Y66.3995 
G01 X17.3417 Y66.3995 
G01 X17.5551 Y66.1861 
G00 Z2.0000  
G00 X18.5882 Y65.0919 
G01 Z-0.1000 F100   
G01 X18.6248 Y65.0037 F250   
G01 X18.6923 Y64.9362 
G01 X18.7806 Y64.8996 
G01 X18.8761 Y64.8996 
G01 X18.9643 Y64.9362 
G01 X19.0319 Y65.0037 
G01 X19.0684 Y65.0919 
G01 X19.0684 Y66.3995 
G01 X19.3761 Y66.3995 
G01 X19.4643 Y66.4360 
G01 X19.5319 Y66.5036 
G01 X19.5684 Y66.5918 
G01 X19.5684 Y66.6873 
G01 X19.5319 Y66.7756 
G01 X19.4643 Y66.8431 
G01 X19.3761 Y66.8797 
G01 X18.2806 Y66.8797 
G01 X18.1924 Y66.8431 
G01 X18.1248 Y66.7756 
G01 X18.0883 Y66.6873 
G01 X18.0883 Y66.5918 
G01 X18.1248 Y66.5036 
G01 X18.1924 Y66.4360 
G01 X18.2806 Y66.3995 
G01 X18.5882 Y66.3995 
G01 X18.5882 Y65.0919 
G00 Z2.0000  
G00 X21.3626 Y65.0919 
G01 Z-0.1000 F100   
G01 X21.3992 Y65.0037 F250   
G01 X21.4667 Y64.9362 
G01 X21.5549 Y64.8996 
G01 X21.6505 Y64.8996 
G01 X21.7387 Y64.9362 
G01 X21.8062 Y65.0037 
G01 X21.8428 Y65.0919 
G01 X21.8428 Y65.3996 
G01 X22.0032 Y65.3996 
G01 X22.4666 Y64.9362 
G01 X22.5549 Y64.8996 
G01 X22.6504 Y64.8996 
G01 X22.7386 Y64.9362 
G01 X22.8062 Y65.0037 
G01 X22.8427 Y65.0919 
G01 X22.8427 Y65.1875 
G01 X22.8062 Y65.2757 
G01 X22.5672 Y65.5147 
G01 X22.8062 Y65.7536 
G01 X22.8427 Y65.8419 
G01 X22.8427 Y66.4374 
G01 X22.8062 Y66.5256 
G01 X22.4886 Y66.8431 
G01 X22.4004 Y66.8797 
G01 X21.5549 Y66.8797 
G01 X21.4667 Y66.8431 
G01 X21.3992 Y66.7756 
G01 X21.3626 Y66.6873 
G01 X21.3626 Y65.5919 
G01 X21.3626 Y65.0919 
G00 Z2.0000  
G00 X7.8925  Y30.8866 
G01 Z-0.1000 F100   
G01 X11.6075 Y30.8866 F250   
G01 X11.7544 Y30.8258 
G01 X11.8668 Y30.7134 
G01 X11.9276 Y30.5665 
G01 X11.9276 Y28.8835 
G01 X11.8668 Y28.7366 
G01 X11.7544 Y28.6242 
G01 X11.6075 Y28.5634 
G01 X7.8925  Y28.5634 
G01 X7.7456  Y28.6242 
G01 X7.6332  Y28.7366 
G01 X7.5724  Y28.8835 
G01 X7.5724  Y30.5665 
G01 X7.6332  Y30.7134 
G01 X7.7456  Y30.8258 
G01 X7.8925  Y30.8866 
G00 Z2.0000  
G00 X9.4948  Y29.4099 
G01 Z-0.1000 F100   
G01 X9.4948  Y30.0401 F250   
G01 X9.0491  Y30.4858 
G01 X8.4189  Y30.4858 
G01 X7.9732  Y30.0401 
G01 X7.9732  Y29.4099 
G01 X8.4189  Y28.9642 
G01 X9.0491  Y28.9642 
G01 X9.4948  Y29.4099 
G00 Z2.0000  
G00 X11.5268 Y29.6501 
G01 Z-0.1000 F100   
G01 X11.5268 Y29.7999 F250   
G01 X11.4976 Y29.9469 
G01 X11.4402 Y30.0854 
G01 X11.3570 Y30.2100 
G01 X11.2510 Y30.3160 
G01 X11.1264 Y30.3992 
G01 X10.9879 Y30.4566 
G01 X10.8409 Y30.4858 
G01 X10.6911 Y30.4858 
G01 X10.5441 Y30.4566 
G01 X10.4056 Y30.3992 
G01 X10.2810 Y30.3160 
G01 X10.1750 Y30.2100 
G01 X10.0918 Y30.0854 
G01 X10.0344 Y29.9469 
G01 X10.0052 Y29.7999 
G01 X10.0052 Y29.6501 
G01 X10.0344 Y29.5031 
G01 X10.0918 Y29.3646 
G01 X10.1750 Y29.2400 
G01 X10.2810 Y29.1340 
G01 X10.4056 Y29.0508 
G01 X10.5441 Y28.9934 
G01 X10.6911 Y28.9642 
G01 X10.8409 Y28.9642 
G01 X10.9879 Y28.9934 
G01 X11.1264 Y29.0508 
G01 X11.2510 Y29.1340 
G01 X11.3570 Y29.2400 
G01 X11.4402 Y29.3646 
G01 X11.4976 Y29.5031 
G01 X11.5268 Y29.6501 
G00 Z2.0000  
G00 X22.5300 Y59.9441 
G01 Z-0.1000 F100   
G01 X22.5925 Y59.8962 F250   
G01 X22.5934 Y59.8955 
G01 X22.6672 Y59.8649 
G01 X22.7465 Y59.8545 
G01 X22.7549 Y59.8556 
G01 X22.8258 Y59.8649 
G01 X22.8996 Y59.8955 
G01 X22.9152 Y59.9075 
G01 X22.9630 Y59.9441 
G01 X23.0110 Y60.0067 
G01 X23.0147 Y60.0147 
G01 X23.1394 Y60.3159 
G01 X23.4305 Y60.6069 
G01 X23.8107 Y60.7644 
G01 X24.2223 Y60.7644 
G01 X24.6026 Y60.6069 
G01 X24.8936 Y60.3159 
G01 X25.0511 Y59.9356 
G01 X25.0511 Y59.5240 
G01 X24.8936 Y59.1438 
G01 X24.6026 Y58.8527 
G01 X24.2223 Y58.6952 
G01 X23.8107 Y58.6952 
G01 X23.4305 Y58.8527 
G01 X23.1394 Y59.1438 
G01 X23.0117 Y59.4521 
G01 X22.9630 Y59.5155 
G01 X22.9135 Y59.5536 
G01 X22.8996 Y59.5642 
G01 X22.8258 Y59.5948 
G01 X22.7565 Y59.6039 
G01 X22.7465 Y59.6052 
G01 X22.6739 Y59.5957 
G01 X22.6672 Y59.5948 
G01 X22.5934 Y59.5642 
G01 X22.5300 Y59.5155 
G01 X22.4920 Y59.4660 
G01 X22.4813 Y59.4521 
G01 X22.3536 Y59.1438 
G01 X22.0626 Y58.8527 
G01 X21.6823 Y58.6952 
G01 X21.2707 Y58.6952 
G01 X20.8905 Y58.8527 
G01 X20.5994 Y59.1438 
G01 X20.4419 Y59.5240 
G01 X20.4419 Y59.9356 
G01 X20.5994 Y60.3159 
G01 X20.8905 Y60.6069 
G01 X21.2707 Y60.7644 
G01 X21.6823 Y60.7644 
G01 X22.0626 Y60.6069 
G01 X22.3536 Y60.3159 
G01 X22.4813 Y60.0076 
G01 X22.4933 Y59.9919 
G01 X22.5300 Y59.9441 
G00 Z2.0000  
G00 X22.2119 Y59.6574 
G01 Z-0.1000 F100   
G01 X22.2119 Y59.8023 F250   
G01 X22.1836 Y59.9444 
G01 X22.1282 Y60.0782 
G01 X22.0477 Y60.1986 
G01 X21.9453 Y60.3011 
G01 X21.8249 Y60.3815 
G01 X21.6910 Y60.4370 
G01 X21.5489 Y60.4652 
G01 X21.4041 Y60.4652 
G01 X21.2620 Y60.4370 
G01 X21.1282 Y60.3815 
G01 X21.0077 Y60.3011 
G01 X20.9053 Y60.1986 
G01 X20.8248 Y60.0782 
G01 X20.7694 Y59.9444 
G01 X20.7411 Y59.8023 
G01 X20.7411 Y59.6574 
G01 X20.7694 Y59.5153 
G01 X20.8248 Y59.3815 
G01 X20.9053 Y59.2611 
G01 X21.0077 Y59.1586 
G01 X21.1282 Y59.0781 
G01 X21.2620 Y59.0227 
G01 X21.4041 Y58.9944 
G01 X21.5489 Y58.9944 
G01 X21.6910 Y59.0227 
G01 X21.8249 Y59.0781 
G01 X21.9453 Y59.1586 
G01 X22.0477 Y59.2611 
G01 X22.1282 Y59.3815 
G01 X22.1836 Y59.5153 
G01 X22.2119 Y59.6574 
G00 Z2.0000  
G00 X24.7519 Y59.6574 
G01 Z-0.1000 F100   
G01 X24.7519 Y59.8023 F250   
G01 X24.7236 Y59.9444 
G01 X24.6682 Y60.0782 
G01 X24.5877 Y60.1986 
G01 X24.4853 Y60.3011 
G01 X24.3649 Y60.3815 
G01 X24.2310 Y60.4370 
G01 X24.0889 Y60.4652 
G01 X23.9441 Y60.4652 
G01 X23.8020 Y60.4370 
G01 X23.6682 Y60.3815 
G01 X23.5477 Y60.3011 
G01 X23.4453 Y60.1986 
G01 X23.3648 Y60.0782 
G01 X23.3094 Y59.9444 
G01 X23.2811 Y59.8023 
G01 X23.2811 Y59.6574 
G01 X23.3094 Y59.5153 
G01 X23.3648 Y59.3815 
G01 X23.4453 Y59.2611 
G01 X23.5477 Y59.1586 
G01 X23.6682 Y59.0781 
G01 X23.8020 Y59.0227 
G01 X23.9441 Y58.9944 
G01 X24.0889 Y58.9944 
G01 X24.2310 Y59.0227 
G01 X24.3649 Y59.0781 
G01 X24.4853 Y59.1586 
G01 X24.5877 Y59.2611 
G01 X24.6682 Y59.3815 
G01 X24.7236 Y59.5153 
G01 X24.7519 Y59.6574 
G00 Z2.0000  
G00 X36.0420 Y49.9832 
G01 Z-0.1000 F100   
G01 X36.1150 Y50.0836 F250   
G01 X36.2028 Y50.1714 
G01 X36.3032 Y50.2443 
G01 X36.4129 Y50.3002 
G01 X36.4129 Y50.2401 
G01 X36.3682 Y50.2215 
G01 X36.2477 Y50.1411 
G01 X36.1453 Y50.0386 
G01 X36.0648 Y49.9182 
G01 X36.0463 Y49.8735 
G01 X35.9861 Y49.8735 
G01 X36.0420 Y49.9832 
G00 Z2.0000  
G00 X36.3032 Y48.8954 
G01 Z-0.1000 F100   
G01 X36.2028 Y48.9683 F250   
G01 X36.1150 Y49.0561 
G01 X36.0420 Y49.1565 
G01 X35.9861 Y49.2662 
G01 X36.0463 Y49.2662 
G01 X36.0648 Y49.2215 
G01 X36.1453 Y49.1011 
G01 X36.2477 Y48.9986 
G01 X36.3682 Y48.9181 
G01 X36.4129 Y48.8996 
G01 X36.4129 Y48.8395 
G01 X36.3032 Y48.8954 
G00 Z2.0000  
G00 X10.9024 Y65.5402 
G01 Z-0.1000 F100   
G01 X10.9024 Y65.4891 F250   
G01 X10.7931 Y65.3798 
G01 X10.4920 Y65.3798 
G01 X10.3827 Y65.4891 
G01 X10.3827 Y65.5402 
G01 X10.4920 Y65.6495 
G01 X10.7931 Y65.6495 
G01 X10.9024 Y65.5402 
G00 Z2.0000  
G00 X10.4920 Y66.3995 
G01 Z-0.1000 F100   
G01 X10.7931 Y66.3995 F250   
G01 X10.9024 Y66.2901 
G01 X10.9024 Y66.2391 
G01 X10.7931 Y66.1297 
G01 X10.4920 Y66.1297 
G01 X10.3827 Y66.2391 
G01 X10.3827 Y66.2901 
G01 X10.4920 Y66.3995 
G00 Z2.0000  
G00 X24.6403 Y7.3369  
G01 Z-0.1000 F100   
G01 X24.4869 Y7.4150  F250   
G01 X24.3530 Y7.5124  
G01 X24.3416 Y7.5237  
G01 X24.3208 Y7.5357  
G01 X24.3013 Y7.5499  
G01 X24.2863 Y7.5556  
G01 X24.2731 Y7.5633  
G01 X24.2655 Y7.5765  
G01 X24.2597 Y7.5915  
G01 X24.2455 Y7.6110  
G01 X24.2335 Y7.6318  
G01 X24.2222 Y7.6432  
G01 X24.1248 Y7.7771  
G01 X24.0467 Y7.9305  
G01 X23.9935 Y8.0942  
G01 X23.9666 Y8.2641  
G01 X23.9666 Y8.9102  
G01 X24.0198 Y8.9102  
G01 X24.0198 Y8.2683  
G01 X24.0454 Y8.1066  
G01 X24.0960 Y7.9509  
G01 X24.1703 Y7.8050  
G01 X24.2666 Y7.6726  
G01 X24.3824 Y7.5568  
G01 X24.5148 Y7.4605  
G01 X24.6607 Y7.3862  
G01 X24.6802 Y7.3799  
G01 X24.6802 Y7.3239  
G01 X24.6403 Y7.3369  
G00 Z2.0000  
G00 X23.9666 Y10.3158 
G01 Z-0.1000 F100   
G01 X23.9935 Y10.4858 F250   
G01 X24.0467 Y10.6495 
G01 X24.1248 Y10.8029 
G01 X24.2260 Y10.9421 
G01 X24.3477 Y11.0638 
G01 X24.4869 Y11.1650 
G01 X24.6403 Y11.2431 
G01 X24.6802 Y11.2561 
G01 X24.6802 Y11.2001 
G01 X24.6607 Y11.1938 
G01 X24.5148 Y11.1195 
G01 X24.3824 Y11.0232 
G01 X24.2666 Y10.9074 
G01 X24.1703 Y10.7750 
G01 X24.0960 Y10.6291 
G01 X24.0454 Y10.4734 
G01 X24.0198 Y10.3117 
G01 X24.0198 Y9.6698  
G01 X23.9666 Y9.6698  
G01 X23.9666 Y10.3158 
G00 Z2.0000  
G00 X7.7503  Y7.3369  
G01 Z-0.1000 F100   
G01 X7.5969  Y7.4150  F250   
G01 X7.4577  Y7.5162  
G01 X7.3360  Y7.6379  
G01 X7.2348  Y7.7771  
G01 X7.1567  Y7.9305  
G01 X7.1035  Y8.0942  
G01 X7.0766  Y8.2641  
G01 X7.0766  Y8.9102  
G01 X7.1298  Y8.9102  
G01 X7.1298  Y8.2683  
G01 X7.1554  Y8.1066  
G01 X7.2060  Y7.9509  
G01 X7.2803  Y7.8050  
G01 X7.3766  Y7.6726  
G01 X7.4924  Y7.5568  
G01 X7.6248  Y7.4605  
G01 X7.7707  Y7.3862  
G01 X7.7902  Y7.3799  
G01 X7.7902  Y7.3239  
G01 X7.7503  Y7.3369  
G00 Z2.0000  
G00 X21.9296 Y18.3359 
G01 Z-0.1000 F100   
G01 X21.9270 Y18.3558 F250   
G01 X21.9270 Y18.3758 
G01 X21.9218 Y18.3952 
G01 X21.9192 Y18.4151 
G01 X21.9115 Y18.4337 
G01 X21.9063 Y18.4530 
G01 X21.8963 Y18.4704 
G01 X21.8886 Y18.4890 
G01 X21.8764 Y18.5049 
G01 X21.8663 Y18.5223 
G01 X21.8522 Y18.5365 
G01 X21.8399 Y18.5524 
G01 X21.8240 Y18.5646 
G01 X21.8098 Y18.5788 
G01 X21.7924 Y18.5888 
G01 X21.7765 Y18.6011 
G01 X21.7580 Y18.6087 
G01 X21.7406 Y18.6188 
G01 X21.7212 Y18.6240 
G01 X21.4936 Y18.7182 
G01 X21.0042 Y19.2076 
G01 X20.7394 Y19.8470 
G01 X20.7394 Y19.9008 
G01 X20.7187 Y19.9780 
G01 X20.6787 Y20.0472 
G01 X20.6222 Y20.1037 
G01 X20.5530 Y20.1437 
G01 X20.4758 Y20.1644 
G01 X20.3958 Y20.1644 
G01 X20.3186 Y20.1437 
G01 X20.2494 Y20.1037 
G01 X11.6762 Y11.5306 
G01 X11.6363 Y11.4614 
G01 X11.6156 Y11.3841 
G01 X11.6156 Y11.3042 
G01 X11.6363 Y11.2270 
G01 X11.6762 Y11.1578 
G01 X11.7328 Y11.1012 
G01 X11.7936 Y11.0404 
G01 X11.8628 Y11.0004 
G01 X11.9400 Y10.9798 
G01 X12.0200 Y10.9798 
G01 X12.0972 Y11.0004 
G01 X12.1664 Y11.0404 
G01 X12.2229 Y11.0969 
G01 X12.4913 Y11.3653 
G01 X12.9836 Y11.5692 
G01 X13.5164 Y11.5692 
G01 X14.0087 Y11.3653 
G01 X14.3855 Y10.9885 
G01 X14.5894 Y10.4962 
G01 X14.5894 Y8.0838  
G01 X14.3855 Y7.5915  
G01 X14.0087 Y7.2147  
G01 X13.5164 Y7.0108  
G01 X12.9836 Y7.0108  
G01 X12.4913 Y7.2147  
G01 X12.1664 Y7.5396  
G01 X12.0972 Y7.5796  
G01 X12.0200 Y7.6002  
G01 X11.9400 Y7.6002  
G01 X11.8661 Y7.5804  
G01 X11.8628 Y7.5796  
G01 X11.7936 Y7.5396  
G01 X11.7371 Y7.4831  
G01 X11.4687 Y7.2147  
G01 X10.9764 Y7.0108  
G01 X10.4436 Y7.0108  
G01 X9.9513  Y7.2147  
G01 X9.5758  Y7.5902  
G01 X9.5610  Y7.6240  
G01 X9.5473  Y7.6572  
G01 X9.5448  Y7.6604  
G01 X9.5432  Y7.6641  
G01 X9.5205  Y7.6921  
G01 X9.4986  Y7.7207  
G01 X9.4954  Y7.7231  
G01 X9.4929  Y7.7263  
G01 X9.4637  Y7.7475  
G01 X9.4352  Y7.7693  
G01 X9.4315  Y7.7709  
G01 X9.4282  Y7.7732  
G01 X9.3945  Y7.7862  
G01 X9.3613  Y7.7999  
G01 X9.3573  Y7.8004  
G01 X9.3536  Y7.8019  
G01 X9.3177  Y7.8057  
G01 X9.2821  Y7.8104  
G01 X9.2781  Y7.8098  
G01 X9.2741  Y7.8102  
G01 X9.2385  Y7.8046  
G01 X9.2028  Y7.7999  
G01 X9.1991  Y7.7984  
G01 X9.1951  Y7.7977  
G01 X9.1622  Y7.7831  
G01 X9.1290  Y7.7693  
G01 X9.1258  Y7.7669  
G01 X9.1221  Y7.7652  
G01 X9.0941  Y7.7426  
G01 X9.0656  Y7.7207  
G01 X9.0631  Y7.7175  
G01 X9.0600  Y7.7149  
G01 X9.0388  Y7.6857  
G01 X9.0169  Y7.6572  
G01 X9.0153  Y7.6535  
G01 X9.0040  Y7.6379  
G01 X8.8823  Y7.5162  
G01 X8.7431  Y7.4150  
G01 X8.5897  Y7.3369  
G01 X8.5498  Y7.3239  
G01 X8.5498  Y7.3799  
G01 X8.5693  Y7.3862  
G01 X8.7152  Y7.4605  
G01 X8.8476  Y7.5568  
G01 X8.9634  Y7.6726  
G01 X9.0597  Y7.8050  
G01 X9.1340  Y7.9509  
G01 X9.1846  Y8.1066  
G01 X9.2102  Y8.2683  
G01 X9.2102  Y10.3117 
G01 X9.1846  Y10.4734 
G01 X9.1340  Y10.6291 
G01 X9.0597  Y10.7750 
G01 X8.9634  Y10.9074 
G01 X8.8476  Y11.0232 
G01 X8.7152  Y11.1195 
G01 X8.5693  Y11.1938 
G01 X8.5498  Y11.2001 
G01 X8.5498  Y11.2561 
G01 X8.5897  Y11.2431 
G01 X8.7431  Y11.1650 
G01 X8.8823  Y11.0638 
G01 X9.0040  Y10.9421 
G01 X9.0153  Y10.9265 
G01 X9.0169  Y10.9227 
G01 X9.0388  Y10.8943 
G01 X9.0600  Y10.8651 
G01 X9.0631  Y10.8625 
G01 X9.0656  Y10.8593 
G01 X9.0941  Y10.8374 
G01 X9.1221  Y10.8148 
G01 X9.1258  Y10.8131 
G01 X9.1290  Y10.8107 
G01 X9.1622  Y10.7969 
G01 X9.1951  Y10.7823 
G01 X9.1991  Y10.7816 
G01 X9.2028  Y10.7801 
G01 X9.2385  Y10.7754 
G01 X9.2741  Y10.7697 
G01 X9.2781  Y10.7702 
G01 X9.2821  Y10.7696 
G01 X9.3177  Y10.7743 
G01 X9.3536  Y10.7781 
G01 X9.3573  Y10.7796 
G01 X9.3613  Y10.7801 
G01 X9.3945  Y10.7938 
G01 X9.4282  Y10.8068 
G01 X9.4315  Y10.8091 
G01 X9.4352  Y10.8107 
G01 X9.4637  Y10.8325 
G01 X9.4929  Y10.8537 
G01 X9.4954  Y10.8569 
G01 X9.4986  Y10.8593 
G01 X9.5205  Y10.8879 
G01 X9.5432  Y10.9159 
G01 X9.5448  Y10.9196 
G01 X9.5473  Y10.9228 
G01 X9.5610  Y10.9560 
G01 X9.5757  Y10.9889 
G01 X9.9513  Y11.3653 
G01 X10.0471 Y11.4050 
G01 X10.1105 Y11.4536 
G01 X10.1212 Y11.4675 
G01 X10.1592 Y11.5171 
G01 X10.1898 Y11.5909 
G01 X10.2000 Y11.6157 
G01 X10.4263 Y11.8419 
G01 X26.3148 Y27.7305 
G01 X26.3713 Y27.7870 
G01 X26.4113 Y27.8562 
G01 X26.4320 Y27.9334 
G01 X26.4320 Y28.0134 
G01 X26.4113 Y28.0906 
G01 X26.3713 Y28.1598 
G01 X26.3148 Y28.2163 
G01 X26.2456 Y28.2563 
G01 X26.1684 Y28.2770 
G01 X24.5282 Y28.2770 
G01 X24.3253 Y28.3610 
G01 X18.2244 Y34.4620 
G01 X18.2121 Y34.4779 
G01 X18.1962 Y34.4901 
G01 X18.1820 Y34.5043 
G01 X18.1646 Y34.5144 
G01 X18.1487 Y34.5266 
G01 X18.1302 Y34.5343 
G01 X18.1128 Y34.5443 
G01 X18.0934 Y34.5495 
G01 X18.0749 Y34.5572 
G01 X18.0549 Y34.5598 
G01 X18.0356 Y34.5650 
G01 X18.0155 Y34.5650 
G01 X17.9956 Y34.5676 
G01 X17.9757 Y34.5650 
G01 X17.9556 Y34.5650 
G01 X17.9362 Y34.5598 
G01 X17.9163 Y34.5572 
G01 X17.8978 Y34.5495 
G01 X17.8784 Y34.5443 
G01 X17.8610 Y34.5343 
G01 X17.3640 Y34.3284 
G01 X16.6720 Y34.3284 
G01 X16.0326 Y34.5932 
G01 X15.5432 Y35.0826 
G01 X15.2784 Y35.7220 
G01 X15.2784 Y36.4140 
G01 X15.4843 Y36.9110 
G01 X15.4943 Y36.9284 
G01 X15.4995 Y36.9478 
G01 X15.5072 Y36.9663 
G01 X15.5098 Y36.9862 
G01 X15.5150 Y37.0056 
G01 X15.5150 Y37.0257 
G01 X15.5176 Y37.0456 
G01 X15.5150 Y37.0655 
G01 X15.5150 Y37.0856 
G01 X15.5098 Y37.1049 
G01 X15.5072 Y37.1249 
G01 X15.4995 Y37.1434 
G01 X15.4943 Y37.1628 
G01 X15.4843 Y37.1802 
G01 X15.4766 Y37.1987 
G01 X15.4644 Y37.2146 
G01 X15.4543 Y37.2320 
G01 X15.4401 Y37.2462 
G01 X15.4279 Y37.2621 
G01 X15.4120 Y37.2744 
G01 X9.4966  Y43.1897 
G01 X9.4274  Y43.2297 
G01 X9.3502  Y43.2504 
G01 X8.4931  Y43.2504 
G01 X7.7904  Y43.9531 
G01 X7.7904  Y44.9469 
G01 X8.4931  Y45.6496 
G01 X9.4869  Y45.6496 
G01 X10.1896 Y44.9469 
G01 X10.1896 Y44.1438 
G01 X10.2103 Y44.0666 
G01 X10.2503 Y43.9974 
G01 X10.3068 Y43.9409 
G01 X16.3505 Y37.8972 
G01 X16.3627 Y37.8812 
G01 X16.3786 Y37.8690 
G01 X16.3928 Y37.8548 
G01 X16.4102 Y37.8448 
G01 X16.4261 Y37.8326 
G01 X16.4447 Y37.8249 
G01 X16.4620 Y37.8149 
G01 X16.4814 Y37.8097 
G01 X16.5000 Y37.8020 
G01 X16.5199 Y37.7994 
G01 X16.5392 Y37.7942 
G01 X16.5593 Y37.7942 
G01 X16.5792 Y37.7916 
G01 X16.5991 Y37.7942 
G01 X16.6192 Y37.7942 
G01 X16.6386 Y37.7994 
G01 X16.6585 Y37.8020 
G01 X16.6720 Y37.8076 
G01 X17.3640 Y37.8076 
G01 X18.0034 Y37.5428 
G01 X18.4928 Y37.0534 
G01 X18.7576 Y36.4140 
G01 X18.7576 Y35.7220 
G01 X18.7520 Y35.7085 
G01 X18.7494 Y35.6886 
G01 X18.7442 Y35.6692 
G01 X18.7442 Y35.6491 
G01 X18.7416 Y35.6292 
G01 X18.7442 Y35.6093 
G01 X18.7442 Y35.5892 
G01 X18.7494 Y35.5699 
G01 X18.7520 Y35.5500 
G01 X18.7597 Y35.5314 
G01 X18.7649 Y35.5120 
G01 X18.7749 Y35.4947 
G01 X18.7826 Y35.4761 
G01 X18.7948 Y35.4602 
G01 X18.8048 Y35.4428 
G01 X18.8190 Y35.4286 
G01 X18.8312 Y35.4127 
G01 X18.8472 Y35.4005 
G01 X24.8060 Y29.4417 
G01 X24.8752 Y29.4017 
G01 X24.9524 Y29.3810 
G01 X29.0937 Y29.3810 
G01 X29.1709 Y29.4017 
G01 X29.2401 Y29.4417 
G01 X29.2966 Y29.4982 
G01 X29.3366 Y29.5674 
G01 X29.3573 Y29.6446 
G01 X29.3573 Y29.7169 
G01 X29.3630 Y29.7307 
G01 X29.3676 Y29.7655 
G01 X29.3735 Y29.8100 
G01 X29.3677 Y29.8536 
G01 X29.3630 Y29.8892 
G01 X29.3573 Y29.9031 
G01 X29.3573 Y29.9184 
G01 X29.3366 Y29.9956 
G01 X29.2966 Y30.0648 
G01 X29.2401 Y30.1213 
G01 X29.1709 Y30.1613 
G01 X29.0937 Y30.1820 
G01 X28.4652 Y30.1820 
G01 X28.2623 Y30.2660 
G01 X28.0361 Y30.4923 
G01 X27.0910 Y31.4373 
G01 X27.0070 Y31.6402 
G01 X27.0070 Y32.0706 
G01 X26.9863 Y32.1478 
G01 X26.9463 Y32.2170 
G01 X26.8898 Y32.2735 
G01 X22.0570 Y37.1063 
G01 X21.9878 Y37.1463 
G01 X21.9106 Y37.1670 
G01 X20.3372 Y37.1670 
G01 X20.1343 Y37.2510 
G01 X19.9646 Y37.4207 
G01 X19.9081 Y37.4773 
G01 X14.5180 Y42.8673 
G01 X14.4340 Y43.0702 
G01 X14.4340 Y45.0678 
G01 X14.5180 Y45.2707 
G01 X14.6877 Y45.4404 
G01 X14.7443 Y45.4969 
G01 X15.6466 Y46.3992 
G01 X15.8163 Y46.5690 
G01 X16.0192 Y46.6530 
G01 X16.7036 Y46.6530 
G01 X16.7808 Y46.6737 
G01 X16.8500 Y46.7137 
G01 X16.9065 Y46.7702 
G01 X16.9593 Y46.8230 
G01 X17.1622 Y46.9070 
G01 X17.6383 Y46.9070 
G01 X17.7155 Y46.9277 
G01 X17.7847 Y46.9677 
G01 X17.8412 Y47.0242 
G01 X17.8812 Y47.0934 
G01 X17.9019 Y47.1706 
G01 X17.9019 Y47.2356 
G01 X18.0594 Y47.6159 
G01 X18.3504 Y47.9069 
G01 X18.6588 Y48.0346 
G01 X18.6744 Y48.0466 
G01 X18.7222 Y48.0833 
G01 X18.7702 Y48.1459 
G01 X18.8015 Y48.2206 
G01 X18.8119 Y48.2998 
G01 X18.8108 Y48.3083 
G01 X18.8015 Y48.3791 
G01 X18.7709 Y48.4529 
G01 X18.7589 Y48.4686 
G01 X18.7222 Y48.5164 
G01 X18.6597 Y48.5644 
G01 X18.6516 Y48.5680 
G01 X18.3505 Y48.6927 
G01 X18.0594 Y48.9838 
G01 X17.9019 Y49.3640 
G01 X17.9019 Y49.7756 
G01 X18.0594 Y50.1559 
G01 X18.3504 Y50.4469 
G01 X18.4388 Y50.4835 
G01 X18.4582 Y50.4887 
G01 X18.4756 Y50.4988 
G01 X18.4941 Y50.5064 
G01 X18.5101 Y50.5187 
G01 X18.5274 Y50.5287 
G01 X18.5416 Y50.5429 
G01 X18.5576 Y50.5551 
G01 X18.5698 Y50.5710 
G01 X18.5840 Y50.5852 
G01 X18.5940 Y50.6026 
G01 X18.6062 Y50.6185 
G01 X18.6139 Y50.6371 
G01 X18.6239 Y50.6545 
G01 X18.6291 Y50.6738 
G01 X18.6368 Y50.6924 
G01 X18.6394 Y50.7123 
G01 X18.6446 Y50.7317 
G01 X18.6446 Y50.7517 
G01 X18.6472 Y50.7716 
G01 X18.6446 Y50.7915 
G01 X18.6446 Y50.8116 
G01 X18.6394 Y50.8310 
G01 X18.6368 Y50.8509 
G01 X18.6291 Y50.8695 
G01 X18.6239 Y50.8888 
G01 X18.6139 Y50.9062 
G01 X18.6062 Y50.9248 
G01 X18.5940 Y50.9407 
G01 X18.5840 Y50.9581 
G01 X18.5698 Y50.9722 
G01 X18.5576 Y50.9882 
G01 X18.5416 Y51.0004 
G01 X18.5274 Y51.0146 
G01 X18.5101 Y51.0246 
G01 X18.4941 Y51.0368 
G01 X18.4756 Y51.0445 
G01 X18.4582 Y51.0545 
G01 X18.4388 Y51.0597 
G01 X18.4203 Y51.0674 
G01 X18.4004 Y51.0700 
G01 X18.3810 Y51.0752 
G01 X18.3609 Y51.0752 
G01 X18.3410 Y51.0779 
G01 X18.3211 Y51.0752 
G01 X18.2220 Y51.0752 
G01 X18.0752 Y51.1361 
G01 X17.9627 Y51.2485 
G01 X17.8913 Y51.4210 
G01 X17.8812 Y51.4586 
G01 X17.8412 Y51.5278 
G01 X17.7847 Y51.5843 
G01 X17.7155 Y51.6243 
G01 X17.6383 Y51.6450 
G01 X11.3202 Y51.6450 
G01 X11.1173 Y51.7290 
G01 X9.4966  Y53.3497 
G01 X9.4274  Y53.3897 
G01 X9.3502  Y53.4104 
G01 X8.4931  Y53.4104 
G01 X7.7904  Y54.1131 
G01 X7.7904  Y55.1069 
G01 X8.4931  Y55.8096 
G01 X9.4869  Y55.8096 
G01 X10.1896 Y55.1069 
G01 X10.1896 Y54.3038 
G01 X10.2103 Y54.2266 
G01 X10.2503 Y54.1574 
G01 X10.3068 Y54.1009 
G01 X11.5980 Y52.8097 
G01 X11.6672 Y52.7697 
G01 X11.7444 Y52.7490 
G01 X17.6480 Y52.7490 
G01 X17.6679 Y52.7464 
G01 X17.6877 Y52.7490 
G01 X17.7078 Y52.7490 
G01 X17.7272 Y52.7542 
G01 X17.7471 Y52.7568 
G01 X17.7657 Y52.7645 
G01 X17.7850 Y52.7697 
G01 X17.8024 Y52.7797 
G01 X17.8210 Y52.7874 
G01 X17.8369 Y52.7996 
G01 X17.8543 Y52.8097 
G01 X17.8685 Y52.8238 
G01 X17.8844 Y52.8361 
G01 X17.8966 Y52.8520 
G01 X17.9108 Y52.8662 
G01 X17.9208 Y52.8836 
G01 X17.9330 Y52.8995 
G01 X17.9407 Y52.9180 
G01 X17.9508 Y52.9354 
G01 X17.9560 Y52.9548 
G01 X17.9627 Y52.9712 
G01 X18.0752 Y53.0836 
G01 X18.2220 Y53.1444 
G01 X18.3211 Y53.1444 
G01 X18.3410 Y53.1418 
G01 X18.3609 Y53.1444 
G01 X18.3810 Y53.1444 
G01 X18.4004 Y53.1496 
G01 X18.4203 Y53.1523 
G01 X18.4388 Y53.1599 
G01 X18.4582 Y53.1651 
G01 X18.4756 Y53.1752 
G01 X18.4941 Y53.1828 
G01 X18.5101 Y53.1951 
G01 X18.5274 Y53.2051 
G01 X18.5416 Y53.2193 
G01 X18.5576 Y53.2315 
G01 X18.5698 Y53.2474 
G01 X18.5840 Y53.2616 
G01 X18.5940 Y53.2790 
G01 X18.6062 Y53.2949 
G01 X18.6139 Y53.3135 
G01 X18.6239 Y53.3309 
G01 X18.6291 Y53.3502 
G01 X18.6368 Y53.3688 
G01 X18.6394 Y53.3887 
G01 X18.6446 Y53.4081 
G01 X18.6446 Y53.4281 
G01 X18.6472 Y53.4480 
G01 X18.6446 Y53.4679 
G01 X18.6446 Y53.4880 
G01 X18.6394 Y53.5074 
G01 X18.6368 Y53.5273 
G01 X18.6291 Y53.5458 
G01 X18.6239 Y53.5652 
G01 X18.6139 Y53.5826 
G01 X18.6062 Y53.6012 
G01 X18.5940 Y53.6171 
G01 X18.5840 Y53.6345 
G01 X18.5698 Y53.6486 
G01 X18.5576 Y53.6646 
G01 X18.5416 Y53.6768 
G01 X18.5274 Y53.6910 
G01 X18.5101 Y53.7010 
G01 X18.4941 Y53.7132 
G01 X18.4756 Y53.7209 
G01 X18.4582 Y53.7309 
G01 X18.4388 Y53.7361 
G01 X18.3504 Y53.7728 
G01 X18.0594 Y54.0638 
G01 X17.9019 Y54.4440 
G01 X17.9019 Y54.8556 
G01 X18.0594 Y55.2359 
G01 X18.3504 Y55.5269 
G01 X18.6588 Y55.6546 
G01 X18.6744 Y55.6666 
G01 X18.7222 Y55.7033 
G01 X18.7702 Y55.7659 
G01 X18.8015 Y55.8406 
G01 X18.8119 Y55.9198 
G01 X18.8108 Y55.9283 
G01 X18.8015 Y55.9991 
G01 X18.7709 Y56.0729 
G01 X18.7589 Y56.0886 
G01 X18.7222 Y56.1364 
G01 X18.6597 Y56.1844 
G01 X18.6516 Y56.1880 
G01 X18.3505 Y56.3127 
G01 X18.0594 Y56.6038 
G01 X17.9019 Y56.9840 
G01 X17.9019 Y57.3956 
G01 X18.0594 Y57.7759 
G01 X18.3505 Y58.0669 
G01 X18.7307 Y58.2244 
G01 X19.1423 Y58.2244 
G01 X19.5226 Y58.0669 
G01 X19.8136 Y57.7759 
G01 X19.9711 Y57.3956 
G01 X19.9711 Y56.9840 
G01 X19.8136 Y56.6038 
G01 X19.5226 Y56.3127 
G01 X19.2142 Y56.1850 
G01 X19.1508 Y56.1364 
G01 X19.1128 Y56.0868 
G01 X19.1021 Y56.0729 
G01 X19.0716 Y55.9991 
G01 X19.0624 Y55.9298 
G01 X19.0611 Y55.9198 
G01 X19.0707 Y55.8473 
G01 X19.0716 Y55.8406 
G01 X19.1021 Y55.7667 
G01 X19.1508 Y55.7033 
G01 X19.2004 Y55.6653 
G01 X19.2142 Y55.6546 
G01 X19.5226 Y55.5269 
G01 X19.8268 Y55.2227 
G01 X19.8961 Y55.1827 
G01 X19.9733 Y55.1620 
G01 X21.7836 Y55.1620 
G01 X21.8608 Y55.1827 
G01 X21.9300 Y55.2227 
G01 X21.9865 Y55.2792 
G01 X29.1513 Y62.4440 
G01 X29.3542 Y62.5280 
G01 X36.0508 Y62.5280 
G01 X36.2537 Y62.4440 
G01 X36.4799 Y62.2177 
G01 X41.6160 Y57.0817 
G01 X41.7000 Y56.8788 
G01 X41.7000 Y41.1200 
G01 X41.6974 Y41.1001 
G01 X41.7000 Y41.0802 
G01 X41.7000 Y41.0602 
G01 X41.7052 Y41.0408 
G01 X41.7078 Y41.0209 
G01 X41.7155 Y41.0023 
G01 X41.7207 Y40.9830 
G01 X41.7307 Y40.9656 
G01 X41.7384 Y40.9470 
G01 X41.7506 Y40.9311 
G01 X41.7607 Y40.9137 
G01 X41.7748 Y40.8995 
G01 X41.7871 Y40.8836 
G01 X41.8030 Y40.8714 
G01 X41.8172 Y40.8572 
G01 X41.8346 Y40.8472 
G01 X41.8505 Y40.8349 
G01 X41.8690 Y40.8273 
G01 X41.8864 Y40.8172 
G01 X41.9058 Y40.8120 
G01 X42.1334 Y40.7178 
G01 X42.6228 Y40.2284 
G01 X42.8876 Y39.5890 
G01 X42.8876 Y38.8970 
G01 X42.6228 Y38.2576 
G01 X42.1334 Y37.7682 
G01 X41.4940 Y37.5034 
G01 X41.4402 Y37.5034 
G01 X41.4054 Y37.4941 
G01 X41.3630 Y37.4827 
G01 X41.3311 Y37.4643 
G01 X41.2938 Y37.4427 
G01 X41.2657 Y37.4147 
G01 X41.2373 Y37.3862 
G01 X41.2159 Y37.3493 
G01 X41.1973 Y37.3170 
G01 X41.1850 Y37.2713 
G01 X41.1766 Y37.2398 
G01 X41.1766 Y37.2000 
G01 X41.1766 Y37.1598 
G01 X41.1859 Y37.1250 
G01 X41.1973 Y37.0826 
G01 X41.2157 Y37.0507 
G01 X41.2325 Y37.0216 
G01 X41.3190 Y36.8128 
G01 X41.3190 Y36.4711 
G01 X41.3388 Y36.3972 
G01 X41.3397 Y36.3939 
G01 X41.3797 Y36.3247 
G01 X41.4362 Y36.2682 
G01 X41.5054 Y36.2282 
G01 X41.5826 Y36.2075 
G01 X41.6626 Y36.2075 
G01 X41.7365 Y36.2273 
G01 X41.7398 Y36.2282 
G01 X41.8090 Y36.2682 
G01 X41.8655 Y36.3247 
G01 X42.1946 Y36.6538 
G01 X42.8340 Y36.9186 
G01 X43.5260 Y36.9186 
G01 X44.1654 Y36.6538 
G01 X44.6548 Y36.1644 
G01 X44.9196 Y35.5250 
G01 X44.9196 Y34.8330 
G01 X44.6548 Y34.1936 
G01 X44.1654 Y33.7042 
G01 X43.5260 Y33.4394 
G01 X42.8340 Y33.4394 
G01 X42.6064 Y33.5337 
G01 X42.5890 Y33.5437 
G01 X42.5696 Y33.5489 
G01 X42.5511 Y33.5566 
G01 X42.5312 Y33.5592 
G01 X42.5118 Y33.5644 
G01 X42.4917 Y33.5644 
G01 X42.4718 Y33.5670 
G01 X42.4519 Y33.5644 
G01 X42.4318 Y33.5644 
G01 X42.4124 Y33.5592 
G01 X42.3925 Y33.5566 
G01 X42.3740 Y33.5489 
G01 X42.3546 Y33.5437 
G01 X42.3372 Y33.5337 
G01 X42.3187 Y33.5260 
G01 X42.3028 Y33.5138 
G01 X42.2854 Y33.5037 
G01 X42.2712 Y33.4896 
G01 X42.2553 Y33.4773 
G01 X42.2430 Y33.4614 
G01 X40.0943 Y31.3126 
G01 X40.0543 Y31.2434 
G01 X40.0336 Y31.1662 
G01 X40.0336 Y31.0862 
G01 X40.0543 Y31.0090 
G01 X40.0943 Y30.9398 
G01 X40.1508 Y30.8833 
G01 X40.2200 Y30.8433 
G01 X40.2972 Y30.8226 
G01 X40.4780 Y30.8226 
G01 X41.1174 Y30.5578 
G01 X41.6068 Y30.0684 
G01 X41.8716 Y29.4290 
G01 X41.8716 Y28.7370 
G01 X41.6068 Y28.0976 
G01 X41.1174 Y27.6082 
G01 X40.4780 Y27.3434 
G01 X40.2972 Y27.3434 
G01 X40.2200 Y27.3227 
G01 X40.1508 Y27.2827 
G01 X40.0943 Y27.2262 
G01 X40.0543 Y27.1570 
G01 X40.0336 Y27.0798 
G01 X40.0336 Y26.9998 
G01 X40.0543 Y26.9226 
G01 X40.0943 Y26.8534 
G01 X40.1508 Y26.7969 
G01 X41.4890 Y25.4587 
G01 X41.5730 Y25.2558 
G01 X41.5730 Y24.9910 
G01 X41.5704 Y24.9711 
G01 X41.5730 Y24.9512 
G01 X41.5730 Y24.9312 
G01 X41.5782 Y24.9118 
G01 X41.5808 Y24.8919 
G01 X41.5885 Y24.8733 
G01 X41.5937 Y24.8540 
G01 X41.6037 Y24.8366 
G01 X41.6114 Y24.8180 
G01 X41.6236 Y24.8021 
G01 X41.6337 Y24.7847 
G01 X41.6478 Y24.7705 
G01 X41.6601 Y24.7546 
G01 X41.6760 Y24.7424 
G01 X41.6902 Y24.7282 
G01 X41.7076 Y24.7182 
G01 X41.7235 Y24.7059 
G01 X41.7420 Y24.6983 
G01 X41.7594 Y24.6882 
G01 X41.7788 Y24.6830 
G01 X42.0064 Y24.5888 
G01 X42.4958 Y24.0994 
G01 X42.7606 Y23.4600 
G01 X42.7606 Y22.7680 
G01 X42.4958 Y22.1286 
G01 X42.0064 Y21.6392 
G01 X41.3670 Y21.3744 
G01 X41.3132 Y21.3744 
G01 X41.2360 Y21.3537 
G01 X41.1668 Y21.3137 
G01 X41.1103 Y21.2572 
G01 X41.0703 Y21.1880 
G01 X41.0496 Y21.1108 
G01 X41.0496 Y21.0308 
G01 X41.0703 Y20.9536 
G01 X41.1103 Y20.8844 
G01 X41.1668 Y20.8279 
G01 X42.5892 Y19.4054 
G01 X42.7590 Y19.2357 
G01 X42.8430 Y19.0328 
G01 X42.8430 Y11.1480 
G01 X42.8404 Y11.1281 
G01 X42.8430 Y11.1082 
G01 X42.8430 Y11.0882 
G01 X42.8482 Y11.0688 
G01 X42.8508 Y11.0489 
G01 X42.8585 Y11.0303 
G01 X42.8637 Y11.0110 
G01 X42.8737 Y10.9936 
G01 X42.8814 Y10.9750 
G01 X42.8936 Y10.9591 
G01 X42.9037 Y10.9417 
G01 X42.9178 Y10.9275 
G01 X42.9301 Y10.9116 
G01 X42.9460 Y10.8994 
G01 X42.9602 Y10.8852 
G01 X42.9776 Y10.8752 
G01 X42.9935 Y10.8629 
G01 X43.0120 Y10.8553 
G01 X43.0294 Y10.8452 
G01 X43.0488 Y10.8400 
G01 X43.2764 Y10.7458 
G01 X43.7658 Y10.2564 
G01 X44.0306 Y9.6170  
G01 X44.0306 Y8.9250  
G01 X43.7658 Y8.2856  
G01 X43.2764 Y7.7962  
G01 X42.6370 Y7.5314  
G01 X41.9450 Y7.5314  
G01 X41.3056 Y7.7962  
G01 X41.3010 Y7.8008  
G01 X41.2478 Y7.8315  
G01 X41.2318 Y7.8408  
G01 X41.1799 Y7.8547  
G01 X41.1546 Y7.8615  
G01 X41.0992 Y7.8615  
G01 X41.0747 Y7.8615  
G01 X41.0151 Y7.8455  
G01 X40.9974 Y7.8408  
G01 X40.9521 Y7.8147  
G01 X40.9282 Y7.8008  
G01 X40.8845 Y7.7572  
G01 X40.8717 Y7.7443  
G01 X40.8409 Y7.6911  
G01 X40.8317 Y7.6751  
G01 X40.8178 Y7.6232  
G01 X40.8110 Y7.5979  
G01 X40.8110 Y7.5425  
G01 X40.8110 Y7.5179  
G01 X40.8110 Y7.1292  
G01 X40.7270 Y6.9263  
G01 X39.3444 Y5.5438  
G01 X39.1747 Y5.3740  
G01 X38.9718 Y5.2900  
G01 X24.2742 Y5.2900  
G01 X24.0713 Y5.3740  
G01 X22.1808 Y7.2646  
G01 X22.0110 Y7.4343  
G01 X21.9270 Y7.6372  
G01 X21.9270 Y18.3160 
G01 X21.9296 Y18.3359 
G00 Z2.0000  
G00 X19.8343 Y49.7828 
G01 Z-0.1000 F100   
G01 X19.6440 Y49.7828 F250   
G01 X19.6436 Y49.7844 
G01 X19.5882 Y49.9182 
G01 X19.5077 Y50.0386 
G01 X19.4053 Y50.1411 
G01 X19.2849 Y50.2215 
G01 X19.1510 Y50.2770 
G01 X19.0089 Y50.3052 
G01 X18.8641 Y50.3052 
G01 X18.7220 Y50.2770 
G01 X18.5882 Y50.2215 
G01 X18.4677 Y50.1411 
G01 X18.3653 Y50.0386 
G01 X18.2848 Y49.9182 
G01 X18.2294 Y49.7844 
G01 X18.2011 Y49.6423 
G01 X18.2011 Y49.4974 
G01 X18.2294 Y49.3553 
G01 X18.2848 Y49.2215 
G01 X18.3653 Y49.1011 
G01 X18.4677 Y48.9986 
G01 X18.5882 Y48.9181 
G01 X18.7220 Y48.8627 
G01 X18.8641 Y48.8344 
G01 X19.0089 Y48.8344 
G01 X19.1510 Y48.8627 
G01 X19.2849 Y48.9181 
G01 X19.4053 Y48.9986 
G01 X19.5077 Y49.1011 
G01 X19.5882 Y49.2215 
G01 X19.6113 Y49.2772 
G01 X19.9893 Y49.2772 
G01 X20.0822 Y49.3157 
G01 X20.1533 Y49.3868 
G01 X28.2383 Y57.4718 
G01 X28.2566 Y57.4596 
G01 X28.4277 Y57.3887 
G01 X28.6094 Y57.3526 
G01 X28.7946 Y57.3526 
G01 X28.9763 Y57.3887 
G01 X29.1474 Y57.4596 
G01 X29.3015 Y57.5625 
G01 X29.4325 Y57.6935 
G01 X29.5354 Y57.8476 
G01 X29.6063 Y58.0187 
G01 X29.6424 Y58.2004 
G01 X29.6424 Y58.3856 
G01 X29.6063 Y58.5673 
G01 X29.5354 Y58.7384 
G01 X29.4325 Y58.8925 
G01 X29.3015 Y59.0235 
G01 X29.1474 Y59.1264 
G01 X28.9763 Y59.1973 
G01 X28.7946 Y59.2334 
G01 X28.6094 Y59.2334 
G01 X28.4277 Y59.1973 
G01 X28.2566 Y59.1264 
G01 X28.1025 Y59.0235 
G01 X27.9715 Y58.8925 
G01 X27.8686 Y58.7384 
G01 X27.7977 Y58.5673 
G01 X27.7616 Y58.3856 
G01 X27.7616 Y58.2004 
G01 X27.7977 Y58.0187 
G01 X27.8686 Y57.8476 
G01 X27.8808 Y57.8293 
G01 X19.8343 Y49.7828 
G00 Z2.0000  
G00 X22.5683 Y22.4226 
G01 Z-0.1000 F100   
G01 X22.5283 Y22.3534 F250   
G01 X22.5076 Y22.2762 
G01 X22.5076 Y22.1962 
G01 X22.5283 Y22.1190 
G01 X22.5683 Y22.0498 
G01 X22.6248 Y21.9933 
G01 X22.6940 Y21.9533 
G01 X22.7712 Y21.9326 
G01 X22.8250 Y21.9326 
G01 X23.4644 Y21.6678 
G01 X23.9538 Y21.1784 
G01 X24.2186 Y20.5390 
G01 X24.2186 Y19.8470 
G01 X23.9538 Y19.2076 
G01 X23.4644 Y18.7182 
G01 X23.2368 Y18.6240 
G01 X23.2174 Y18.6188 
G01 X23.2000 Y18.6087 
G01 X23.1815 Y18.6011 
G01 X23.1656 Y18.5888 
G01 X23.1482 Y18.5788 
G01 X23.1340 Y18.5646 
G01 X23.1181 Y18.5524 
G01 X23.1058 Y18.5365 
G01 X23.0917 Y18.5223 
G01 X23.0816 Y18.5049 
G01 X23.0694 Y18.4890 
G01 X23.0617 Y18.4704 
G01 X23.0517 Y18.4530 
G01 X23.0465 Y18.4337 
G01 X23.0388 Y18.4151 
G01 X23.0362 Y18.3952 
G01 X23.0310 Y18.3758 
G01 X23.0310 Y18.3558 
G01 X23.0284 Y18.3359 
G01 X23.0310 Y18.3160 
G01 X23.0310 Y8.0614  
G01 X23.0517 Y7.9842  
G01 X23.0917 Y7.9150  
G01 X23.1028 Y7.9039  
G01 X23.7590 Y7.2476  
G01 X23.7685 Y7.2346  
G01 X23.7872 Y7.2195  
G01 X23.8042 Y7.2025  
G01 X23.8181 Y7.1944  
G01 X23.8306 Y7.1843  
G01 X23.8526 Y7.1745  
G01 X23.8727 Y7.1629  
G01 X23.8843 Y7.1428  
G01 X23.8941 Y7.1208  
G01 X23.9042 Y7.1083  
G01 X23.9123 Y7.0944  
G01 X23.9293 Y7.0774  
G01 X23.9444 Y7.0587  
G01 X23.9574 Y7.0492  
G01 X24.5520 Y6.4547  
G01 X24.6212 Y6.4147  
G01 X24.6984 Y6.3940  
G01 X38.5476 Y6.3940  
G01 X38.6248 Y6.4147  
G01 X38.6940 Y6.4547  
G01 X38.7505 Y6.5112  
G01 X39.6463 Y7.4070  
G01 X39.6863 Y7.4762  
G01 X39.7070 Y7.5534  
G01 X39.7070 Y8.0066  
G01 X39.7092 Y8.0234  
G01 X39.7070 Y8.0402  
G01 X39.7070 Y10.5398 
G01 X39.7092 Y10.5566 
G01 X39.7070 Y10.5734 
G01 X39.7070 Y14.8369 
G01 X39.6872 Y14.9108 
G01 X39.6863 Y14.9141 
G01 X39.6463 Y14.9833 
G01 X39.5898 Y15.0398 
G01 X39.5206 Y15.0798 
G01 X39.4434 Y15.1005 
G01 X39.3634 Y15.1005 
G01 X39.2895 Y15.0807 
G01 X39.2862 Y15.0798 
G01 X39.2170 Y15.0398 
G01 X39.1605 Y14.9833 
G01 X38.8314 Y14.6542 
G01 X38.1920 Y14.3894 
G01 X37.5000 Y14.3894 
G01 X37.2724 Y14.4837 
G01 X37.2550 Y14.4937 
G01 X37.2356 Y14.4989 
G01 X37.2171 Y14.5066 
G01 X37.1972 Y14.5092 
G01 X37.1778 Y14.5144 
G01 X37.1577 Y14.5144 
G01 X37.1378 Y14.5170 
G01 X37.1179 Y14.5144 
G01 X37.0978 Y14.5144 
G01 X37.0784 Y14.5092 
G01 X37.0585 Y14.5066 
G01 X37.0400 Y14.4989 
G01 X37.0206 Y14.4937 
G01 X37.0032 Y14.4837 
G01 X36.9847 Y14.4760 
G01 X36.9688 Y14.4638 
G01 X36.9514 Y14.4537 
G01 X36.9372 Y14.4396 
G01 X36.9213 Y14.4273 
G01 X36.9090 Y14.4114 
G01 X34.5332 Y12.0355 
G01 X34.5172 Y12.0233 
G01 X34.5050 Y12.0074 
G01 X34.4908 Y11.9932 
G01 X34.4808 Y11.9758 
G01 X34.4686 Y11.9599 
G01 X34.4609 Y11.9413 
G01 X34.4508 Y11.9239 
G01 X34.4457 Y11.9046 
G01 X34.4380 Y11.8860 
G01 X34.4354 Y11.8661 
G01 X34.4302 Y11.8467 
G01 X34.4302 Y11.8266 
G01 X34.4275 Y11.8068 
G01 X34.4302 Y11.7869 
G01 X34.4302 Y11.7668 
G01 X34.4354 Y11.7474 
G01 X34.4380 Y11.7275 
G01 X34.4457 Y11.7090 
G01 X34.4508 Y11.6896 
G01 X34.4609 Y11.6722 
G01 X34.4686 Y11.6536 
G01 X34.4808 Y11.6377 
G01 X34.4908 Y11.6203 
G01 X34.5050 Y11.6062 
G01 X34.5172 Y11.5902 
G01 X34.5332 Y11.5780 
G01 X34.5473 Y11.5638 
G01 X34.5647 Y11.5538 
G01 X34.5806 Y11.5416 
G01 X34.5992 Y11.5339 
G01 X34.6166 Y11.5239 
G01 X34.6360 Y11.5187 
G01 X34.6545 Y11.5110 
G01 X34.6744 Y11.5084 
G01 X34.6938 Y11.5032 
G01 X34.7139 Y11.5032 
G01 X34.7338 Y11.5005 
G01 X34.7536 Y11.5032 
G01 X34.7737 Y11.5032 
G01 X34.7931 Y11.5084 
G01 X34.8130 Y11.5110 
G01 X34.8316 Y11.5187 
G01 X34.8509 Y11.5239 
G01 X34.8683 Y11.5339 
G01 X34.9536 Y11.5692 
G01 X35.4864 Y11.5692 
G01 X35.9787 Y11.3653 
G01 X36.2471 Y11.0969 
G01 X36.2974 Y11.0466 
G01 X36.3036 Y11.0404 
G01 X36.3728 Y11.0004 
G01 X36.4500 Y10.9798 
G01 X36.5300 Y10.9798 
G01 X36.5333 Y10.9806 
G01 X36.6072 Y11.0004 
G01 X36.6749 Y11.0395 
G01 X36.7329 Y11.0969 
G01 X37.0013 Y11.3653 
G01 X37.4936 Y11.5692 
G01 X38.0264 Y11.5692 
G01 X38.5187 Y11.3653 
G01 X38.8955 Y10.9885 
G01 X39.0994 Y10.4962 
G01 X39.0994 Y8.0838  
G01 X38.8955 Y7.5915  
G01 X38.5187 Y7.2147  
G01 X38.0264 Y7.0108  
G01 X37.4936 Y7.0108  
G01 X37.0013 Y7.2147  
G01 X36.6764 Y7.5396  
G01 X36.6072 Y7.5796  
G01 X36.5300 Y7.6002  
G01 X36.4500 Y7.6002  
G01 X36.3761 Y7.5804  
G01 X36.3728 Y7.5796  
G01 X36.3036 Y7.5396  
G01 X36.2471 Y7.4831  
G01 X35.9787 Y7.2147  
G01 X35.4864 Y7.0108  
G01 X34.9536 Y7.0108  
G01 X34.4613 Y7.2147  
G01 X34.1364 Y7.5396  
G01 X34.0672 Y7.5796  
G01 X33.9900 Y7.6002  
G01 X33.9100 Y7.6002  
G01 X33.8361 Y7.5804  
G01 X33.8328 Y7.5796  
G01 X33.7636 Y7.5396  
G01 X33.7071 Y7.4831  
G01 X33.4387 Y7.2147  
G01 X32.9464 Y7.0108  
G01 X32.4136 Y7.0108  
G01 X31.9213 Y7.2147  
G01 X31.5964 Y7.5396  
G01 X31.5272 Y7.5796  
G01 X31.4500 Y7.6002  
G01 X31.3700 Y7.6002  
G01 X31.2961 Y7.5804  
G01 X31.2928 Y7.5796  
G01 X31.2236 Y7.5396  
G01 X31.1671 Y7.4831  
G01 X30.8987 Y7.2147  
G01 X30.4064 Y7.0108  
G01 X29.8736 Y7.0108  
G01 X29.3813 Y7.2147  
G01 X29.0564 Y7.5396  
G01 X28.9872 Y7.5796  
G01 X28.9100 Y7.6002  
G01 X28.8300 Y7.6002  
G01 X28.7561 Y7.5804  
G01 X28.7528 Y7.5796  
G01 X28.6836 Y7.5396  
G01 X28.6271 Y7.4831  
G01 X28.3587 Y7.2147  
G01 X27.8664 Y7.0108  
G01 X27.3336 Y7.0108  
G01 X26.8413 Y7.2147  
G01 X26.4658 Y7.5902  
G01 X26.4510 Y7.6240  
G01 X26.4373 Y7.6572  
G01 X26.4348 Y7.6604  
G01 X26.4332 Y7.6641  
G01 X26.4105 Y7.6921  
G01 X26.3886 Y7.7207  
G01 X26.3854 Y7.7231  
G01 X26.3829 Y7.7263  
G01 X26.3537 Y7.7475  
G01 X26.3252 Y7.7693  
G01 X26.3215 Y7.7709  
G01 X26.3182 Y7.7732  
G01 X26.2845 Y7.7862  
G01 X26.2513 Y7.7999  
G01 X26.2473 Y7.8004  
G01 X26.2436 Y7.8019  
G01 X26.2077 Y7.8057  
G01 X26.1721 Y7.8104  
G01 X26.1681 Y7.8098  
G01 X26.1641 Y7.8102  
G01 X26.1285 Y7.8046  
G01 X26.0928 Y7.7999  
G01 X26.0891 Y7.7984  
G01 X26.0851 Y7.7977  
G01 X26.0522 Y7.7831  
G01 X26.0190 Y7.7693  
G01 X26.0158 Y7.7669  
G01 X26.0121 Y7.7652  
G01 X25.9841 Y7.7426  
G01 X25.9556 Y7.7207  
G01 X25.9531 Y7.7175  
G01 X25.9500 Y7.7149  
G01 X25.9288 Y7.6857  
G01 X25.9069 Y7.6572  
G01 X25.9054 Y7.6535  
G01 X25.8940 Y7.6379  
G01 X25.7723 Y7.5162  
G01 X25.6331 Y7.4150  
G01 X25.4797 Y7.3369  
G01 X25.4398 Y7.3239  
G01 X25.4398 Y7.3799  
G01 X25.4593 Y7.3862  
G01 X25.6052 Y7.4605  
G01 X25.7376 Y7.5568  
G01 X25.8534 Y7.6726  
G01 X25.9497 Y7.8050  
G01 X26.0240 Y7.9509  
G01 X26.0746 Y8.1066  
G01 X26.1002 Y8.2683  
G01 X26.1002 Y10.3117 
G01 X26.0746 Y10.4734 
G01 X26.0240 Y10.6291 
G01 X25.9497 Y10.7750 
G01 X25.8534 Y10.9074 
G01 X25.7376 Y11.0232 
G01 X25.6052 Y11.1195 
G01 X25.4593 Y11.1938 
G01 X25.4398 Y11.2001 
G01 X25.4398 Y11.2561 
G01 X25.4797 Y11.2431 
G01 X25.6331 Y11.1650 
G01 X25.7723 Y11.0638 
G01 X25.8940 Y10.9421 
G01 X25.9054 Y10.9265 
G01 X25.9069 Y10.9227 
G01 X25.9288 Y10.8943 
G01 X25.9500 Y10.8651 
G01 X25.9531 Y10.8625 
G01 X25.9556 Y10.8593 
G01 X25.9841 Y10.8374 
G01 X26.0121 Y10.8148 
G01 X26.0158 Y10.8131 
G01 X26.0190 Y10.8107 
G01 X26.0522 Y10.7969 
G01 X26.0851 Y10.7823 
G01 X26.0891 Y10.7816 
G01 X26.0928 Y10.7801 
G01 X26.1285 Y10.7754 
G01 X26.1641 Y10.7697 
G01 X26.1681 Y10.7702 
G01 X26.1721 Y10.7696 
G01 X26.2077 Y10.7743 
G01 X26.2436 Y10.7781 
G01 X26.2473 Y10.7796 
G01 X26.2513 Y10.7801 
G01 X26.2845 Y10.7938 
G01 X26.3182 Y10.8068 
G01 X26.3215 Y10.8091 
G01 X26.3252 Y10.8107 
G01 X26.3537 Y10.8325 
G01 X26.3829 Y10.8537 
G01 X26.3854 Y10.8569 
G01 X26.3886 Y10.8593 
G01 X26.4105 Y10.8879 
G01 X26.4332 Y10.9159 
G01 X26.4348 Y10.9196 
G01 X26.4373 Y10.9228 
G01 X26.4510 Y10.9560 
G01 X26.4657 Y10.9889 
G01 X26.8413 Y11.3653 
G01 X26.8565 Y11.3716 
G01 X26.8724 Y11.3838 
G01 X26.8898 Y11.3938 
G01 X26.9040 Y11.4080 
G01 X26.9199 Y11.4203 
G01 X26.9321 Y11.4362 
G01 X26.9463 Y11.4504 
G01 X26.9564 Y11.4678 
G01 X26.9686 Y11.4837 
G01 X26.9763 Y11.5022 
G01 X26.9863 Y11.5196 
G01 X26.9915 Y11.5390 
G01 X26.9992 Y11.5575 
G01 X27.0018 Y11.5774 
G01 X27.0070 Y11.5968 
G01 X27.0070 Y11.6169 
G01 X27.0096 Y11.6368 
G01 X27.0070 Y11.6567 
G01 X27.0070 Y26.1684 
G01 X26.9863 Y26.2456 
G01 X26.9463 Y26.3148 
G01 X26.8898 Y26.3713 
G01 X26.8206 Y26.4113 
G01 X26.7434 Y26.4320 
G01 X26.6634 Y26.4320 
G01 X26.5862 Y26.4113 
G01 X26.5170 Y26.3713 
G01 X26.4605 Y26.3148 
G01 X22.5683 Y22.4226 
G00 Z2.0000  
G00 X29.7369 Y32.4822 
G01 Z-0.1000 F100   
G01 X30.2416 Y32.4822 F250   
G01 X30.2812 Y32.4789 
G01 X30.2916 Y32.4822 
G01 X30.7675 Y32.4822 
G01 X30.8044 Y32.4975 
G01 X30.8326 Y32.5257 
G01 X30.8479 Y32.5626 
G01 X30.8479 Y32.9074 
G01 X30.8326 Y32.9443 
G01 X30.8044 Y32.9725 
G01 X30.7675 Y32.9878 
G01 X30.4788 Y32.9878 
G01 X30.4788 Y40.0553 
G01 X30.4403 Y40.1482 
G01 X28.2813 Y42.3072 
G01 X28.2102 Y42.3783 
G01 X28.1173 Y42.4168 
G01 X26.2387 Y42.4168 
G01 X26.1458 Y42.3783 
G01 X25.0028 Y41.2353 
G01 X24.9317 Y41.1642 
G01 X24.8932 Y41.0713 
G01 X24.8932 Y40.2367 
G01 X23.8983 Y39.2418 
G01 X22.3297 Y39.2418 
G01 X21.3348 Y40.2367 
G01 X21.3348 Y42.4403 
G01 X23.0032 Y44.1087 
G01 X23.0743 Y44.1798 
G01 X23.1128 Y44.2727 
G01 X23.1128 Y44.7263 
G01 X25.6758 Y47.2893 
G01 X25.6895 Y47.2755 
G01 X25.8436 Y47.1726 
G01 X26.0147 Y47.1017 
G01 X26.1964 Y47.0656 
G01 X26.3816 Y47.0656 
G01 X26.5633 Y47.1017 
G01 X26.7344 Y47.1726 
G01 X26.8885 Y47.2755 
G01 X27.0195 Y47.4065 
G01 X27.1224 Y47.5606 
G01 X27.1933 Y47.7317 
G01 X27.2294 Y47.9134 
G01 X27.2294 Y48.0986 
G01 X27.1933 Y48.2803 
G01 X27.1224 Y48.4514 
G01 X27.0195 Y48.6055 
G01 X26.8885 Y48.7365 
G01 X26.7344 Y48.8394 
G01 X26.5633 Y48.9103 
G01 X26.3816 Y48.9464 
G01 X26.1964 Y48.9464 
G01 X26.0147 Y48.9103 
G01 X25.8436 Y48.8394 
G01 X25.6895 Y48.7365 
G01 X25.5585 Y48.6055 
G01 X25.4556 Y48.4514 
G01 X25.3847 Y48.2803 
G01 X25.3486 Y48.0986 
G01 X25.3486 Y47.9134 
G01 X25.3847 Y47.7317 
G01 X25.3901 Y47.7187 
G01 X22.6457 Y44.9742 
G01 X22.6072 Y44.8813 
G01 X22.6072 Y44.4277 
G01 X20.8677 Y42.6882 
G01 X20.8292 Y42.5953 
G01 X20.8292 Y40.0817 
G01 X20.8677 Y39.9888 
G01 X20.9388 Y39.9177 
G01 X22.0818 Y38.7747 
G01 X22.1747 Y38.7362 
G01 X24.0533 Y38.7362 
G01 X24.1462 Y38.7747 
G01 X24.2173 Y38.8458 
G01 X25.3603 Y39.9888 
G01 X25.3988 Y40.0817 
G01 X25.3988 Y40.9163 
G01 X26.3937 Y41.9112 
G01 X27.9623 Y41.9112 
G01 X29.9732 Y39.9003 
G01 X29.9732 Y32.9878 
G01 X29.7369 Y32.9878 
G01 X29.7000 Y32.9725 
G01 X29.6718 Y32.9443 
G01 X29.6565 Y32.9074 
G01 X29.6565 Y32.5626 
G01 X29.6718 Y32.5257 
G01 X29.7000 Y32.4975 
G01 X29.7369 Y32.4822 
G00 Z2.0000  
G00 X29.7369 Y31.8322 
G01 Z-0.1000 F100   
G01 X30.2182 Y31.8322 F250   
G01 X30.2338 Y31.8279 
G01 X30.2680 Y31.8322 
G01 X30.7675 Y31.8322 
G01 X30.8044 Y31.8475 
G01 X30.8326 Y31.8757 
G01 X30.8479 Y31.9126 
G01 X30.8479 Y32.2574 
G01 X30.8326 Y32.2943 
G01 X30.8044 Y32.3225 
G01 X30.7675 Y32.3378 
G01 X30.3767 Y32.3378 
G01 X30.3692 Y32.3453 
G01 X30.3542 Y32.3515 
G01 X30.3414 Y32.3615 
G01 X30.3081 Y32.3706 
G01 X30.2763 Y32.3838 
G01 X30.2600 Y32.3838 
G01 X30.2444 Y32.3881 
G01 X30.2102 Y32.3838 
G01 X29.6957 Y32.3838 
G01 X27.4308 Y34.6487 
G01 X27.4308 Y39.2235 
G01 X27.4523 Y39.2277 
G01 X27.6234 Y39.2986 
G01 X27.7775 Y39.4015 
G01 X27.9085 Y39.5325 
G01 X28.0114 Y39.6866 
G01 X28.0823 Y39.8577 
G01 X28.1184 Y40.0394 
G01 X28.1184 Y40.2246 
G01 X28.0823 Y40.4063 
G01 X28.0114 Y40.5774 
G01 X27.9085 Y40.7315 
G01 X27.7775 Y40.8625 
G01 X27.6234 Y40.9654 
G01 X27.4523 Y41.0363 
G01 X27.2706 Y41.0724 
G01 X27.0854 Y41.0724 
G01 X26.9037 Y41.0363 
G01 X26.7326 Y40.9654 
G01 X26.5785 Y40.8625 
G01 X26.4475 Y40.7315 
G01 X26.3446 Y40.5774 
G01 X26.2737 Y40.4063 
G01 X26.2376 Y40.2246 
G01 X26.2376 Y40.0394 
G01 X26.2737 Y39.8577 
G01 X26.3446 Y39.6866 
G01 X26.4475 Y39.5325 
G01 X26.5785 Y39.4015 
G01 X26.7326 Y39.2986 
G01 X26.9037 Y39.2277 
G01 X26.9252 Y39.2235 
G01 X26.9252 Y34.4937 
G01 X26.9637 Y34.4008 
G01 X27.0348 Y34.3297 
G01 X29.4478 Y31.9167 
G01 X29.5407 Y31.8782 
G01 X29.6708 Y31.8782 
G01 X29.7000 Y31.8475 
G01 X29.7369 Y31.8322 
G00 Z2.0000  
G00 X29.7369 Y31.1822 
G01 Z-0.1000 F100   
G01 X30.2036 Y31.1822 F250   
G01 X30.2052 Y31.1816 
G01 X30.2538 Y31.1822 
G01 X30.7675 Y31.1822 
G01 X30.8044 Y31.1975 
G01 X30.8326 Y31.2257 
G01 X30.8479 Y31.2626 
G01 X30.8479 Y31.6074 
G01 X30.8326 Y31.6443 
G01 X30.8044 Y31.6725 
G01 X30.7675 Y31.6878 
G01 X30.3917 Y31.6878 
G01 X30.3692 Y31.7103 
G01 X30.3664 Y31.7122 
G01 X30.3211 Y31.7302 
G01 X30.2763 Y31.7488 
G01 X30.2730 Y31.7494 
G01 X30.2244 Y31.7488 
G01 X28.8067 Y31.7488 
G01 X28.4468 Y32.1087 
G01 X28.4468 Y32.6893 
G01 X28.4083 Y32.7822 
G01 X22.6933 Y38.4972 
G01 X22.6222 Y38.5683 
G01 X22.5293 Y38.6068 
G01 X22.0757 Y38.6068 
G01 X17.4517 Y43.2308 
G01 X17.4634 Y43.2356 
G01 X17.6175 Y43.3385 
G01 X17.7485 Y43.4695 
G01 X17.8514 Y43.6236 
G01 X17.9223 Y43.7947 
G01 X17.9584 Y43.9764 
G01 X17.9584 Y44.1616 
G01 X17.9223 Y44.3433 
G01 X17.8514 Y44.5144 
G01 X17.7485 Y44.6685 
G01 X17.6175 Y44.7995 
G01 X17.4634 Y44.9024 
G01 X17.2923 Y44.9733 
G01 X17.1106 Y45.0094 
G01 X16.9254 Y45.0094 
G01 X16.7437 Y44.9733 
G01 X16.5726 Y44.9024 
G01 X16.4185 Y44.7995 
G01 X16.2875 Y44.6685 
G01 X16.1846 Y44.5144 
G01 X16.1137 Y44.3433 
G01 X16.0776 Y44.1616 
G01 X16.0776 Y43.9764 
G01 X16.1137 Y43.7947 
G01 X16.1846 Y43.6236 
G01 X16.2875 Y43.4695 
G01 X16.4185 Y43.3385 
G01 X16.5726 Y43.2356 
G01 X16.7437 Y43.1647 
G01 X16.8174 Y43.1501 
G01 X16.8748 Y43.0927 
G01 X21.8278 Y38.1397 
G01 X21.9207 Y38.1012 
G01 X22.3743 Y38.1012 
G01 X27.9412 Y32.5343 
G01 X27.9412 Y31.9537 
G01 X27.9797 Y31.8608 
G01 X28.0508 Y31.7897 
G01 X28.5588 Y31.2817 
G01 X28.6517 Y31.2432 
G01 X29.6645 Y31.2432 
G01 X29.6718 Y31.2257 
G01 X29.7000 Y31.1975 
G01 X29.7369 Y31.1822 
G00 Z2.0000  
G00 X30.7675 Y30.5322 
G01 Z-0.1000 F100   
G01 X30.8044 Y30.5475 F250   
G01 X30.8326 Y30.5757 
G01 X30.8479 Y30.6126 
G01 X30.8479 Y30.9574 
G01 X30.8326 Y30.9943 
G01 X30.8044 Y31.0225 
G01 X30.7675 Y31.0378 
G01 X30.2625 Y31.0378 
G01 X30.2228 Y31.0411 
G01 X30.2126 Y31.0378 
G01 X29.7369 Y31.0378 
G01 X29.7000 Y31.0225 
G01 X29.6718 Y30.9943 
G01 X29.6687 Y30.9868 
G01 X28.6797 Y30.9868 
G01 X27.8118 Y31.8547 
G01 X27.8118 Y32.4353 
G01 X27.7733 Y32.5282 
G01 X22.3682 Y37.9333 
G01 X22.2753 Y37.9718 
G01 X20.5517 Y37.9718 
G01 X15.2388 Y43.2847 
G01 X15.2388 Y44.8533 
G01 X16.2337 Y45.8482 
G01 X17.0683 Y45.8482 
G01 X17.1612 Y45.8867 
G01 X17.2323 Y45.9578 
G01 X17.3767 Y46.1022 
G01 X17.8023 Y46.1022 
G01 X18.3988 Y45.5057 
G01 X18.4917 Y45.4672 
G01 X19.2273 Y45.4672 
G01 X19.3202 Y45.5057 
G01 X19.3913 Y45.5768 
G01 X20.2977 Y46.4832 
G01 X22.1483 Y46.4832 
G01 X22.2412 Y46.5217 
G01 X22.3123 Y46.5928 
G01 X30.8387 Y55.1192 
G01 X34.2133 Y55.1192 
G01 X34.3062 Y55.1577 
G01 X34.3773 Y55.2288 
G01 X36.0429 Y56.8944 
G01 X36.0648 Y56.8415 
G01 X36.1453 Y56.7211 
G01 X36.2477 Y56.6186 
G01 X36.3682 Y56.5381 
G01 X36.5020 Y56.4827 
G01 X36.6441 Y56.4544 
G01 X36.7889 Y56.4544 
G01 X36.9310 Y56.4827 
G01 X37.0648 Y56.5381 
G01 X37.1853 Y56.6186 
G01 X37.2877 Y56.7211 
G01 X37.3682 Y56.8415 
G01 X37.4236 Y56.9753 
G01 X37.4519 Y57.1174 
G01 X37.4519 Y57.2623 
G01 X37.4236 Y57.4044 
G01 X37.3682 Y57.5382 
G01 X37.2877 Y57.6586 
G01 X37.1853 Y57.7611 
G01 X37.0648 Y57.8415 
G01 X36.9310 Y57.8970 
G01 X36.7889 Y57.9252 
G01 X36.6441 Y57.9252 
G01 X36.5020 Y57.8970 
G01 X36.3682 Y57.8415 
G01 X36.2477 Y57.7611 
G01 X36.1453 Y57.6586 
G01 X36.0648 Y57.5382 
G01 X36.0094 Y57.4044 
G01 X35.8907 Y57.4028 
G01 X35.7978 Y57.3643 
G01 X34.0583 Y55.6248 
G01 X30.6837 Y55.6248 
G01 X30.5908 Y55.5863 
G01 X21.9933 Y46.9888 
G01 X20.1427 Y46.9888 
G01 X20.0498 Y46.9503 
G01 X19.0723 Y45.9728 
G01 X18.6467 Y45.9728 
G01 X18.1213 Y46.4982 
G01 X18.0502 Y46.5693 
G01 X17.9573 Y46.6078 
G01 X17.2217 Y46.6078 
G01 X17.1288 Y46.5693 
G01 X16.9133 Y46.3538 
G01 X16.0787 Y46.3538 
G01 X15.9858 Y46.3153 
G01 X14.8428 Y45.1723 
G01 X14.7717 Y45.1012 
G01 X14.7332 Y45.0083 
G01 X14.7332 Y43.1297 
G01 X14.7717 Y43.0368 
G01 X20.2327 Y37.5758 
G01 X20.3038 Y37.5047 
G01 X20.3967 Y37.4662 
G01 X22.1203 Y37.4662 
G01 X27.3062 Y32.2803 
G01 X27.3062 Y31.6997 
G01 X27.3447 Y31.6068 
G01 X28.3607 Y30.5908 
G01 X28.4318 Y30.5197 
G01 X28.5247 Y30.4812 
G01 X30.2156 Y30.4812 
G01 X30.2554 Y30.4779 
G01 X30.2656 Y30.4812 
G01 X30.2763 Y30.4812 
G01 X30.3132 Y30.4965 
G01 X30.3512 Y30.5087 
G01 X30.3593 Y30.5156 
G01 X30.3692 Y30.5197 
G01 X30.3817 Y30.5322 
G01 X30.7675 Y30.5322 
G00 Z2.0000  
G00 X29.7369 Y29.8822 
G01 Z-0.1000 F100   
G01 X30.2084 Y29.8822 F250   
G01 X30.2621 Y29.8630 
G01 X30.3027 Y29.8462 
G01 X30.3092 Y29.8462 
G01 X30.3153 Y29.8440 
G01 X30.3593 Y29.8462 
G01 X30.9113 Y29.8462 
G01 X31.0042 Y29.8847 
G01 X32.1472 Y31.0277 
G01 X32.2183 Y31.0988 
G01 X32.2568 Y31.1917 
G01 X32.2568 Y39.9283 
G01 X32.2183 Y40.0212 
G01 X28.1928 Y44.0467 
G01 X28.1928 Y44.7263 
G01 X35.1567 Y51.6902 
G01 X36.1125 Y51.6902 
G01 X36.1453 Y51.6411 
G01 X36.2477 Y51.5386 
G01 X36.3682 Y51.4581 
G01 X36.5020 Y51.4027 
G01 X36.6441 Y51.3744 
G01 X36.7889 Y51.3744 
G01 X36.9310 Y51.4027 
G01 X37.0648 Y51.4581 
G01 X37.1853 Y51.5386 
G01 X37.2877 Y51.6411 
G01 X37.3682 Y51.7615 
G01 X37.4236 Y51.8953 
G01 X37.4519 Y52.0374 
G01 X37.4519 Y52.1823 
G01 X37.4236 Y52.3244 
G01 X37.3682 Y52.4582 
G01 X37.2877 Y52.5786 
G01 X37.1853 Y52.6811 
G01 X37.0648 Y52.7615 
G01 X36.9310 Y52.8170 
G01 X36.7889 Y52.8452 
G01 X36.6441 Y52.8452 
G01 X36.5020 Y52.8170 
G01 X36.3682 Y52.7615 
G01 X36.2477 Y52.6811 
G01 X36.1453 Y52.5786 
G01 X36.0648 Y52.4582 
G01 X36.0094 Y52.3244 
G01 X35.9838 Y52.1958 
G01 X35.0017 Y52.1958 
G01 X34.9088 Y52.1573 
G01 X34.8377 Y52.0862 
G01 X27.7257 Y44.9742 
G01 X27.6872 Y44.8813 
G01 X27.6872 Y43.8917 
G01 X27.7257 Y43.7988 
G01 X27.7968 Y43.7277 
G01 X31.7512 Y39.7733 
G01 X31.7512 Y31.3467 
G01 X30.7850 Y30.3805 
G01 X30.7675 Y30.3878 
G01 X30.2960 Y30.3878 
G01 X30.2899 Y30.3900 
G01 X30.2459 Y30.3878 
G01 X29.7369 Y30.3878 
G01 X29.7000 Y30.3725 
G01 X29.6718 Y30.3443 
G01 X29.6565 Y30.3074 
G01 X29.6565 Y29.9626 
G01 X29.6718 Y29.9257 
G01 X29.7000 Y29.8975 
G01 X29.7369 Y29.8822 
G00 Z2.0000  
G00 X29.7369 Y29.2322 
G01 Z-0.1000 F100   
G01 X30.2261 Y29.2322 F250   
G01 X30.2782 Y29.2214 
G01 X30.3027 Y29.2112 
G01 X30.3270 Y29.2112 
G01 X30.3507 Y29.2063 
G01 X30.3767 Y29.2112 
G01 X30.7563 Y29.2112 
G01 X31.7512 Y28.2163 
G01 X31.7512 Y27.2547 
G01 X31.7897 Y27.1618 
G01 X33.6562 Y25.2953 
G01 X33.6562 Y22.5557 
G01 X33.6947 Y22.4628 
G01 X34.9928 Y21.1647 
G01 X34.9806 Y21.1464 
G01 X34.9097 Y20.9753 
G01 X34.8736 Y20.7936 
G01 X34.8736 Y20.6084 
G01 X34.9097 Y20.4267 
G01 X34.9806 Y20.2556 
G01 X35.0835 Y20.1015 
G01 X35.2145 Y19.9705 
G01 X35.3686 Y19.8676 
G01 X35.5397 Y19.7967 
G01 X35.7214 Y19.7606 
G01 X35.9066 Y19.7606 
G01 X36.0883 Y19.7967 
G01 X36.2594 Y19.8676 
G01 X36.4135 Y19.9705 
G01 X36.5445 Y20.1015 
G01 X36.6474 Y20.2556 
G01 X36.7183 Y20.4267 
G01 X36.7544 Y20.6084 
G01 X36.7544 Y20.7936 
G01 X36.7183 Y20.9753 
G01 X36.6474 Y21.1464 
G01 X36.5445 Y21.3005 
G01 X36.4135 Y21.4315 
G01 X36.2594 Y21.5344 
G01 X36.0883 Y21.6053 
G01 X35.9066 Y21.6414 
G01 X35.7214 Y21.6414 
G01 X35.5397 Y21.6053 
G01 X35.3686 Y21.5344 
G01 X35.3503 Y21.5222 
G01 X34.1618 Y22.7107 
G01 X34.1618 Y25.4503 
G01 X34.1233 Y25.5432 
G01 X34.0522 Y25.6143 
G01 X32.2568 Y27.4097 
G01 X32.2568 Y28.3713 
G01 X32.2183 Y28.4642 
G01 X32.1472 Y28.5353 
G01 X31.0042 Y29.6783 
G01 X30.9113 Y29.7168 
G01 X30.8101 Y29.7168 
G01 X30.8044 Y29.7225 
G01 X30.7675 Y29.7378 
G01 X30.2782 Y29.7378 
G01 X30.2545 Y29.7427 
G01 X30.2285 Y29.7378 
G01 X29.7369 Y29.7378 
G01 X29.7000 Y29.7225 
G01 X29.6718 Y29.6943 
G01 X29.6565 Y29.6574 
G01 X29.6565 Y29.3126 
G01 X29.6718 Y29.2757 
G01 X29.7000 Y29.2475 
G01 X29.7369 Y29.2322 
G00 Z2.0000  
G00 X29.7369 Y27.9322 
G01 Z-0.1000 F100   
G01 X30.2100 Y27.9322 F250   
G01 X30.2176 Y27.9296 
G01 X30.2600 Y27.9322 
G01 X30.7675 Y27.9322 
G01 X30.8044 Y27.9475 
G01 X30.8326 Y27.9757 
G01 X30.8479 Y28.0126 
G01 X30.8479 Y28.3574 
G01 X30.8326 Y28.3943 
G01 X30.8044 Y28.4225 
G01 X30.7675 Y28.4378 
G01 X30.2980 Y28.4378 
G01 X30.2763 Y28.4468 
G01 X30.2682 Y28.4468 
G01 X30.2606 Y28.4494 
G01 X30.2182 Y28.4468 
G01 X27.5087 Y28.4468 
G01 X27.4158 Y28.4083 
G01 X10.5248 Y11.5173 
G01 X10.4537 Y11.4462 
G01 X10.4152 Y11.3533 
G01 X10.4152 Y11.2277 
G01 X10.3107 Y11.1938 
G01 X10.1648 Y11.1195 
G01 X10.0324 Y11.0232 
G01 X9.9166  Y10.9074 
G01 X9.8203  Y10.7750 
G01 X9.7460  Y10.6291 
G01 X9.6954  Y10.4734 
G01 X9.6698  Y10.3117 
G01 X9.6698  Y8.2683  
G01 X9.6954  Y8.1066  
G01 X9.7460  Y7.9509  
G01 X9.8203  Y7.8050  
G01 X9.9166  Y7.6726  
G01 X10.0324 Y7.5568  
G01 X10.1648 Y7.4605  
G01 X10.3107 Y7.3862  
G01 X10.4664 Y7.3356  
G01 X10.6281 Y7.3100  
G01 X10.7919 Y7.3100  
G01 X10.9536 Y7.3356  
G01 X11.1093 Y7.3862  
G01 X11.2552 Y7.4605  
G01 X11.3876 Y7.5568  
G01 X11.5034 Y7.6726  
G01 X11.5997 Y7.8050  
G01 X11.6740 Y7.9509  
G01 X11.7246 Y8.1066  
G01 X11.7502 Y8.2683  
G01 X11.7502 Y10.3117 
G01 X11.7246 Y10.4734 
G01 X11.6740 Y10.6291 
G01 X11.5997 Y10.7750 
G01 X11.5034 Y10.9074 
G01 X11.3876 Y11.0232 
G01 X11.2552 Y11.1195 
G01 X11.1093 Y11.1938 
G01 X10.9636 Y11.2411 
G01 X27.6637 Y27.9412 
G01 X29.7152 Y27.9412 
G01 X29.7369 Y27.9322 
G00 Z2.0000  
G00 X29.7369 Y26.6322 
G01 Z-0.1000 F100   
G01 X30.7675 Y26.6322 F250   
G01 X30.8044 Y26.6475 
G01 X30.8326 Y26.6757 
G01 X30.8479 Y26.7126 
G01 X30.8479 Y27.0574 
G01 X30.8326 Y27.0943 
G01 X30.8044 Y27.1225 
G01 X30.7675 Y27.1378 
G01 X29.7369 Y27.1378 
G01 X29.7000 Y27.1225 
G01 X29.6718 Y27.0943 
G01 X29.6565 Y27.0574 
G01 X29.6565 Y26.7126 
G01 X29.6718 Y26.6757 
G01 X29.7000 Y26.6475 
G01 X29.7369 Y26.6322 
G00 Z2.0000  
G00 X29.7369 Y25.9822 
G01 Z-0.1000 F100   
G01 X30.7675 Y25.9822 F250   
G01 X30.8044 Y25.9975 
G01 X30.8326 Y26.0257 
G01 X30.8479 Y26.0626 
G01 X30.8479 Y26.4074 
G01 X30.8326 Y26.4443 
G01 X30.8044 Y26.4725 
G01 X30.7675 Y26.4878 
G01 X29.7369 Y26.4878 
G01 X29.7000 Y26.4725 
G01 X29.6718 Y26.4443 
G01 X29.6565 Y26.4074 
G01 X29.6565 Y26.0626 
G01 X29.6718 Y26.0257 
G01 X29.7000 Y25.9975 
G01 X29.7369 Y25.9822 
G00 Z2.0000  
G00 X29.7369 Y25.3322 
G01 Z-0.1000 F100   
G01 X30.7675 Y25.3322 F250   
G01 X30.8044 Y25.3475 
G01 X30.8326 Y25.3757 
G01 X30.8479 Y25.4126 
G01 X30.8479 Y25.7574 
G01 X30.8326 Y25.7943 
G01 X30.8044 Y25.8225 
G01 X30.7675 Y25.8378 
G01 X29.7369 Y25.8378 
G01 X29.7000 Y25.8225 
G01 X29.6718 Y25.7943 
G01 X29.6565 Y25.7574 
G01 X29.6565 Y25.4126 
G01 X29.6718 Y25.3757 
G01 X29.7000 Y25.3475 
G01 X29.7369 Y25.3322 
G00 Z2.0000  
G00 X29.7369 Y24.6822 
G01 Z-0.1000 F100   
G01 X30.2005 Y24.6822 F250   
G01 X30.2088 Y24.6787 
G01 X30.2550 Y24.6590 
G01 X30.3001 Y24.6397 
G01 X30.3027 Y24.6392 
G01 X30.3517 Y24.6392 
G01 X30.4006 Y24.6387 
G01 X30.8833 Y24.6392 
G01 X32.5132 Y23.0093 
G01 X32.5132 Y19.4505 
G01 X32.4917 Y19.4463 
G01 X32.3206 Y19.3754 
G01 X32.1665 Y19.2725 
G01 X32.0355 Y19.1415 
G01 X31.9326 Y18.9874 
G01 X31.8617 Y18.8163 
G01 X31.8256 Y18.6346 
G01 X31.8256 Y18.4494 
G01 X31.8617 Y18.2677 
G01 X31.9326 Y18.0966 
G01 X32.0355 Y17.9425 
G01 X32.1665 Y17.8115 
G01 X32.3206 Y17.7086 
G01 X32.4917 Y17.6377 
G01 X32.6734 Y17.6016 
G01 X32.8586 Y17.6016 
G01 X33.0403 Y17.6377 
G01 X33.2114 Y17.7086 
G01 X33.3655 Y17.8115 
G01 X33.4965 Y17.9425 
G01 X33.5994 Y18.0966 
G01 X33.6703 Y18.2677 
G01 X33.7064 Y18.4494 
G01 X33.7064 Y18.6346 
G01 X33.6703 Y18.8163 
G01 X33.5994 Y18.9874 
G01 X33.4965 Y19.1415 
G01 X33.3655 Y19.2725 
G01 X33.2114 Y19.3754 
G01 X33.0403 Y19.4463 
G01 X33.0188 Y19.4505 
G01 X33.0188 Y23.1643 
G01 X32.9803 Y23.2572 
G01 X32.9092 Y23.3283 
G01 X31.1312 Y25.1063 
G01 X31.0383 Y25.1448 
G01 X30.8321 Y25.1448 
G01 X30.8044 Y25.1725 
G01 X30.7675 Y25.1878 
G01 X30.2535 Y25.1878 
G01 X30.2046 Y25.1883 
G01 X29.7369 Y25.1878 
G01 X29.7000 Y25.1725 
G01 X29.6718 Y25.1443 
G01 X29.6565 Y25.1074 
G01 X29.6565 Y24.7626 
G01 X29.6718 Y24.7257 
G01 X29.7000 Y24.6975 
G01 X29.7369 Y24.6822 
G00 Z2.0000  
G00 X29.7369 Y24.0322 
G01 Z-0.1000 F100   
G01 X29.9732 Y24.0322 F250   
G01 X29.9732 Y22.1175 
G01 X29.9517 Y22.1133 
G01 X29.7806 Y22.0424 
G01 X29.6265 Y21.9395 
G01 X29.4955 Y21.8085 
G01 X29.3926 Y21.6544 
G01 X29.3217 Y21.4833 
G01 X29.2856 Y21.3016 
G01 X29.2856 Y21.1164 
G01 X29.3217 Y20.9347 
G01 X29.3926 Y20.7636 
G01 X29.4955 Y20.6095 
G01 X29.6265 Y20.4785 
G01 X29.7806 Y20.3756 
G01 X29.9517 Y20.3047 
G01 X30.1334 Y20.2686 
G01 X30.3186 Y20.2686 
G01 X30.5003 Y20.3047 
G01 X30.6714 Y20.3756 
G01 X30.8255 Y20.4785 
G01 X30.9565 Y20.6095 
G01 X31.0594 Y20.7636 
G01 X31.1303 Y20.9347 
G01 X31.1664 Y21.1164 
G01 X31.1664 Y21.3016 
G01 X31.1303 Y21.4833 
G01 X31.0594 Y21.6544 
G01 X30.9565 Y21.8085 
G01 X30.8255 Y21.9395 
G01 X30.6714 Y22.0424 
G01 X30.5003 Y22.1133 
G01 X30.4788 Y22.1175 
G01 X30.4788 Y24.0322 
G01 X30.7675 Y24.0322 
G01 X30.8044 Y24.0475 
G01 X30.8326 Y24.0757 
G01 X30.8479 Y24.1126 
G01 X30.8479 Y24.4574 
G01 X30.8326 Y24.4943 
G01 X30.8044 Y24.5225 
G01 X30.7675 Y24.5378 
G01 X30.2981 Y24.5378 
G01 X30.2941 Y24.5393 
G01 X30.2480 Y24.5378 
G01 X29.7369 Y24.5378 
G01 X29.7000 Y24.5225 
G01 X29.6718 Y24.4943 
G01 X29.6565 Y24.4574 
G01 X29.6565 Y24.1126 
G01 X29.6718 Y24.0757 
G01 X29.7000 Y24.0475 
G01 X29.7369 Y24.0322 
G00 Z2.0000  
G00 X35.5725 Y24.0322 
G01 Z-0.1000 F100   
G01 X35.9422 Y24.0322 F250   
G01 X35.9422 Y23.1907 
G01 X35.9807 Y23.0978 
G01 X37.5932 Y21.4853 
G01 X37.5932 Y19.2817 
G01 X33.9917 Y15.6802 
G01 X33.9734 Y15.6924 
G01 X33.8023 Y15.7633 
G01 X33.6206 Y15.7994 
G01 X33.4354 Y15.7994 
G01 X33.2537 Y15.7633 
G01 X33.0826 Y15.6924 
G01 X32.9285 Y15.5895 
G01 X32.7975 Y15.4585 
G01 X32.6946 Y15.3044 
G01 X32.6237 Y15.1333 
G01 X32.5876 Y14.9516 
G01 X32.5876 Y14.7664 
G01 X32.6237 Y14.5847 
G01 X32.6946 Y14.4136 
G01 X32.7975 Y14.2595 
G01 X32.9285 Y14.1285 
G01 X33.0826 Y14.0256 
G01 X33.2537 Y13.9547 
G01 X33.4354 Y13.9186 
G01 X33.6206 Y13.9186 
G01 X33.8023 Y13.9547 
G01 X33.9734 Y14.0256 
G01 X34.1275 Y14.1285 
G01 X34.2585 Y14.2595 
G01 X34.3614 Y14.4136 
G01 X34.4323 Y14.5847 
G01 X34.4684 Y14.7664 
G01 X34.4684 Y14.9516 
G01 X34.4323 Y15.1333 
G01 X34.3614 Y15.3044 
G01 X34.3492 Y15.3227 
G01 X38.0603 Y19.0338 
G01 X38.0988 Y19.1267 
G01 X38.0988 Y21.6403 
G01 X38.0603 Y21.7332 
G01 X37.9892 Y21.8043 
G01 X36.4478 Y23.3457 
G01 X36.4478 Y24.0322 
G01 X36.6031 Y24.0322 
G01 X36.6400 Y24.0475 
G01 X36.6682 Y24.0757 
G01 X36.6835 Y24.1126 
G01 X36.6835 Y24.4574 
G01 X36.6682 Y24.4943 
G01 X36.6400 Y24.5225 
G01 X36.6031 Y24.5378 
G01 X36.1203 Y24.5378 
G01 X36.1030 Y24.5423 
G01 X36.0704 Y24.5378 
G01 X35.5725 Y24.5378 
G01 X35.5356 Y24.5225 
G01 X35.5074 Y24.4943 
G01 X35.4921 Y24.4574 
G01 X35.4921 Y24.1126 
G01 X35.5074 Y24.0757 
G01 X35.5356 Y24.0475 
G01 X35.5725 Y24.0322 
G00 Z2.0000  
G00 X35.5725 Y24.6822 
G01 Z-0.1000 F100   
G01 X36.0390 Y24.6822 F250   
G01 X36.0997 Y24.6579 
G01 X36.1447 Y24.6392 
G01 X36.1476 Y24.6387 
G01 X36.1964 Y24.6392 
G01 X36.7253 Y24.6392 
G01 X37.9742 Y23.3903 
G01 X37.9742 Y22.0477 
G01 X38.0127 Y21.9548 
G01 X40.0062 Y19.9613 
G01 X40.0062 Y7.3437  
G01 X38.7573 Y6.0948  
G01 X24.4887 Y6.0948  
G01 X22.7318 Y7.8517  
G01 X22.7318 Y19.2845 
G01 X22.7533 Y19.2887 
G01 X22.9244 Y19.3596 
G01 X23.0785 Y19.4625 
G01 X23.2095 Y19.5935 
G01 X23.3124 Y19.7476 
G01 X23.3833 Y19.9187 
G01 X23.4194 Y20.1004 
G01 X23.4194 Y20.2856 
G01 X23.3833 Y20.4673 
G01 X23.3124 Y20.6384 
G01 X23.2095 Y20.7925 
G01 X23.0785 Y20.9235 
G01 X22.9244 Y21.0264 
G01 X22.7533 Y21.0973 
G01 X22.5716 Y21.1334 
G01 X22.3864 Y21.1334 
G01 X22.2047 Y21.0973 
G01 X22.0336 Y21.0264 
G01 X21.8795 Y20.9235 
G01 X21.7485 Y20.7925 
G01 X21.6456 Y20.6384 
G01 X21.5747 Y20.4673 
G01 X21.5386 Y20.2856 
G01 X21.5386 Y20.1004 
G01 X21.5747 Y19.9187 
G01 X21.6456 Y19.7476 
G01 X21.7485 Y19.5935 
G01 X21.8795 Y19.4625 
G01 X22.0336 Y19.3596 
G01 X22.2047 Y19.2887 
G01 X22.2262 Y19.2845 
G01 X22.2262 Y7.6967  
G01 X22.2647 Y7.6038  
G01 X22.3358 Y7.5327  
G01 X24.2408 Y5.6277  
G01 X24.3337 Y5.5892  
G01 X38.9123 Y5.5892  
G01 X39.0052 Y5.6277  
G01 X39.0763 Y5.6988  
G01 X40.4733 Y7.0958  
G01 X40.5118 Y7.1887  
G01 X40.5118 Y20.1163 
G01 X40.4733 Y20.2092 
G01 X38.4798 Y22.2027 
G01 X38.4798 Y23.5453 
G01 X38.4413 Y23.6382 
G01 X38.3702 Y23.7093 
G01 X36.9732 Y25.1063 
G01 X36.8803 Y25.1448 
G01 X36.6677 Y25.1448 
G01 X36.6400 Y25.1725 
G01 X36.6031 Y25.1878 
G01 X36.1366 Y25.1878 
G01 X36.0864 Y25.1878 
G01 X35.5725 Y25.1878 
G01 X35.5356 Y25.1725 
G01 X35.5074 Y25.1443 
G01 X35.4921 Y25.1074 
G01 X35.4921 Y24.7626 
G01 X35.5074 Y24.7257 
G01 X35.5356 Y24.6975 
G01 X35.5725 Y24.6822 
G00 Z2.0000  
G00 X35.5725 Y25.9822 
G01 Z-0.1000 F100   
G01 X36.0099 Y25.9822 F250   
G01 X36.0331 Y25.9664 
G01 X36.0518 Y25.9477 
G01 X36.0742 Y25.9384 
G01 X36.0943 Y25.9247 
G01 X36.1202 Y25.9193 
G01 X36.1447 Y25.9092 
G01 X36.1690 Y25.9092 
G01 X36.1927 Y25.9043 
G01 X36.2188 Y25.9092 
G01 X37.4873 Y25.9092 
G01 X38.7362 Y24.6603 
G01 X38.7362 Y22.1747 
G01 X38.7747 Y22.0818 
G01 X42.0382 Y18.8183 
G01 X42.0382 Y10.1795 
G01 X42.0167 Y10.1753 
G01 X41.8456 Y10.1044 
G01 X41.6915 Y10.0015 
G01 X41.5605 Y9.8705  
G01 X41.4576 Y9.7164  
G01 X41.3867 Y9.5453  
G01 X41.3506 Y9.3636  
G01 X41.3506 Y9.1784  
G01 X41.3867 Y8.9967  
G01 X41.4576 Y8.8256  
G01 X41.5605 Y8.6715  
G01 X41.6915 Y8.5405  
G01 X41.8456 Y8.4376  
G01 X42.0167 Y8.3667  
G01 X42.1984 Y8.3306  
G01 X42.3836 Y8.3306  
G01 X42.5653 Y8.3667  
G01 X42.7364 Y8.4376  
G01 X42.8905 Y8.5405  
G01 X43.0215 Y8.6715  
G01 X43.1244 Y8.8256  
G01 X43.1953 Y8.9967  
G01 X43.2314 Y9.1784  
G01 X43.2314 Y9.3636  
G01 X43.1953 Y9.5453  
G01 X43.1244 Y9.7164  
G01 X43.0215 Y9.8705  
G01 X42.8905 Y10.0015 
G01 X42.7364 Y10.1044 
G01 X42.5653 Y10.1753 
G01 X42.5438 Y10.1795 
G01 X42.5438 Y18.9733 
G01 X42.5053 Y19.0662 
G01 X42.4342 Y19.1373 
G01 X39.2418 Y22.3297 
G01 X39.2418 Y24.8153 
G01 X39.2033 Y24.9082 
G01 X39.1322 Y24.9793 
G01 X37.7352 Y26.3763 
G01 X37.6423 Y26.4148 
G01 X36.6804 Y26.4148 
G01 X36.6682 Y26.4443 
G01 X36.6400 Y26.4725 
G01 X36.6031 Y26.4878 
G01 X36.1138 Y26.4878 
G01 X36.0901 Y26.4927 
G01 X36.0640 Y26.4878 
G01 X35.5725 Y26.4878 
G01 X35.5356 Y26.4725 
G01 X35.5074 Y26.4443 
G01 X35.4921 Y26.4074 
G01 X35.4921 Y26.0626 
G01 X35.5074 Y26.0257 
G01 X35.5356 Y25.9975 
G01 X35.5725 Y25.9822 
G00 Z2.0000  
G00 X35.5725 Y27.2822 
G01 Z-0.1000 F100   
G01 X36.0757 Y27.2822 F250   
G01 X36.1137 Y27.2786 
G01 X36.1256 Y27.2822 
G01 X36.6031 Y27.2822 
G01 X36.6400 Y27.2975 
G01 X36.6682 Y27.3257 
G01 X36.6835 Y27.3626 
G01 X36.6835 Y27.7074 
G01 X36.6682 Y27.7443 
G01 X36.6400 Y27.7725 
G01 X36.6031 Y27.7878 
G01 X36.1762 Y27.7878 
G01 X36.1422 Y27.8058 
G01 X36.1298 Y27.8070 
G01 X36.1183 Y27.8118 
G01 X36.0801 Y27.8118 
G01 X36.0421 Y27.8154 
G01 X36.0302 Y27.8118 
G01 X35.2837 Y27.8118 
G01 X34.1618 Y28.9337 
G01 X34.1618 Y41.8053 
G01 X38.4972 Y46.1407 
G01 X38.5683 Y46.2118 
G01 X38.6068 Y46.3047 
G01 X38.6068 Y52.1203 
G01 X38.5683 Y52.2132 
G01 X37.1713 Y53.6102 
G01 X37.1002 Y53.6813 
G01 X37.0073 Y53.7198 
G01 X34.6207 Y53.7198 
G01 X34.5278 Y53.6813 
G01 X26.6923 Y45.8458 
G01 X26.1117 Y45.8458 
G01 X26.0188 Y45.8073 
G01 X25.0028 Y44.7913 
G01 X24.9317 Y44.7202 
G01 X24.8932 Y44.6273 
G01 X24.8932 Y43.1577 
G01 X23.5777 Y41.8422 
G01 X23.5594 Y41.8544 
G01 X23.3883 Y41.9253 
G01 X23.2066 Y41.9614 
G01 X23.0214 Y41.9614 
G01 X22.8397 Y41.9253 
G01 X22.6686 Y41.8544 
G01 X22.5145 Y41.7515 
G01 X22.3835 Y41.6205 
G01 X22.2806 Y41.4664 
G01 X22.2097 Y41.2953 
G01 X22.1736 Y41.1136 
G01 X22.1736 Y40.9284 
G01 X22.2097 Y40.7467 
G01 X22.2806 Y40.5756 
G01 X22.3835 Y40.4215 
G01 X22.5145 Y40.2905 
G01 X22.6686 Y40.1876 
G01 X22.8397 Y40.1167 
G01 X23.0214 Y40.0806 
G01 X23.2066 Y40.0806 
G01 X23.3883 Y40.1167 
G01 X23.5594 Y40.1876 
G01 X23.7135 Y40.2905 
G01 X23.8445 Y40.4215 
G01 X23.9474 Y40.5756 
G01 X24.0183 Y40.7467 
G01 X24.0544 Y40.9284 
G01 X24.0544 Y41.1136 
G01 X24.0183 Y41.2953 
G01 X23.9474 Y41.4664 
G01 X23.9352 Y41.4847 
G01 X25.3603 Y42.9098 
G01 X25.3988 Y43.0027 
G01 X25.3988 Y44.4723 
G01 X26.2667 Y45.3402 
G01 X26.8473 Y45.3402 
G01 X26.9402 Y45.3787 
G01 X27.0113 Y45.4498 
G01 X34.7757 Y53.2142 
G01 X36.8523 Y53.2142 
G01 X38.1012 Y51.9653 
G01 X38.1012 Y46.4597 
G01 X33.6947 Y42.0532 
G01 X33.6562 Y41.9603 
G01 X33.6562 Y28.7787 
G01 X33.6947 Y28.6858 
G01 X33.7658 Y28.6147 
G01 X35.0358 Y27.3447 
G01 X35.1287 Y27.3062 
G01 X35.5269 Y27.3062 
G01 X35.5356 Y27.2975 
G01 X35.5725 Y27.2822 
G00 Z2.0000  
G00 X35.5725 Y27.9322 
G01 Z-0.1000 F100   
G01 X36.0484 Y27.9322 F250   
G01 X36.0588 Y27.9289 
G01 X36.0984 Y27.9322 
G01 X36.6031 Y27.9322 
G01 X36.6248 Y27.9412 
G01 X36.9478 Y27.9412 
G01 X37.1117 Y27.9292 
G01 X37.2071 Y27.9608 
G01 X37.2833 Y28.0265 
G01 X37.3284 Y28.1164 
G01 X37.3358 Y28.2167 
G01 X37.3042 Y28.3122 
G01 X37.2384 Y28.3883 
G01 X37.1486 Y28.4334 
G01 X37.0161 Y28.4431 
G01 X37.0073 Y28.4468 
G01 X36.9662 Y28.4468 
G01 X36.9253 Y28.4498 
G01 X36.9163 Y28.4468 
G01 X36.2344 Y28.4468 
G01 X36.2240 Y28.4501 
G01 X36.1844 Y28.4468 
G01 X36.1447 Y28.4468 
G01 X36.1346 Y28.4426 
G01 X36.0772 Y28.4378 
G01 X35.5725 Y28.4378 
G01 X35.5356 Y28.4225 
G01 X35.5074 Y28.3943 
G01 X35.4921 Y28.3574 
G01 X35.4921 Y28.0126 
G01 X35.5074 Y27.9757 
G01 X35.5356 Y27.9475 
G01 X35.5725 Y27.9322 
G00 Z2.0000  
G00 X35.5725 Y28.5822 
G01 Z-0.1000 F100   
G01 X36.0807 Y28.5822 F250   
G01 X36.1380 Y28.5790 
G01 X36.1447 Y28.5762 
G01 X36.1879 Y28.5762 
G01 X36.2311 Y28.5738 
G01 X36.2380 Y28.5762 
G01 X37.2333 Y28.5762 
G01 X40.7682 Y25.0413 
G01 X40.7682 Y24.0225 
G01 X40.7467 Y24.0183 
G01 X40.5756 Y23.9474 
G01 X40.4215 Y23.8445 
G01 X40.2905 Y23.7135 
G01 X40.1876 Y23.5594 
G01 X40.1167 Y23.3883 
G01 X40.0806 Y23.2066 
G01 X40.0806 Y23.0214 
G01 X40.1167 Y22.8397 
G01 X40.1876 Y22.6686 
G01 X40.2905 Y22.5145 
G01 X40.4215 Y22.3835 
G01 X40.5756 Y22.2806 
G01 X40.7467 Y22.2097 
G01 X40.9284 Y22.1736 
G01 X41.1136 Y22.1736 
G01 X41.2953 Y22.2097 
G01 X41.4664 Y22.2806 
G01 X41.6205 Y22.3835 
G01 X41.7515 Y22.5145 
G01 X41.8544 Y22.6686 
G01 X41.9253 Y22.8397 
G01 X41.9614 Y23.0214 
G01 X41.9614 Y23.2066 
G01 X41.9253 Y23.3883 
G01 X41.8544 Y23.5594 
G01 X41.7515 Y23.7135 
G01 X41.6205 Y23.8445 
G01 X41.4664 Y23.9474 
G01 X41.2953 Y24.0183 
G01 X41.2738 Y24.0225 
G01 X41.2738 Y25.1963 
G01 X41.2353 Y25.2892 
G01 X41.1642 Y25.3603 
G01 X37.4812 Y29.0433 
G01 X37.3883 Y29.0818 
G01 X36.6176 Y29.0818 
G01 X36.6031 Y29.0878 
G01 X36.0949 Y29.0878 
G01 X36.0517 Y29.0902 
G01 X36.0448 Y29.0878 
G01 X35.5725 Y29.0878 
G01 X35.5356 Y29.0725 
G01 X35.5074 Y29.0443 
G01 X35.4921 Y29.0074 
G01 X35.4921 Y28.6626 
G01 X35.5074 Y28.6257 
G01 X35.5356 Y28.5975 
G01 X35.5725 Y28.5822 
G00 Z2.0000  
G00 X35.5725 Y29.2322 
G01 Z-0.1000 F100   
G01 X36.0633 Y29.2322 F250   
G01 X36.1216 Y29.2208 
G01 X36.1447 Y29.2112 
G01 X36.1705 Y29.2112 
G01 X36.1957 Y29.2063 
G01 X36.2203 Y29.2112 
G01 X39.1987 Y29.2112 
G01 X39.1916 Y29.1756 
G01 X39.1916 Y28.9904 
G01 X39.2277 Y28.8087 
G01 X39.2986 Y28.6376 
G01 X39.4015 Y28.4835 
G01 X39.5325 Y28.3525 
G01 X39.6866 Y28.2496 
G01 X39.8577 Y28.1787 
G01 X40.0394 Y28.1426 
G01 X40.2246 Y28.1426 
G01 X40.4063 Y28.1787 
G01 X40.5774 Y28.2496 
G01 X40.7315 Y28.3525 
G01 X40.8625 Y28.4835 
G01 X40.9654 Y28.6376 
G01 X41.0363 Y28.8087 
G01 X41.0724 Y28.9904 
G01 X41.0724 Y29.1756 
G01 X41.0363 Y29.3573 
G01 X40.9654 Y29.5284 
G01 X40.8625 Y29.6825 
G01 X40.7315 Y29.8135 
G01 X40.5774 Y29.9164 
G01 X40.4063 Y29.9873 
G01 X40.2246 Y30.0234 
G01 X40.0394 Y30.0234 
G01 X39.8577 Y29.9873 
G01 X39.6866 Y29.9164 
G01 X39.5325 Y29.8135 
G01 X39.4359 Y29.7168 
G01 X36.6457 Y29.7168 
G01 X36.6400 Y29.7225 
G01 X36.6031 Y29.7378 
G01 X36.1123 Y29.7378 
G01 X36.0871 Y29.7427 
G01 X36.0625 Y29.7378 
G01 X35.5725 Y29.7378 
G01 X35.5356 Y29.7225 
G01 X35.5074 Y29.6943 
G01 X35.4921 Y29.6574 
G01 X35.4921 Y29.3126 
G01 X35.5074 Y29.2757 
G01 X35.5356 Y29.2475 
G01 X35.5725 Y29.2322 
G00 Z2.0000  
G00 X35.5725 Y29.8822 
G01 Z-0.1000 F100   
G01 X36.0465 Y29.8822 F250   
G01 X36.1063 Y29.8621 
G01 X36.1447 Y29.8462 
G01 X36.1537 Y29.8462 
G01 X36.1622 Y29.8433 
G01 X36.2037 Y29.8462 
G01 X38.1503 Y29.8462 
G01 X38.2432 Y29.8847 
G01 X38.3143 Y29.9558 
G01 X42.7163 Y34.3578 
G01 X42.7346 Y34.3456 
G01 X42.9057 Y34.2747 
G01 X43.0874 Y34.2386 
G01 X43.2726 Y34.2386 
G01 X43.4543 Y34.2747 
G01 X43.6254 Y34.3456 
G01 X43.7795 Y34.4485 
G01 X43.9105 Y34.5795 
G01 X44.0134 Y34.7336 
G01 X44.0843 Y34.9047 
G01 X44.1204 Y35.0864 
G01 X44.1204 Y35.2716 
G01 X44.0843 Y35.4533 
G01 X44.0134 Y35.6244 
G01 X43.9105 Y35.7785 
G01 X43.7795 Y35.9095 
G01 X43.6254 Y36.0124 
G01 X43.4543 Y36.0833 
G01 X43.2726 Y36.1194 
G01 X43.0874 Y36.1194 
G01 X42.9057 Y36.0833 
G01 X42.7346 Y36.0124 
G01 X42.5805 Y35.9095 
G01 X42.4495 Y35.7785 
G01 X42.3466 Y35.6244 
G01 X42.2757 Y35.4533 
G01 X42.2396 Y35.2716 
G01 X42.2396 Y35.0864 
G01 X42.2757 Y34.9047 
G01 X42.3466 Y34.7336 
G01 X42.3588 Y34.7153 
G01 X37.9953 Y30.3518 
G01 X36.6607 Y30.3518 
G01 X36.6400 Y30.3725 
G01 X36.6031 Y30.3878 
G01 X36.1291 Y30.3878 
G01 X36.1206 Y30.3907 
G01 X36.0791 Y30.3878 
G01 X35.5725 Y30.3878 
G01 X35.5356 Y30.3725 
G01 X35.5074 Y30.3443 
G01 X35.4921 Y30.3074 
G01 X35.4921 Y29.9626 
G01 X35.5074 Y29.9257 
G01 X35.5356 Y29.8975 
G01 X35.5725 Y29.8822 
G00 Z2.0000  
G00 X35.5725 Y30.5322 
G01 Z-0.1000 F100   
G01 X36.0307 Y30.5322 F250   
G01 X36.0471 Y30.5244 
G01 X36.0518 Y30.5197 
G01 X36.0922 Y30.5029 
G01 X36.1318 Y30.4841 
G01 X36.1385 Y30.4838 
G01 X36.1447 Y30.4812 
G01 X36.1885 Y30.4812 
G01 X36.2322 Y30.4790 
G01 X36.2386 Y30.4812 
G01 X37.7693 Y30.4812 
G01 X37.8622 Y30.5197 
G01 X40.9102 Y33.5677 
G01 X40.9813 Y33.6388 
G01 X41.0198 Y33.7317 
G01 X41.0198 Y36.7533 
G01 X40.9813 Y36.8462 
G01 X39.3688 Y38.4587 
G01 X39.3688 Y41.5095 
G01 X39.3903 Y41.5137 
G01 X39.5614 Y41.5846 
G01 X39.7155 Y41.6875 
G01 X39.8465 Y41.8185 
G01 X39.9494 Y41.9726 
G01 X40.0203 Y42.1437 
G01 X40.0564 Y42.3254 
G01 X40.0564 Y42.5106 
G01 X40.0203 Y42.6923 
G01 X39.9494 Y42.8634 
G01 X39.8465 Y43.0175 
G01 X39.7155 Y43.1485 
G01 X39.5614 Y43.2514 
G01 X39.3903 Y43.3223 
G01 X39.2086 Y43.3584 
G01 X39.0234 Y43.3584 
G01 X38.8417 Y43.3223 
G01 X38.6706 Y43.2514 
G01 X38.5165 Y43.1485 
G01 X38.3855 Y43.0175 
G01 X38.2826 Y42.8634 
G01 X38.2117 Y42.6923 
G01 X38.1756 Y42.5106 
G01 X38.1756 Y42.3254 
G01 X38.2117 Y42.1437 
G01 X38.2826 Y41.9726 
G01 X38.3855 Y41.8185 
G01 X38.5165 Y41.6875 
G01 X38.6706 Y41.5846 
G01 X38.8417 Y41.5137 
G01 X38.8632 Y41.5095 
G01 X38.8632 Y38.3037 
G01 X38.9017 Y38.2108 
G01 X38.9728 Y38.1397 
G01 X40.5142 Y36.5983 
G01 X40.5142 Y33.8867 
G01 X37.6143 Y30.9868 
G01 X36.6713 Y30.9868 
G01 X36.6682 Y30.9943 
G01 X36.6400 Y31.0225 
G01 X36.6031 Y31.0378 
G01 X36.0943 Y31.0378 
G01 X36.0506 Y31.0400 
G01 X36.0442 Y31.0378 
G01 X35.5725 Y31.0378 
G01 X35.5356 Y31.0225 
G01 X35.5074 Y30.9943 
G01 X35.4921 Y30.9574 
G01 X35.4921 Y30.6126 
G01 X35.5074 Y30.5757 
G01 X35.5356 Y30.5475 
G01 X35.5725 Y30.5322 
G00 Z2.0000  
G00 X35.5725 Y31.1822 
G01 Z-0.1000 F100   
G01 X36.0537 Y31.1822 F250   
G01 X36.0693 Y31.1779 
G01 X36.1036 Y31.1822 
G01 X36.6031 Y31.1822 
G01 X36.6400 Y31.1975 
G01 X36.6682 Y31.2257 
G01 X36.6754 Y31.2432 
G01 X37.6423 Y31.2432 
G01 X37.7352 Y31.2817 
G01 X38.8782 Y32.4247 
G01 X38.9493 Y32.4958 
G01 X38.9878 Y32.5887 
G01 X38.9878 Y34.9055 
G01 X39.0093 Y34.9097 
G01 X39.1804 Y34.9806 
G01 X39.3345 Y35.0835 
G01 X39.4655 Y35.2145 
G01 X39.5684 Y35.3686 
G01 X39.6393 Y35.5397 
G01 X39.6754 Y35.7214 
G01 X39.6754 Y35.9066 
G01 X39.6393 Y36.0883 
G01 X39.5684 Y36.2594 
G01 X39.4655 Y36.4135 
G01 X39.3345 Y36.5445 
G01 X39.1804 Y36.6474 
G01 X39.0093 Y36.7183 
G01 X38.8276 Y36.7544 
G01 X38.6424 Y36.7544 
G01 X38.4607 Y36.7183 
G01 X38.2896 Y36.6474 
G01 X38.1355 Y36.5445 
G01 X38.0045 Y36.4135 
G01 X37.9016 Y36.2594 
G01 X37.8307 Y36.0883 
G01 X37.7946 Y35.9066 
G01 X37.7946 Y35.7214 
G01 X37.8307 Y35.5397 
G01 X37.9016 Y35.3686 
G01 X38.0045 Y35.2145 
G01 X38.1355 Y35.0835 
G01 X38.2896 Y34.9806 
G01 X38.4607 Y34.9097 
G01 X38.4822 Y34.9055 
G01 X38.4822 Y32.7437 
G01 X37.4873 Y31.7488 
G01 X36.2291 Y31.7488 
G01 X36.2135 Y31.7531 
G01 X36.1792 Y31.7488 
G01 X36.1447 Y31.7488 
G01 X36.1298 Y31.7426 
G01 X36.1137 Y31.7406 
G01 X36.0837 Y31.7235 
G01 X36.0518 Y31.7103 
G01 X36.0404 Y31.6989 
G01 X36.0209 Y31.6878 
G01 X35.5725 Y31.6878 
G01 X35.5356 Y31.6725 
G01 X35.5074 Y31.6443 
G01 X35.4921 Y31.6074 
G01 X35.4921 Y31.2626 
G01 X35.5074 Y31.2257 
G01 X35.5356 Y31.1975 
G01 X35.5725 Y31.1822 
G00 Z2.0000  
G00 X35.5725 Y31.8322 
G01 Z-0.1000 F100   
G01 X36.0392 Y31.8322 F250   
G01 X36.0407 Y31.8316 
G01 X36.0894 Y31.8322 
G01 X36.6031 Y31.8322 
G01 X36.6400 Y31.8475 
G01 X36.6682 Y31.8757 
G01 X36.8803 Y31.8782 
G01 X36.9732 Y31.9167 
G01 X37.2272 Y32.1707 
G01 X37.2983 Y32.2418 
G01 X37.3368 Y32.3347 
G01 X37.3368 Y34.5943 
G01 X37.2983 Y34.6872 
G01 X36.9558 Y35.0297 
G01 X36.9558 Y42.8213 
G01 X39.7672 Y45.6327 
G01 X39.8383 Y45.7038 
G01 X39.8768 Y45.7967 
G01 X39.8768 Y57.4543 
G01 X39.8383 Y57.5472 
G01 X37.5523 Y59.8332 
G01 X37.4812 Y59.9043 
G01 X37.3883 Y59.9428 
G01 X34.8840 Y59.9428 
G01 X34.8282 Y60.0782 
G01 X34.7477 Y60.1986 
G01 X34.6453 Y60.3011 
G01 X34.5249 Y60.3815 
G01 X34.3910 Y60.4370 
G01 X34.2489 Y60.4652 
G01 X34.1041 Y60.4652 
G01 X33.9620 Y60.4370 
G01 X33.8282 Y60.3815 
G01 X33.7077 Y60.3011 
G01 X33.6053 Y60.1986 
G01 X33.5248 Y60.0782 
G01 X33.4694 Y59.9444 
G01 X33.4411 Y59.8023 
G01 X33.4411 Y59.6574 
G01 X33.4694 Y59.5153 
G01 X33.5248 Y59.3815 
G01 X33.6053 Y59.2611 
G01 X33.7077 Y59.1586 
G01 X33.8282 Y59.0781 
G01 X33.9620 Y59.0227 
G01 X34.1041 Y58.9944 
G01 X34.2489 Y58.9944 
G01 X34.3910 Y59.0227 
G01 X34.5249 Y59.0781 
G01 X34.6453 Y59.1586 
G01 X34.7477 Y59.2611 
G01 X34.8282 Y59.3815 
G01 X34.8513 Y59.4372 
G01 X37.2333 Y59.4372 
G01 X39.3712 Y57.2993 
G01 X39.3712 Y45.9517 
G01 X36.4887 Y43.0692 
G01 X36.4502 Y42.9763 
G01 X36.4502 Y34.8747 
G01 X36.4887 Y34.7818 
G01 X36.5598 Y34.7107 
G01 X36.8312 Y34.4393 
G01 X36.8312 Y32.4897 
G01 X36.7253 Y32.3838 
G01 X36.2436 Y32.3838 
G01 X36.1934 Y32.3838 
G01 X36.1447 Y32.3838 
G01 X36.1415 Y32.3831 
G01 X36.0967 Y32.3639 
G01 X36.0518 Y32.3453 
G01 X36.0359 Y32.3378 
G01 X35.5725 Y32.3378 
G01 X35.5356 Y32.3225 
G01 X35.5074 Y32.2943 
G01 X35.4921 Y32.2574 
G01 X35.4921 Y31.9126 
G01 X35.5074 Y31.8757 
G01 X35.5356 Y31.8475 
G01 X35.5725 Y31.8322 
G00 Z2.0000  
G00 X9.8904  Y54.2370 
G01 Z-0.1000 F100   
G01 X9.8904  Y54.9830 F250   
G01 X9.3630  Y55.5104 
G01 X8.6170  Y55.5104 
G01 X8.0896  Y54.9830 
G01 X8.0896  Y54.2370 
G01 X8.6170  Y53.7096 
G01 X9.3630  Y53.7096 
G01 X9.4614  Y53.8081 
G01 X11.2868 Y51.9827 
G01 X11.3797 Y51.9442 
G01 X18.2011 Y51.9442 
G01 X18.2011 Y51.4549 
G01 X18.2164 Y51.4180 
G01 X18.2446 Y51.3897 
G01 X18.2815 Y51.3744 
G01 X19.5915 Y51.3744 
G01 X19.6284 Y51.3897 
G01 X19.6566 Y51.4180 
G01 X19.6719 Y51.4549 
G01 X19.6719 Y52.7648 
G01 X19.6566 Y52.8017 
G01 X19.6284 Y52.8300 
G01 X19.5915 Y52.8452 
G01 X18.2815 Y52.8452 
G01 X18.2446 Y52.8300 
G01 X18.2164 Y52.8017 
G01 X18.2011 Y52.7648 
G01 X18.2011 Y52.4498 
G01 X11.5347 Y52.4498 
G01 X9.8189  Y54.1656 
G01 X9.8904  Y54.2370 
G00 Z2.0000  
G00 X9.8904  Y44.0770 
G01 Z-0.1000 F100   
G01 X9.8904  Y44.8230 F250   
G01 X9.3630  Y45.3504 
G01 X8.6170  Y45.3504 
G01 X8.0896  Y44.8230 
G01 X8.0896  Y44.0770 
G01 X8.6170  Y43.5496 
G01 X9.3630  Y43.5496 
G01 X9.4614  Y43.6481 
G01 X16.3648 Y36.7447 
G01 X16.2875 Y36.6675 
G01 X16.1846 Y36.5134 
G01 X16.1137 Y36.3423 
G01 X16.0776 Y36.1606 
G01 X16.0776 Y35.9754 
G01 X16.1137 Y35.7937 
G01 X16.1846 Y35.6226 
G01 X16.2875 Y35.4685 
G01 X16.4185 Y35.3375 
G01 X16.5726 Y35.2346 
G01 X16.7437 Y35.1637 
G01 X16.9254 Y35.1276 
G01 X17.1106 Y35.1276 
G01 X17.2923 Y35.1637 
G01 X17.4634 Y35.2346 
G01 X17.6175 Y35.3375 
G01 X17.6947 Y35.4148 
G01 X24.4948 Y28.6147 
G01 X24.5877 Y28.5762 
G01 X30.2048 Y28.5762 
G01 X30.2334 Y28.5714 
G01 X30.2546 Y28.5762 
G01 X30.2763 Y28.5762 
G01 X30.2908 Y28.5822 
G01 X30.7675 Y28.5822 
G01 X30.8044 Y28.5975 
G01 X30.8326 Y28.6257 
G01 X30.8479 Y28.6626 
G01 X30.8479 Y29.0074 
G01 X30.8326 Y29.0443 
G01 X30.8044 Y29.0725 
G01 X30.7675 Y29.0878 
G01 X30.2734 Y29.0878 
G01 X30.2448 Y29.0926 
G01 X30.2236 Y29.0878 
G01 X29.7369 Y29.0878 
G01 X29.7224 Y29.0818 
G01 X24.7427 Y29.0818 
G01 X17.9403 Y35.8842 
G01 X17.9584 Y35.9754 
G01 X17.9584 Y36.1606 
G01 X17.9223 Y36.3423 
G01 X17.8514 Y36.5134 
G01 X17.7485 Y36.6675 
G01 X17.6175 Y36.7985 
G01 X17.4634 Y36.9014 
G01 X17.2923 Y36.9723 
G01 X17.1106 Y37.0084 
G01 X16.9254 Y37.0084 
G01 X16.8342 Y36.9903 
G01 X9.8189  Y44.0056 
G01 X9.8904  Y44.0770 
G00 Z2.0000  
G00 X26.5598 Y10.3117 
G01 Z-0.1000 F100   
G01 X26.5598 Y8.2683  F250   
G01 X26.5854 Y8.1066  
G01 X26.6360 Y7.9509  
G01 X26.7103 Y7.8050  
G01 X26.8066 Y7.6726  
G01 X26.9224 Y7.5568  
G01 X27.0548 Y7.4605  
G01 X27.2007 Y7.3862  
G01 X27.3564 Y7.3356  
G01 X27.5181 Y7.3100  
G01 X27.6819 Y7.3100  
G01 X27.8436 Y7.3356  
G01 X27.9993 Y7.3862  
G01 X28.1452 Y7.4605  
G01 X28.2776 Y7.5568  
G01 X28.3934 Y7.6726  
G01 X28.4897 Y7.8050  
G01 X28.5640 Y7.9509  
G01 X28.6146 Y8.1066  
G01 X28.6402 Y8.2683  
G01 X28.6402 Y10.3117 
G01 X28.6146 Y10.4734 
G01 X28.5640 Y10.6291 
G01 X28.4897 Y10.7750 
G01 X28.3934 Y10.9074 
G01 X28.2776 Y11.0232 
G01 X28.1452 Y11.1195 
G01 X27.9993 Y11.1938 
G01 X27.8436 Y11.2444 
G01 X27.8118 Y11.2494 
G01 X27.8118 Y26.1843 
G01 X28.9337 Y27.3062 
G01 X29.6913 Y27.3062 
G01 X29.7000 Y27.2975 
G01 X29.7369 Y27.2822 
G01 X30.2076 Y27.2822 
G01 X30.2130 Y27.2802 
G01 X30.2577 Y27.2822 
G01 X30.7675 Y27.2822 
G01 X30.8044 Y27.2975 
G01 X30.8326 Y27.3257 
G01 X30.8479 Y27.3626 
G01 X30.8479 Y27.7074 
G01 X30.8326 Y27.7443 
G01 X30.8044 Y27.7725 
G01 X30.7675 Y27.7878 
G01 X30.3365 Y27.7878 
G01 X30.3176 Y27.7947 
G01 X30.2763 Y27.8118 
G01 X30.2706 Y27.8118 
G01 X30.2652 Y27.8138 
G01 X30.2205 Y27.8118 
G01 X28.7787 Y27.8118 
G01 X28.6858 Y27.7733 
G01 X27.4158 Y26.5033 
G01 X27.3447 Y26.4322 
G01 X27.3062 Y26.3393 
G01 X27.3062 Y11.2281 
G01 X27.2007 Y11.1938 
G01 X27.0548 Y11.1195 
G01 X26.9224 Y11.0232 
G01 X26.8066 Y10.9074 
G01 X26.7103 Y10.7750 
G01 X26.6360 Y10.6291 
G01 X26.5854 Y10.4734 
G01 X26.5598 Y10.3117 
G00 Z2.0000  
G00 X29.0998 Y10.3117 
G01 Z-0.1000 F100   
G01 X29.0998 Y8.2683  F250   
G01 X29.1254 Y8.1066  
G01 X29.1760 Y7.9509  
G01 X29.2503 Y7.8050  
G01 X29.3466 Y7.6726  
G01 X29.4624 Y7.5568  
G01 X29.5948 Y7.4605  
G01 X29.7407 Y7.3862  
G01 X29.8964 Y7.3356  
G01 X30.0581 Y7.3100  
G01 X30.2219 Y7.3100  
G01 X30.3836 Y7.3356  
G01 X30.5393 Y7.3862  
G01 X30.6852 Y7.4605  
G01 X30.8176 Y7.5568  
G01 X30.9334 Y7.6726  
G01 X31.0297 Y7.8050  
G01 X31.1040 Y7.9509  
G01 X31.1546 Y8.1066  
G01 X31.1802 Y8.2683  
G01 X31.1802 Y10.3117 
G01 X31.1546 Y10.4734 
G01 X31.1040 Y10.6291 
G01 X31.0297 Y10.7750 
G01 X30.9334 Y10.9074 
G01 X30.8176 Y11.0232 
G01 X30.6852 Y11.1195 
G01 X30.5393 Y11.1938 
G01 X30.3836 Y11.2444 
G01 X30.2219 Y11.2700 
G01 X30.0581 Y11.2700 
G01 X29.8964 Y11.2444 
G01 X29.7407 Y11.1938 
G01 X29.5948 Y11.1195 
G01 X29.4624 Y11.0232 
G01 X29.3466 Y10.9074 
G01 X29.2503 Y10.7750 
G01 X29.1760 Y10.6291 
G01 X29.1254 Y10.4734 
G01 X29.0998 Y10.3117 
G00 Z2.0000  
G00 X31.6398 Y10.3117 
G01 Z-0.1000 F100   
G01 X31.6398 Y8.2683  F250   
G01 X31.6654 Y8.1066  
G01 X31.7160 Y7.9509  
G01 X31.7903 Y7.8050  
G01 X31.8866 Y7.6726  
G01 X32.0024 Y7.5568  
G01 X32.1348 Y7.4605  
G01 X32.2807 Y7.3862  
G01 X32.4364 Y7.3356  
G01 X32.5981 Y7.3100  
G01 X32.7619 Y7.3100  
G01 X32.9236 Y7.3356  
G01 X33.0793 Y7.3862  
G01 X33.2252 Y7.4605  
G01 X33.3576 Y7.5568  
G01 X33.4734 Y7.6726  
G01 X33.5697 Y7.8050  
G01 X33.6440 Y7.9509  
G01 X33.6946 Y8.1066  
G01 X33.7202 Y8.2683  
G01 X33.7202 Y10.3117 
G01 X33.6946 Y10.4734 
G01 X33.6440 Y10.6291 
G01 X33.5697 Y10.7750 
G01 X33.4734 Y10.9074 
G01 X33.3576 Y11.0232 
G01 X33.2252 Y11.1195 
G01 X33.2045 Y11.1300 
G01 X37.3823 Y15.3078 
G01 X37.4006 Y15.2956 
G01 X37.5717 Y15.2247 
G01 X37.7534 Y15.1886 
G01 X37.9386 Y15.1886 
G01 X38.1203 Y15.2247 
G01 X38.2914 Y15.2956 
G01 X38.4455 Y15.3985 
G01 X38.5765 Y15.5295 
G01 X38.6794 Y15.6836 
G01 X38.7503 Y15.8547 
G01 X38.7864 Y16.0364 
G01 X38.7864 Y16.2216 
G01 X38.7503 Y16.4033 
G01 X38.6794 Y16.5744 
G01 X38.5765 Y16.7285 
G01 X38.4455 Y16.8595 
G01 X38.2914 Y16.9624 
G01 X38.1203 Y17.0333 
G01 X37.9386 Y17.0694 
G01 X37.7534 Y17.0694 
G01 X37.5717 Y17.0333 
G01 X37.4006 Y16.9624 
G01 X37.2465 Y16.8595 
G01 X37.1155 Y16.7285 
G01 X37.0126 Y16.5744 
G01 X36.9417 Y16.4033 
G01 X36.9056 Y16.2216 
G01 X36.9056 Y16.0364 
G01 X36.9417 Y15.8547 
G01 X37.0126 Y15.6836 
G01 X37.0248 Y15.6653 
G01 X32.6295 Y11.2700 
G01 X32.5981 Y11.2700 
G01 X32.4364 Y11.2444 
G01 X32.2807 Y11.1938 
G01 X32.1348 Y11.1195 
G01 X32.0024 Y11.0232 
G01 X31.8866 Y10.9074 
G01 X31.7903 Y10.7750 
G01 X31.7160 Y10.6291 
G01 X31.6654 Y10.4734 
G01 X31.6398 Y10.3117 
G00 Z2.0000  
G00 X34.1798 Y10.3117 
G01 Z-0.1000 F100   
G01 X34.1798 Y8.2683  F250   
G01 X34.2054 Y8.1066  
G01 X34.2560 Y7.9509  
G01 X34.3303 Y7.8050  
G01 X34.4266 Y7.6726  
G01 X34.5424 Y7.5568  
G01 X34.6748 Y7.4605  
G01 X34.8207 Y7.3862  
G01 X34.9764 Y7.3356  
G01 X35.1381 Y7.3100  
G01 X35.3019 Y7.3100  
G01 X35.4636 Y7.3356  
G01 X35.6193 Y7.3862  
G01 X35.7652 Y7.4605  
G01 X35.8976 Y7.5568  
G01 X36.0134 Y7.6726  
G01 X36.1097 Y7.8050  
G01 X36.1840 Y7.9509  
G01 X36.2346 Y8.1066  
G01 X36.2602 Y8.2683  
G01 X36.2602 Y10.3117 
G01 X36.2346 Y10.4734 
G01 X36.1840 Y10.6291 
G01 X36.1097 Y10.7750 
G01 X36.0134 Y10.9074 
G01 X35.8976 Y11.0232 
G01 X35.7652 Y11.1195 
G01 X35.6193 Y11.1938 
G01 X35.4636 Y11.2444 
G01 X35.3019 Y11.2700 
G01 X35.1381 Y11.2700 
G01 X34.9764 Y11.2444 
G01 X34.8207 Y11.1938 
G01 X34.6748 Y11.1195 
G01 X34.5424 Y11.0232 
G01 X34.4266 Y10.9074 
G01 X34.3303 Y10.7750 
G01 X34.2560 Y10.6291 
G01 X34.2054 Y10.4734 
G01 X34.1798 Y10.3117 
G00 Z2.0000  
G00 X36.7198 Y10.3117 
G01 Z-0.1000 F100   
G01 X36.7198 Y8.2683  F250   
G01 X36.7454 Y8.1066  
G01 X36.7960 Y7.9509  
G01 X36.8703 Y7.8050  
G01 X36.9666 Y7.6726  
G01 X37.0824 Y7.5568  
G01 X37.2148 Y7.4605  
G01 X37.3607 Y7.3862  
G01 X37.5164 Y7.3356  
G01 X37.6781 Y7.3100  
G01 X37.8419 Y7.3100  
G01 X38.0036 Y7.3356  
G01 X38.1593 Y7.3862  
G01 X38.3052 Y7.4605  
G01 X38.4376 Y7.5568  
G01 X38.5534 Y7.6726  
G01 X38.6497 Y7.8050  
G01 X38.7240 Y7.9509  
G01 X38.7746 Y8.1066  
G01 X38.8002 Y8.2683  
G01 X38.8002 Y10.3117 
G01 X38.7746 Y10.4734 
G01 X38.7240 Y10.6291 
G01 X38.6497 Y10.7750 
G01 X38.5534 Y10.9074 
G01 X38.4376 Y11.0232 
G01 X38.3052 Y11.1195 
G01 X38.1593 Y11.1938 
G01 X38.0036 Y11.2444 
G01 X37.8419 Y11.2700 
G01 X37.6781 Y11.2700 
G01 X37.5164 Y11.2444 
G01 X37.3607 Y11.1938 
G01 X37.2148 Y11.1195 
G01 X37.0824 Y11.0232 
G01 X36.9666 Y10.9074 
G01 X36.8703 Y10.7750 
G01 X36.7960 Y10.6291 
G01 X36.7454 Y10.4734 
G01 X36.7198 Y10.3117 
G00 Z2.0000  
G00 X12.2098 Y10.3117 
G01 Z-0.1000 F100   
G01 X12.2098 Y8.2683  F250   
G01 X12.2354 Y8.1066  
G01 X12.2860 Y7.9509  
G01 X12.3603 Y7.8050  
G01 X12.4566 Y7.6726  
G01 X12.5724 Y7.5568  
G01 X12.7048 Y7.4605  
G01 X12.8507 Y7.3862  
G01 X13.0064 Y7.3356  
G01 X13.1681 Y7.3100  
G01 X13.3319 Y7.3100  
G01 X13.4936 Y7.3356  
G01 X13.6493 Y7.3862  
G01 X13.7952 Y7.4605  
G01 X13.9276 Y7.5568  
G01 X14.0434 Y7.6726  
G01 X14.1397 Y7.8050  
G01 X14.2140 Y7.9509  
G01 X14.2646 Y8.1066  
G01 X14.2902 Y8.2683  
G01 X14.2902 Y10.3117 
G01 X14.2646 Y10.4734 
G01 X14.2140 Y10.6291 
G01 X14.1397 Y10.7750 
G01 X14.0434 Y10.9074 
G01 X13.9276 Y11.0232 
G01 X13.7952 Y11.1195 
G01 X13.6493 Y11.1938 
G01 X13.4936 Y11.2444 
G01 X13.3319 Y11.2700 
G01 X13.1681 Y11.2700 
G01 X13.0064 Y11.2444 
G01 X12.8507 Y11.1938 
G01 X12.7048 Y11.1195 
G01 X12.5724 Y11.0232 
G01 X12.4566 Y10.9074 
G01 X12.3603 Y10.7750 
G01 X12.2860 Y10.6291 
G01 X12.2354 Y10.4734 
G01 X12.2098 Y10.3117 
G00 Z2.0000  
G00 X29.8319 Y44.4174 
G01 Z-0.1000 F100   
G01 X29.8319 Y44.5623 F250   
G01 X29.8036 Y44.7044 
G01 X29.7482 Y44.8382 
G01 X29.6677 Y44.9586 
G01 X29.5653 Y45.0611 
G01 X29.4449 Y45.1415 
G01 X29.3110 Y45.1970 
G01 X29.1689 Y45.2252 
G01 X29.0241 Y45.2252 
G01 X28.8820 Y45.1970 
G01 X28.7482 Y45.1415 
G01 X28.6277 Y45.0611 
G01 X28.5253 Y44.9586 
G01 X28.4448 Y44.8382 
G01 X28.3894 Y44.7044 
G01 X28.3611 Y44.5623 
G01 X28.3611 Y44.4174 
G01 X28.3894 Y44.2753 
G01 X28.4448 Y44.1415 
G01 X28.5253 Y44.0211 
G01 X28.6277 Y43.9186 
G01 X28.7482 Y43.8381 
G01 X28.8302 Y43.8042 
G01 X28.8302 Y43.7647 
G01 X28.8687 Y43.6718 
G01 X28.9398 Y43.6007 
G01 X28.9572 Y43.5833 
G01 X28.9572 Y43.5107 
G01 X28.9957 Y43.4178 
G01 X29.0668 Y43.3467 
G01 X32.3862 Y40.0273 
G01 X32.3862 Y27.5087 
G01 X32.4247 Y27.4158 
G01 X32.4958 Y27.3447 
G01 X34.5278 Y25.3127 
G01 X34.6207 Y25.2742 
G01 X36.0260 Y25.2742 
G01 X36.0339 Y25.2715 
G01 X36.0761 Y25.2742 
G01 X36.1183 Y25.2742 
G01 X36.1260 Y25.2774 
G01 X36.1343 Y25.2779 
G01 X36.1722 Y25.2965 
G01 X36.2112 Y25.3127 
G01 X36.2171 Y25.3186 
G01 X36.2246 Y25.3222 
G01 X36.2333 Y25.3322 
G01 X36.6031 Y25.3322 
G01 X36.6400 Y25.3475 
G01 X36.6682 Y25.3757 
G01 X36.6835 Y25.4126 
G01 X36.6835 Y25.7574 
G01 X36.6682 Y25.7943 
G01 X36.6400 Y25.8225 
G01 X36.6031 Y25.8378 
G01 X36.1298 Y25.8378 
G01 X36.1219 Y25.8405 
G01 X36.0797 Y25.8378 
G01 X35.5725 Y25.8378 
G01 X35.5356 Y25.8225 
G01 X35.5074 Y25.7943 
G01 X35.5014 Y25.7798 
G01 X34.7757 Y25.7798 
G01 X32.8918 Y27.6637 
G01 X32.8918 Y40.1823 
G01 X32.8533 Y40.2752 
G01 X29.4628 Y43.6657 
G01 X29.4628 Y43.7383 
G01 X29.4310 Y43.8150 
G01 X29.4397 Y43.8360 
G01 X29.4449 Y43.8381 
G01 X29.5653 Y43.9186 
G01 X29.6677 Y44.0211 
G01 X29.7482 Y44.1415 
G01 X29.8036 Y44.2753 
G01 X29.8319 Y44.4174 
G00 Z2.0000  
G00 X27.2919 Y44.4174 
G01 Z-0.1000 F100   
G01 X27.2919 Y44.5623 F250   
G01 X27.2636 Y44.7044 
G01 X27.2082 Y44.8382 
G01 X27.1277 Y44.9586 
G01 X27.0253 Y45.0611 
G01 X26.9048 Y45.1415 
G01 X26.7710 Y45.1970 
G01 X26.6289 Y45.2252 
G01 X26.4841 Y45.2252 
G01 X26.3420 Y45.1970 
G01 X26.2082 Y45.1415 
G01 X26.0877 Y45.0611 
G01 X25.9853 Y44.9586 
G01 X25.9048 Y44.8382 
G01 X25.8494 Y44.7044 
G01 X25.8211 Y44.5623 
G01 X25.8211 Y44.4174 
G01 X25.8494 Y44.2753 
G01 X25.9048 Y44.1415 
G01 X25.9853 Y44.0211 
G01 X26.0877 Y43.9186 
G01 X26.2082 Y43.8381 
G01 X26.3420 Y43.7827 
G01 X26.4841 Y43.7544 
G01 X26.6289 Y43.7544 
G01 X26.7710 Y43.7827 
G01 X26.9048 Y43.8381 
G01 X27.0253 Y43.9186 
G01 X27.1277 Y44.0211 
G01 X27.2082 Y44.1415 
G01 X27.2636 Y44.2753 
G01 X27.2919 Y44.4174 
G00 Z2.0000  
G00 X22.2119 Y44.4174 
G01 Z-0.1000 F100   
G01 X22.2119 Y44.5623 F250   
G01 X22.1836 Y44.7044 
G01 X22.1282 Y44.8382 
G01 X22.0477 Y44.9586 
G01 X21.9453 Y45.0611 
G01 X21.8249 Y45.1415 
G01 X21.6910 Y45.1970 
G01 X21.5489 Y45.2252 
G01 X21.4041 Y45.2252 
G01 X21.2620 Y45.1970 
G01 X21.1282 Y45.1415 
G01 X21.0077 Y45.0611 
G01 X20.9053 Y44.9586 
G01 X20.8248 Y44.8382 
G01 X20.7694 Y44.7044 
G01 X20.7411 Y44.5623 
G01 X20.7411 Y44.4174 
G01 X20.7694 Y44.2753 
G01 X20.8248 Y44.1415 
G01 X20.9053 Y44.0211 
G01 X21.0077 Y43.9186 
G01 X21.1282 Y43.8381 
G01 X21.2620 Y43.7827 
G01 X21.4041 Y43.7544 
G01 X21.5489 Y43.7544 
G01 X21.6910 Y43.7827 
G01 X21.8249 Y43.8381 
G01 X21.9453 Y43.9186 
G01 X22.0477 Y44.0211 
G01 X22.1282 Y44.1415 
G01 X22.1836 Y44.2753 
G01 X22.2119 Y44.4174 
G00 Z2.0000  
G00 X19.6719 Y46.9574 
G01 Z-0.1000 F100   
G01 X19.6719 Y47.1023 F250   
G01 X19.6436 Y47.2444 
G01 X19.5882 Y47.3782 
G01 X19.5077 Y47.4986 
G01 X19.4053 Y47.6011 
G01 X19.2849 Y47.6815 
G01 X19.1510 Y47.7370 
G01 X19.0089 Y47.7652 
G01 X18.8641 Y47.7652 
G01 X18.7220 Y47.7370 
G01 X18.5882 Y47.6815 
G01 X18.4677 Y47.6011 
G01 X18.3653 Y47.4986 
G01 X18.2848 Y47.3782 
G01 X18.2294 Y47.2444 
G01 X18.2011 Y47.1023 
G01 X18.2011 Y46.9574 
G01 X18.2294 Y46.8153 
G01 X18.2848 Y46.6815 
G01 X18.3653 Y46.5611 
G01 X18.4677 Y46.4586 
G01 X18.5882 Y46.3781 
G01 X18.7220 Y46.3227 
G01 X18.8641 Y46.2944 
G01 X19.0089 Y46.2944 
G01 X19.1510 Y46.3227 
G01 X19.2849 Y46.3781 
G01 X19.4053 Y46.4586 
G01 X19.5077 Y46.5611 
G01 X19.5882 Y46.6815 
G01 X19.6436 Y46.8153 
G01 X19.6719 Y46.9574 
G00 Z2.0000  
G00 X19.6436 Y54.8644 
G01 Z-0.1000 F100   
G01 X19.5882 Y54.9982 F250   
G01 X19.5077 Y55.1186 
G01 X19.4053 Y55.2211 
G01 X19.2849 Y55.3015 
G01 X19.1510 Y55.3570 
G01 X19.0089 Y55.3852 
G01 X18.8641 Y55.3852 
G01 X18.7220 Y55.3570 
G01 X18.5882 Y55.3015 
G01 X18.4677 Y55.2211 
G01 X18.3653 Y55.1186 
G01 X18.2848 Y54.9982 
G01 X18.2294 Y54.8644 
G01 X18.2011 Y54.7223 
G01 X18.2011 Y54.5774 
G01 X18.2294 Y54.4353 
G01 X18.2848 Y54.3015 
G01 X18.3653 Y54.1811 
G01 X18.4677 Y54.0786 
G01 X18.5882 Y53.9981 
G01 X18.7220 Y53.9427 
G01 X18.8641 Y53.9144 
G01 X19.0089 Y53.9144 
G01 X19.1510 Y53.9427 
G01 X19.2849 Y53.9981 
G01 X19.4053 Y54.0786 
G01 X19.5077 Y54.1811 
G01 X19.5882 Y54.3015 
G01 X19.6113 Y54.3572 
G01 X22.1483 Y54.3572 
G01 X22.2412 Y54.3957 
G01 X22.3123 Y54.4668 
G01 X29.5687 Y61.7232 
G01 X35.8363 Y61.7232 
G01 X40.8952 Y56.6643 
G01 X40.8952 Y40.1515 
G01 X40.8737 Y40.1473 
G01 X40.7026 Y40.0764 
G01 X40.5485 Y39.9735 
G01 X40.4175 Y39.8425 
G01 X40.3146 Y39.6884 
G01 X40.2437 Y39.5173 
G01 X40.2076 Y39.3356 
G01 X40.2076 Y39.1504 
G01 X40.2437 Y38.9687 
G01 X40.3146 Y38.7976 
G01 X40.4175 Y38.6435 
G01 X40.5485 Y38.5125 
G01 X40.7026 Y38.4096 
G01 X40.8737 Y38.3387 
G01 X41.0554 Y38.3026 
G01 X41.2406 Y38.3026 
G01 X41.4223 Y38.3387 
G01 X41.5934 Y38.4096 
G01 X41.7475 Y38.5125 
G01 X41.8785 Y38.6435 
G01 X41.9814 Y38.7976 
G01 X42.0523 Y38.9687 
G01 X42.0884 Y39.1504 
G01 X42.0884 Y39.3356 
G01 X42.0523 Y39.5173 
G01 X41.9814 Y39.6884 
G01 X41.8785 Y39.8425 
G01 X41.7475 Y39.9735 
G01 X41.5934 Y40.0764 
G01 X41.4223 Y40.1473 
G01 X41.4008 Y40.1515 
G01 X41.4008 Y56.8193 
G01 X41.3623 Y56.9122 
G01 X36.1553 Y62.1192 
G01 X36.0842 Y62.1903 
G01 X35.9913 Y62.2288 
G01 X29.4137 Y62.2288 
G01 X29.3208 Y62.1903 
G01 X21.9933 Y54.8628 
G01 X19.6440 Y54.8628 
G00 Z2.0000  
G00 X19.6719 Y57.1174 
G01 Z-0.1000 F100   
G01 X19.6719 Y57.2623 F250   
G01 X19.6436 Y57.4044 
G01 X19.5882 Y57.5382 
G01 X19.5077 Y57.6586 
G01 X19.4053 Y57.7611 
G01 X19.2849 Y57.8415 
G01 X19.1510 Y57.8970 
G01 X19.0089 Y57.9252 
G01 X18.8641 Y57.9252 
G01 X18.7220 Y57.8970 
G01 X18.5882 Y57.8415 
G01 X18.4677 Y57.7611 
G01 X18.3653 Y57.6586 
G01 X18.2848 Y57.5382 
G01 X18.2294 Y57.4044 
G01 X18.2011 Y57.2623 
G01 X18.2011 Y57.1174 
G01 X18.2294 Y56.9753 
G01 X18.2848 Y56.8415 
G01 X18.3653 Y56.7211 
G01 X18.4677 Y56.6186 
G01 X18.5882 Y56.5381 
G01 X18.7220 Y56.4827 
G01 X18.8641 Y56.4544 
G01 X19.0089 Y56.4544 
G01 X19.1510 Y56.4827 
G01 X19.2849 Y56.5381 
G01 X19.4053 Y56.6186 
G01 X19.5077 Y56.7211 
G01 X19.5882 Y56.8415 
G01 X19.6436 Y56.9753 
G01 X19.6719 Y57.1174 
G00 Z2.0000  
G00 X32.3719 Y44.4174 
G01 Z-0.1000 F100   
G01 X32.3719 Y44.5623 F250   
G01 X32.3436 Y44.7044 
G01 X32.2882 Y44.8382 
G01 X32.2077 Y44.9586 
G01 X32.1053 Y45.0611 
G01 X31.9849 Y45.1415 
G01 X31.8510 Y45.1970 
G01 X31.7089 Y45.2252 
G01 X31.5641 Y45.2252 
G01 X31.4220 Y45.1970 
G01 X31.2882 Y45.1415 
G01 X31.1677 Y45.0611 
G01 X31.0653 Y44.9586 
G01 X30.9848 Y44.8382 
G01 X30.9294 Y44.7044 
G01 X30.9011 Y44.5623 
G01 X30.9011 Y44.4174 
G01 X30.9294 Y44.2753 
G01 X30.9848 Y44.1415 
G01 X31.0653 Y44.0211 
G01 X31.1677 Y43.9186 
G01 X31.2567 Y43.8592 
G01 X31.2817 Y43.7988 
G01 X31.3528 Y43.7277 
G01 X33.0212 Y42.0593 
G01 X33.0212 Y28.5247 
G01 X33.0597 Y28.4318 
G01 X33.1308 Y28.3607 
G01 X34.7818 Y26.7097 
G01 X34.8747 Y26.6712 
G01 X35.5119 Y26.6712 
G01 X35.5356 Y26.6475 
G01 X35.5725 Y26.6322 
G01 X36.0476 Y26.6322 
G01 X36.0571 Y26.6291 
G01 X36.0976 Y26.6322 
G01 X36.6031 Y26.6322 
G01 X36.6400 Y26.6475 
G01 X36.6682 Y26.6757 
G01 X36.6835 Y26.7126 
G01 X36.6835 Y27.0574 
G01 X36.6682 Y27.0943 
G01 X36.6400 Y27.1225 
G01 X36.6031 Y27.1378 
G01 X36.2117 Y27.1378 
G01 X36.2019 Y27.1422 
G01 X36.1943 Y27.1487 
G01 X36.1557 Y27.1613 
G01 X36.1183 Y27.1768 
G01 X36.1082 Y27.1768 
G01 X36.0987 Y27.1799 
G01 X36.0582 Y27.1768 
G01 X35.0297 Y27.1768 
G01 X33.5268 Y28.6797 
G01 X33.5268 Y42.2143 
G01 X33.4883 Y42.3072 
G01 X31.9654 Y43.8301 
G01 X31.9849 Y43.8381 
G01 X32.1053 Y43.9186 
G01 X32.2077 Y44.0211 
G01 X32.2882 Y44.1415 
G01 X32.3436 Y44.2753 
G01 X32.3719 Y44.4174 
G00 Z2.0000  
G00 X37.4519 Y46.9574 
G01 Z-0.1000 F100   
G01 X37.4519 Y47.1023 F250   
G01 X37.4236 Y47.2444 
G01 X37.3682 Y47.3782 
G01 X37.2877 Y47.4986 
G01 X37.1853 Y47.6011 
G01 X37.0648 Y47.6815 
G01 X36.9310 Y47.7370 
G01 X36.7889 Y47.7652 
G01 X36.6441 Y47.7652 
G01 X36.5020 Y47.7370 
G01 X36.3682 Y47.6815 
G01 X36.2477 Y47.6011 
G01 X36.1453 Y47.4986 
G01 X36.0648 Y47.3782 
G01 X36.0094 Y47.2444 
G01 X35.9811 Y47.1023 
G01 X35.9811 Y46.9574 
G01 X36.0094 Y46.8153 
G01 X36.0648 Y46.6815 
G01 X36.1453 Y46.5611 
G01 X36.2477 Y46.4586 
G01 X36.3682 Y46.3781 
G01 X36.5020 Y46.3227 
G01 X36.6441 Y46.2944 
G01 X36.7889 Y46.2944 
G01 X36.9310 Y46.3227 
G01 X37.0648 Y46.3781 
G01 X37.1853 Y46.4586 
G01 X37.2877 Y46.5611 
G01 X37.3682 Y46.6815 
G01 X37.4236 Y46.8153 
G01 X37.4519 Y46.9574 
G00 Z2.0000  
G00 X37.4519 Y49.4974 
G01 Z-0.1000 F100   
G01 X37.4519 Y49.6423 F250   
G01 X37.4236 Y49.7844 
G01 X37.3682 Y49.9182 
G01 X37.2877 Y50.0386 
G01 X37.1853 Y50.1411 
G01 X37.0648 Y50.2215 
G01 X37.0201 Y50.2401 
G01 X37.0201 Y50.3002 
G01 X37.1298 Y50.2443 
G01 X37.2302 Y50.1714 
G01 X37.2555 Y50.1461 
G01 X37.2690 Y50.1326 
G01 X37.3120 Y50.0896 
G01 X37.3812 Y50.0496 
G01 X37.4162 Y50.0403 
G01 X37.4584 Y50.0290 
G01 X37.5384 Y50.0290 
G01 X37.5789 Y50.0398 
G01 X37.6156 Y50.0496 
G01 X37.6848 Y50.0896 
G01 X37.7126 Y50.1174 
G01 X37.7413 Y50.1461 
G01 X37.7813 Y50.2154 
G01 X37.7907 Y50.2503 
G01 X37.8020 Y50.2926 
G01 X37.8020 Y50.9593 
G01 X37.8020 Y50.9988 
G01 X37.8020 Y51.0392 
G01 X37.7879 Y51.0919 
G01 X37.7813 Y51.1164 
G01 X37.7588 Y51.1554 
G01 X37.7413 Y51.1857 
G01 X37.7135 Y51.2135 
G01 X37.6848 Y51.2422 
G01 X37.6365 Y51.2701 
G01 X37.6156 Y51.2821 
G01 X37.5623 Y51.2964 
G01 X37.5384 Y51.3028 
G01 X37.4988 Y51.3028 
G01 X37.4584 Y51.3028 
G01 X37.4058 Y51.2887 
G01 X37.3812 Y51.2821 
G01 X37.3422 Y51.2596 
G01 X37.3120 Y51.2422 
G01 X37.3026 Y51.2327 
G01 X36.9223 Y51.0752 
G01 X36.5107 Y51.0752 
G01 X36.1305 Y51.2327 
G01 X36.0329 Y51.3303 
G01 X35.9636 Y51.3703 
G01 X35.8864 Y51.3910 
G01 X35.3664 Y51.3910 
G01 X35.2892 Y51.3703 
G01 X35.2200 Y51.3303 
G01 X35.1635 Y51.2738 
G01 X29.6560 Y45.7663 
G01 X29.6160 Y45.6971 
G01 X29.5953 Y45.6199 
G01 X29.5953 Y45.5400 
G01 X29.6151 Y45.4660 
G01 X29.6160 Y45.4627 
